; GCode generated by RepSnapper by Kulitorum
G21                              ;metric is good!
G90                              ;absolute positioning
T0                                 ;select new extruder
G28                               ;go home
G92 E0                          ;set extruder home
M104 S230                   ;set temperature
G1 X20 Y20 F500            ;Move away from 0.0, so we use the same reset (in the layer code) for each layer


G1 F70
G1 Z0.15 E0 F70

G1 F2000
G1 X65.7497 Y65.6403 F2000
G1 X69.9102 Y72.8465 E7.48893 F2000
G1 X70.5908 Y73.5271 F2000
G1 X64.2268 Y67.1631 E15.5889 F2000
G1 X72.5 Y58.8899 E26.1189 F2000
G1 X98.6158 Y85.0058 E59.3589 F2000
G1 X90.8376 Y92.7839 E69.259 F2000
G1 X71.5808 Y73.5271 E93.769 F2000
G1 X71.0858 Y73.322 E94.2511 F2000
G1 X70.5908 Y73.5271 E94.7333 F2000
G1 X70.8246 Y73.4302 F2000
G1 X66.1157 Y65.2742 E103.209 F2000
G1 X66.4818 Y64.9082 F2000
G1 X71.4192 Y73.4602 E112.097 F2000
G1 X72.656 Y74.6023 F2000
G1 X66.8478 Y64.5422 E122.552 F2000
G1 X67.2138 Y64.1761 F2000
G1 X74.022 Y75.9683 E134.806 F2000
G1 X75.3881 Y77.3344 F2000
G1 X67.5798 Y63.8101 E148.861 F2000
G1 X67.9459 Y63.4441 F2000
G1 X76.7541 Y78.7004 E164.716 F2000
G1 X78.1201 Y80.0664 F2000
G1 X68.3119 Y63.0781 E182.371 F2000
G1 X68.6779 Y62.7121 F2000
G1 X79.4861 Y81.4324 E201.826 F2000
G1 X80.8521 Y82.7985 F2000
G1 X69.0439 Y62.346 E223.08 F2000
G1 X69.41 Y61.98 F2000
G1 X82.2182 Y84.1645 E246.135 F2000
G1 X83.9431 Y83.4911 F2000
G1 X84.2051 Y83.7726 E246.481 F2000
G1 X85.6229 Y84.8874 E248.104 F2000
G1 X85.9955 Y84.9825 E248.45 F2000
G1 X87.791 Y85.1539 E250.073 F2000
G1 X88.1558 Y85.0324 E250.419 F2000
G1 X89.7589 Y84.2059 E252.042 F2000
G1 X90.0002 Y83.9065 E252.388 F2000
G1 X90.9019 Y82.3445 E254.011 F2000
G1 X90.943 Y81.9621 E254.357 F2000
G1 X90.8571 Y80.1606 E255.979 F2000
G1 X90.685 Y79.8167 E256.326 F2000
G1 X89.6387 Y78.3476 E257.948 F2000
G1 X89.308 Y78.1513 E258.294 F2000
G1 X87.6336 Y77.4811 E259.917 F2000
G1 X87.2493 Y77.4948 E260.263 F2000
G1 X85.4783 Y77.8362 E261.886 F2000
G1 X85.1624 Y78.0555 E262.232 F2000
G1 X83.8571 Y79.3002 E263.855 F2000
G1 X83.71 Y79.6555 E264.201 F2000
G1 X83.2848 Y81.4083 E265.824 F2000
G1 X83.3531 Y81.7868 E266.17 F2000
G1 X83.9431 Y83.4911 E267.793 F2000
G1 X84.4289 Y83.9936 F2000
G1 X87.6823 Y89.6286 E273.649 F2000
G1 X89.0483 Y90.9946 F2000
G1 X85.4458 Y84.7548 E280.133 F2000
G1 X86.1873 Y85.0392 F2000
G1 X90.4143 Y92.3606 E287.742 F2000
G1 X91.0902 Y92.5313 F2000
G1 X86.7895 Y85.0823 E295.483 F2000
G1 X87.3917 Y85.1253 F2000
G1 X91.4563 Y92.1653 E302.799 F2000
G1 X91.8223 Y91.7993 F2000
G1 X87.9542 Y85.0996 E309.762 F2000
G1 X88.4335 Y84.9297 F2000
G1 X92.1883 Y91.4333 E316.521 F2000
G1 X92.5543 Y91.0672 F2000
G1 X88.8724 Y84.69 E323.148 F2000
G1 X89.3114 Y84.4503 F2000
G1 X92.9204 Y90.7012 E329.644 F2000
G1 X93.2864 Y90.3352 F2000
G1 X89.7504 Y84.2106 E336.009 F2000
G1 X90.0991 Y83.8147 F2000
G1 X93.6524 Y89.9692 E342.405 F2000
G1 X94.0184 Y89.6031 F2000
G1 X90.3798 Y83.3008 E348.955 F2000
G1 X90.6604 Y82.7868 F2000
G1 X94.3845 Y89.2371 E355.658 F2000
G1 X94.7505 Y88.8711 F2000
G1 X90.9146 Y82.227 E362.563 F2000
G1 X90.9361 Y81.2643 F2000
G1 X95.1165 Y88.5051 E370.088 F2000
G1 X95.4825 Y88.139 F2000
G1 X90.733 Y79.9126 E378.637 F2000
G1 X90.4724 Y79.4612 F2000
G1 X86.9223 Y73.3122 E385.027 F2000
G1 X88.2883 Y74.6783 F2000
G1 X95.8486 Y87.773 E398.635 F2000
G1 X96.2146 Y87.407 F2000
G1 X89.6543 Y76.0443 E410.444 F2000
G1 X91.0204 Y77.4103 F2000
G1 X96.5806 Y87.041 E420.452 F2000
G1 X96.9466 Y86.6749 F2000
G1 X92.3864 Y78.7763 E428.661 F2000
G1 X93.7524 Y80.1424 F2000
G1 X97.3127 Y86.3089 E435.069 F2000
G1 X97.6787 Y85.9429 F2000
G1 X95.1184 Y81.5084 E439.678 F2000
G1 X96.4845 Y82.8744 F2000
G1 X98.0447 Y85.5769 E442.486 F2000
G1 X98.4107 Y85.2108 F2000
G1 X97.8505 Y84.2404 E443.495 F2000
G1 X100.784 Y87.1742 F2000
G1 X126.9 Y113.29 E476.735 F2000
G1 X119.122 Y121.068 E486.635 F2000
G1 X99.865 Y101.811 E511.145 F2000
G1 X99.3701 Y101.606 E511.627 F2000
G1 X98.8751 Y101.811 E512.109 F2000
G1 X92.5111 Y95.4474 E520.209 F2000
G1 X100.784 Y87.1742 E530.739 F2000
G1 X100.73 Y87.2283 F2000
G1 X112.358 Y107.368 E551.669 F2000
G1 X112.141 Y107.585 F2000
G1 X111.994 Y107.94 E552.015 F2000
G1 X111.569 Y109.693 E553.638 F2000
G1 X111.637 Y110.071 E553.984 F2000
G1 X112.227 Y111.775 E555.607 F2000
G1 X112.489 Y112.057 E555.953 F2000
G1 X113.907 Y113.172 E557.576 F2000
G1 X114.28 Y113.267 E557.922 F2000
G1 X116.075 Y113.438 E559.545 F2000
G1 X116.44 Y113.317 E559.891 F2000
G1 X118.043 Y112.49 E561.513 F2000
G1 X118.284 Y112.191 E561.86 F2000
G1 X119.186 Y110.629 E563.482 F2000
G1 X119.227 Y110.246 E563.828 F2000
G1 X119.141 Y108.445 E565.451 F2000
G1 X118.969 Y108.101 E565.797 F2000
G1 X117.923 Y106.632 E567.42 F2000
G1 X117.592 Y106.436 E567.766 F2000
G1 X115.918 Y105.765 E569.389 F2000
G1 X115.534 Y105.779 E569.735 F2000
G1 X113.763 Y106.12 E571.358 F2000
G1 X113.447 Y106.34 E571.704 F2000
G1 X112.141 Y107.585 E573.327 F2000
G1 X112.043 Y107.822 F2000
G1 X100.364 Y87.5943 E594.349 F2000
G1 X99.9982 Y87.9603 F2000
G1 X111.836 Y108.464 E615.657 F2000
G1 X111.678 Y109.191 F2000
G1 X99.6321 Y88.3263 E637.34 F2000
G1 X99.2661 Y88.6924 F2000
G1 X111.614 Y110.08 E659.566 F2000
G1 X109.539 Y111.485 F2000
G1 X97.436 Y90.5225 E681.351 F2000
G1 X97.802 Y90.1565 F2000
G1 X110.905 Y112.851 E704.936 F2000
G1 X112.271 Y114.217 F2000
G1 X98.168 Y89.7905 E730.321 F2000
G1 X98.5341 Y89.4244 F2000
G1 X113.637 Y115.583 E757.506 F2000
G1 X115.003 Y116.949 F2000
G1 X98.9001 Y89.0584 E786.491 F2000
G1 X97.07 Y90.8885 F2000
G1 X108.173 Y110.119 E806.476 F2000
G1 X106.807 Y108.753 F2000
G1 X96.7039 Y91.2545 E824.661 F2000
G1 X96.3379 Y91.6206 F2000
G1 X105.441 Y107.387 E841.045 F2000
G1 X104.075 Y106.021 F2000
G1 X95.9719 Y91.9866 E855.63 F2000
G1 X95.6059 Y92.3526 F2000
G1 X102.709 Y104.655 E868.415 F2000
G1 X101.343 Y103.289 F2000
G1 X95.2398 Y92.7187 E879.4 F2000
G1 X94.8738 Y93.0847 F2000
G1 X99.9765 Y101.923 E888.585 F2000
G1 X99.2461 Y101.658 F2000
G1 X94.5078 Y93.4507 E897.114 F2000
G1 X94.1418 Y93.8167 F2000
G1 X98.5968 Y101.533 E905.133 F2000
G1 X97.2307 Y100.167 F2000
G1 X93.7757 Y94.1828 E911.352 F2000
G1 X93.4097 Y94.5488 F2000
G1 X95.8647 Y98.801 E915.771 F2000
G1 X94.4987 Y97.4349 F2000
G1 X93.0437 Y94.9148 E918.39 F2000
G1 X92.6777 Y95.2808 F2000
G1 X93.1326 Y96.0689 E919.209 F2000
G1 X91.3116 Y98.9147 F2000
G1 X102.109 Y117.617 E938.644 F2000
G1 X101.743 Y117.983 F2000
G1 X90.1155 Y97.843 E959.574 F2000
G1 X90.1777 Y97.7808 F2000
G1 X116.293 Y123.897 E992.814 F2000
G1 X108.515 Y131.675 E1002.71 F2000
G1 X89.2584 Y112.418 E1027.22 F2000
G1 X88.7635 Y112.213 E1027.71 F2000
G1 X88.2685 Y112.418 E1028.19 F2000
G1 X81.9045 Y106.054 E1036.29 F2000
G1 X90.1777 Y97.7808 E1046.82 F2000
G1 X89.7495 Y98.209 F2000
G1 X101.431 Y118.442 E1067.85 F2000
G1 X101.388 Y118.546 F2000
G1 X100.963 Y120.299 E1069.47 F2000
G1 X101.031 Y120.678 E1069.81 F2000
G1 X101.621 Y122.382 E1071.44 F2000
G1 X101.883 Y122.663 E1071.78 F2000
G1 X103.301 Y123.778 E1073.41 F2000
G1 X103.673 Y123.873 E1073.75 F2000
G1 X105.469 Y124.045 E1075.37 F2000
G1 X105.834 Y123.923 E1075.72 F2000
G1 X107.437 Y123.097 E1077.34 F2000
G1 X107.678 Y122.797 E1077.69 F2000
G1 X108.58 Y121.235 E1079.31 F2000
G1 X108.621 Y120.853 E1079.66 F2000
G1 X108.535 Y119.051 E1081.28 F2000
G1 X108.363 Y118.708 E1081.63 F2000
G1 X107.316 Y117.238 E1083.25 F2000
G1 X106.986 Y117.042 E1083.6 F2000
G1 X105.311 Y116.372 E1085.22 F2000
G1 X104.927 Y116.386 E1085.56 F2000
G1 X103.156 Y116.727 E1087.19 F2000
G1 X102.84 Y116.946 E1087.53 F2000
G1 X101.535 Y118.191 E1089.16 F2000
G1 X101.388 Y118.546 E1089.5 F2000
G1 X101.226 Y119.087 F2000
G1 X89.3834 Y98.5751 E1110.82 F2000
G1 X89.0174 Y98.9411 F2000
G1 X101.068 Y119.814 E1132.51 F2000
G1 X100.997 Y120.69 F2000
G1 X88.6514 Y99.3071 E1154.73 F2000
G1 X88.2854 Y99.6731 F2000
G1 X104.366 Y127.525 E1183.68 F2000
G1 X105.732 Y128.891 F2000
G1 X102.383 Y123.092 E1189.7 F2000
G1 X103.367 Y123.795 F2000
G1 X107.098 Y130.257 E1196.42 F2000
G1 X108.464 Y131.623 F2000
G1 X104.029 Y123.942 E1204.4 F2000
G1 X104.631 Y123.985 F2000
G1 X108.868 Y131.323 E1212.03 F2000
G1 X109.234 Y130.957 F2000
G1 X105.233 Y124.028 E1219.23 F2000
G1 X105.764 Y123.947 F2000
G1 X109.6 Y130.591 E1226.13 F2000
G1 X109.966 Y130.224 F2000
G1 X106.231 Y123.755 E1232.86 F2000
G1 X106.67 Y123.516 F2000
G1 X110.332 Y129.858 E1239.45 F2000
G1 X110.698 Y129.492 F2000
G1 X107.109 Y123.276 E1245.91 F2000
G1 X107.522 Y122.991 F2000
G1 X111.064 Y129.126 E1252.29 F2000
G1 X111.43 Y128.76 F2000
G1 X107.853 Y122.566 E1258.72 F2000
G1 X108.134 Y122.052 F2000
G1 X111.796 Y128.394 E1265.31 F2000
G1 X112.162 Y128.028 F2000
G1 X108.414 Y121.538 E1272.06 F2000
G1 X108.617 Y120.888 F2000
G1 X112.528 Y127.662 E1279.1 F2000
G1 X112.894 Y127.296 F2000
G1 X108.592 Y119.844 E1286.84 F2000
G1 X110.436 Y118.039 F2000
G1 X114.724 Y125.466 E1294.56 F2000
G1 X115.09 Y125.1 F2000
G1 X111.802 Y119.405 E1300.48 F2000
G1 X113.168 Y120.771 F2000
G1 X115.456 Y124.734 E1304.6 F2000
G1 X115.822 Y124.368 F2000
G1 X114.534 Y122.137 E1306.92 F2000
G1 X115.9 Y123.503 F2000
G1 X116.188 Y124.002 E1307.44 F2000
G1 X114.358 Y125.832 F2000
G1 X109.07 Y116.673 E1316.95 F2000
G1 X107.704 Y115.307 F2000
G1 X113.992 Y126.198 E1328.27 F2000
G1 X113.626 Y126.564 F2000
G1 X106.338 Y113.941 E1341.39 F2000
G1 X104.972 Y112.575 F2000
G1 X113.26 Y126.93 E1356.31 F2000
G1 X119.101 Y121.047 F2000
G1 X114.649 Y113.336 E1364.32 F2000
G1 X115.251 Y113.379 F2000
G1 X119.482 Y120.708 E1371.94 F2000
G1 X119.848 Y120.342 F2000
G1 X115.853 Y113.422 E1379.13 F2000
G1 X116.381 Y113.336 F2000
G1 X120.214 Y119.976 E1386.03 F2000
G1 X120.58 Y119.61 F2000
G1 X116.847 Y113.143 E1392.75 F2000
G1 X117.286 Y112.904 F2000
G1 X120.946 Y119.244 E1399.34 F2000
G1 X121.312 Y118.878 F2000
G1 X117.725 Y112.664 E1405.8 F2000
G1 X118.136 Y112.375 F2000
G1 X121.678 Y118.512 E1412.17 F2000
G1 X122.044 Y118.146 F2000
G1 X118.466 Y111.948 E1418.61 F2000
G1 X118.747 Y111.434 F2000
G1 X122.41 Y117.78 E1425.21 F2000
G1 X122.777 Y117.414 F2000
G1 X119.027 Y110.92 E1431.96 F2000
G1 X119.226 Y110.263 F2000
G1 X123.143 Y117.048 E1439.01 F2000
G1 X123.509 Y116.682 F2000
G1 X119.196 Y109.212 E1446.77 F2000
G1 X121.073 Y107.463 F2000
G1 X125.339 Y114.851 E1454.45 F2000
G1 X125.705 Y114.485 F2000
G1 X122.439 Y108.829 E1460.33 F2000
G1 X123.805 Y110.195 F2000
G1 X126.071 Y114.119 E1464.41 F2000
G1 X126.437 Y113.753 F2000
G1 X125.171 Y111.561 E1466.68 F2000
G1 X126.537 Y112.927 F2000
G1 X126.803 Y113.387 E1467.16 F2000
G1 X124.973 Y115.217 F2000
G1 X119.707 Y106.097 E1476.64 F2000
G1 X118.341 Y104.731 F2000
G1 X124.607 Y115.583 E1487.92 F2000
G1 X124.241 Y115.949 F2000
G1 X116.975 Y103.365 E1501 F2000
G1 X115.609 Y101.999 F2000
G1 X123.875 Y116.316 E1515.88 F2000
G1 X117.735 Y119.681 F2000
G1 X113.989 Y113.192 E1522.62 F2000
G1 X113.013 Y112.502 F2000
G1 X116.369 Y118.315 E1528.66 F2000
G1 X106.937 Y116.978 F2000
G1 X103.606 Y111.209 E1534.66 F2000
G1 X102.24 Y109.843 F2000
G1 X106.201 Y116.704 E1541.79 F2000
G1 X105.465 Y116.429 F2000
G1 X100.874 Y108.477 E1550.05 F2000
G1 X99.5077 Y107.111 F2000
G1 X104.847 Y116.359 E1559.66 F2000
G1 X104.334 Y116.471 F2000
G1 X98.1417 Y105.745 E1570.81 F2000
G1 X96.7757 Y104.379 F2000
G1 X103.821 Y116.582 E1583.49 F2000
G1 X103.308 Y116.694 F2000
G1 X95.4097 Y103.013 E1597.71 F2000
G1 X94.0437 Y101.647 F2000
G1 X102.866 Y116.928 E1613.59 F2000
G1 X102.475 Y117.251 F2000
G1 X92.6776 Y100.281 E1631.22 F2000
G1 X87.9193 Y100.039 F2000
G1 X103 Y126.159 E1658.37 F2000
G1 X101.634 Y124.793 F2000
G1 X87.5533 Y100.405 E1683.71 F2000
G1 X87.1873 Y100.771 F2000
G1 X100.268 Y123.427 E1707.26 F2000
G1 X98.9017 Y122.061 F2000
G1 X86.8213 Y101.137 E1729 F2000
G1 X86.4552 Y101.503 F2000
G1 X97.5357 Y120.695 E1748.95 F2000
G1 X96.1697 Y119.329 F2000
G1 X86.0892 Y101.869 E1767.09 F2000
G1 X85.7232 Y102.235 F2000
G1 X94.8036 Y117.963 E1783.44 F2000
G1 X93.4376 Y116.597 F2000
G1 X85.3571 Y102.601 E1797.98 F2000
G1 X84.9911 Y102.967 F2000
G1 X92.0716 Y115.231 E1810.73 F2000
G1 X90.7056 Y113.865 F2000
G1 X84.6251 Y103.333 E1821.67 F2000
G1 X84.2591 Y103.699 F2000
G1 X89.3395 Y112.499 E1830.82 F2000
G1 X88.6291 Y112.269 F2000
G1 X83.8931 Y104.065 E1839.34 F2000
G1 X83.527 Y104.431 F2000
G1 X87.9598 Y112.109 E1847.32 F2000
G1 X86.5938 Y110.743 F2000
G1 X83.161 Y104.797 E1853.5 F2000
G1 X82.795 Y105.164 F2000
G1 X85.2277 Y109.377 E1857.88 F2000
G1 X83.8617 Y108.011 F2000
G1 X82.4289 Y105.53 E1860.46 F2000
G1 X82.0629 Y105.896 F2000
G1 X82.4957 Y106.645 E1861.24 F2000
G1 X80.6746 Y109.491 F2000
G1 X85.0821 Y117.125 E1869.17 F2000
G1 X85.0536 Y117.216 F2000
G1 X85.0832 Y117.542 E1869.46 F2000
G1 X85.0334 Y117.551 E1869.51 F2000
G1 X85.39 Y119.497 E1871.29 F2000
G1 X85.5673 Y119.771 E1871.58 F2000
G1 X85.5275 Y119.802 E1871.63 F2000
G1 X86.7476 Y121.359 E1873.41 F2000
G1 X87.0321 Y121.52 E1873.7 F2000
G1 X87.0113 Y121.566 E1873.75 F2000
G1 X88.8153 Y122.378 E1875.53 F2000
G1 X89.1418 Y122.388 E1875.82 F2000
G1 X89.1449 Y122.438 E1875.87 F2000
G1 X91.1196 Y122.319 E1877.65 F2000
G1 X91.4133 Y122.176 E1877.94 F2000
G1 X91.4395 Y122.219 E1877.99 F2000
G1 X92.6632 Y121.48 E1879.28 F2000
G1 X105.687 Y134.503 E1895.85 F2000
G1 X97.9087 Y142.281 E1905.75 F2000
G1 X84.885 Y129.258 E1922.33 F2000
G1 X85.6248 Y128.034 E1923.62 F2000
G1 X85.6739 Y127.711 E1923.91 F2000
G1 X85.7245 Y127.714 E1923.96 F2000
G1 X85.8439 Y125.739 E1925.74 F2000
G1 X85.7374 Y125.431 E1926.03 F2000
G1 X85.7835 Y125.41 E1926.08 F2000
G1 X84.9716 Y123.606 E1927.86 F2000
G1 X84.7337 Y123.382 E1928.15 F2000
G1 X84.765 Y123.342 E1928.2 F2000
G1 X83.2076 Y122.122 E1929.98 F2000
G1 X82.893 Y122.034 E1930.27 F2000
G1 X82.9021 Y121.984 E1930.32 F2000
G1 X80.9562 Y121.628 E1932.1 F2000
G1 X80.6368 Y121.696 E1932.39 F2000
G1 X80.6217 Y121.648 E1932.44 F2000
G1 X78.733 Y122.237 E1934.22 F2000
G1 X78.4821 Y122.446 E1934.51 F2000
G1 X78.4463 Y122.41 E1934.56 F2000
G1 X77.9519 Y122.904 E1935.19 F2000
G1 X77.6619 Y123.025 E1935.47 F2000
G1 X71.2979 Y116.661 E1943.57 F2000
G1 X79.5711 Y108.387 E1954.1 F2000
G1 X86.02 Y114.836 E1962.31 F2000
G1 X85.8155 Y115.041 E1962.57 F2000
G1 X85.6905 Y115.343 E1962.86 F2000
G1 X85.6422 Y115.328 E1962.91 F2000
G1 X85.0536 Y117.216 E1964.69 F2000
G1 X85.2845 Y116.475 F2000
G1 X82.0407 Y110.857 E1970.53 F2000
G1 X83.4067 Y112.223 F2000
G1 X85.4868 Y115.826 E1974.27 F2000
G1 X85.73 Y115.247 F2000
G1 X84.7727 Y113.589 E1975.99 F2000
G1 X85.1649 Y118.268 F2000
G1 X79.5007 Y108.458 E1986.19 F2000
G1 X79.1347 Y108.824 F2000
G1 X90.8189 Y129.061 E2007.22 F2000
G1 X90.781 Y129.153 F2000
G1 X90.3559 Y130.906 E2008.84 F2000
G1 X90.4242 Y131.284 E2009.19 F2000
G1 X91.0142 Y132.989 E2010.81 F2000
G1 X91.2762 Y133.27 E2011.16 F2000
G1 X92.694 Y134.385 E2012.78 F2000
G1 X93.0666 Y134.48 E2013.13 F2000
G1 X94.862 Y134.651 E2014.75 F2000
G1 X95.2269 Y134.53 E2015.1 F2000
G1 X96.83 Y133.703 E2016.72 F2000
G1 X97.0713 Y133.404 E2017.06 F2000
G1 X97.973 Y131.842 E2018.69 F2000
G1 X98.0141 Y131.46 E2019.03 F2000
G1 X97.9282 Y129.658 E2020.66 F2000
G1 X97.7561 Y129.314 E2021 F2000
G1 X96.7098 Y127.845 E2022.62 F2000
G1 X96.3791 Y127.649 E2022.97 F2000
G1 X94.7047 Y126.979 E2024.59 F2000
G1 X94.3204 Y126.992 E2024.94 F2000
G1 X92.5494 Y127.334 E2026.56 F2000
G1 X92.2335 Y127.553 E2026.91 F2000
G1 X90.9282 Y128.798 E2028.53 F2000
G1 X90.781 Y129.153 E2028.88 F2000
G1 X90.616 Y129.71 F2000
G1 X78.7687 Y109.19 E2050.2 F2000
G1 X78.4027 Y109.556 F2000
G1 X90.458 Y130.436 E2071.9 F2000
G1 X90.3935 Y131.325 F2000
G1 X78.0366 Y109.922 E2094.14 F2000
G1 X77.6706 Y110.288 F2000
G1 X93.7288 Y138.102 E2123.05 F2000
G1 X92.3628 Y136.736 F2000
G1 X85.6406 Y125.092 E2135.15 F2000
G1 X85.8053 Y126.378 F2000
G1 X90.9968 Y135.369 E2144.49 F2000
G1 X91.7542 Y133.681 F2000
G1 X95.0949 Y139.468 E2150.51 F2000
G1 X96.4609 Y140.834 F2000
G1 X92.7453 Y134.398 E2157.2 F2000
G1 X93.4089 Y134.547 F2000
G1 X97.8269 Y142.2 E2165.15 F2000
G1 X98.2528 Y141.937 F2000
G1 X94.0111 Y134.591 E2172.78 F2000
G1 X94.6134 Y134.634 F2000
G1 X98.6188 Y141.571 E2179.99 F2000
G1 X98.9849 Y141.205 F2000
G1 X95.1463 Y134.557 E2186.9 F2000
G1 X95.6143 Y134.367 F2000
G1 X99.3509 Y140.839 E2193.63 F2000
G1 X99.7169 Y140.473 F2000
G1 X96.0532 Y134.128 E2200.22 F2000
G1 X96.4922 Y133.888 F2000
G1 X100.083 Y140.107 E2206.69 F2000
G1 X100.449 Y139.741 F2000
G1 X96.9075 Y133.607 E2213.06 F2000
G1 X97.2404 Y133.184 F2000
G1 X100.815 Y139.375 E2219.49 F2000
G1 X101.181 Y139.009 F2000
G1 X97.521 Y132.67 E2226.08 F2000
G1 X97.8016 Y132.156 F2000
G1 X101.547 Y138.643 E2232.82 F2000
G1 X101.913 Y138.277 F2000
G1 X98.0083 Y131.514 E2239.85 F2000
G1 X97.9867 Y130.476 F2000
G1 X102.279 Y137.911 E2247.58 F2000
G1 X102.645 Y137.545 F2000
G1 X94.3349 Y123.151 E2262.54 F2000
G1 X92.9689 Y121.785 F2000
G1 X96.3138 Y127.579 E2268.56 F2000
G1 X95.578 Y127.304 F2000
G1 X92.331 Y121.68 E2274.4 F2000
G1 X91.903 Y121.939 F2000
G1 X94.8422 Y127.03 E2279.69 F2000
G1 X94.2292 Y126.968 F2000
G1 X91.475 Y122.198 E2284.65 F2000
G1 X90.9728 Y122.328 F2000
G1 X93.7163 Y127.08 E2289.59 F2000
G1 X93.2034 Y127.191 F2000
G1 X90.4149 Y122.362 E2294.61 F2000
G1 X89.857 Y122.395 F2000
G1 X92.6905 Y127.303 E2299.71 F2000
G1 X92.2506 Y127.541 F2000
G1 X89.2992 Y122.429 E2305.02 F2000
G1 X88.6492 Y122.303 F2000
G1 X91.8605 Y127.865 E2310.8 F2000
G1 X91.4944 Y128.231 F2000
G1 X87.8691 Y121.952 E2317.33 F2000
G1 X87.0891 Y121.601 F2000
G1 X91.1284 Y128.597 E2324.6 F2000
G1 X88.2647 Y132.637 F2000
G1 X85.6157 Y128.049 E2329.37 F2000
G1 X85.3204 Y128.538 F2000
G1 X86.8987 Y131.271 E2332.21 F2000
G1 X85.5327 Y129.905 F2000
G1 X85.025 Y129.026 E2333.12 F2000
G1 X85.7506 Y127.283 F2000
G1 X89.6308 Y134.003 E2340.11 F2000
G1 X86.43 Y136.46 F2000
G1 X88.6213 Y140.255 E2344.05 F2000
G1 X88.2553 Y140.621 F2000
G1 X85.064 Y135.094 E2349.79 F2000
G1 X83.6979 Y133.728 F2000
G1 X87.8893 Y140.987 E2357.34 F2000
G1 X87.5233 Y141.353 F2000
G1 X82.3319 Y132.361 E2366.68 F2000
G1 X80.9659 Y130.995 F2000
G1 X87.1572 Y141.719 E2377.83 F2000
G1 X86.7912 Y142.085 F2000
G1 X79.5999 Y129.629 E2390.77 F2000
G1 X78.2338 Y128.263 F2000
G1 X86.4252 Y142.451 E2405.52 F2000
G1 X86.0592 Y142.817 F2000
G1 X81.7136 Y135.29 E2413.34 F2000
G1 X81.6648 Y134.608 F2000
G1 X81.4926 Y134.264 E2413.69 F2000
G1 X80.4464 Y132.795 E2415.31 F2000
G1 X80.1156 Y132.599 E2415.65 F2000
G1 X78.4412 Y131.928 E2417.28 F2000
G1 X78.0569 Y131.942 E2417.62 F2000
G1 X76.2859 Y132.283 E2419.25 F2000
G1 X75.97 Y132.503 E2419.59 F2000
G1 X74.6647 Y133.747 E2421.21 F2000
G1 X74.5176 Y134.103 E2421.56 F2000
G1 X74.0924 Y135.856 E2423.18 F2000
G1 X74.1607 Y136.234 E2423.53 F2000
G1 X74.7507 Y137.938 E2425.15 F2000
G1 X75.0127 Y138.22 E2425.5 F2000
G1 X76.4305 Y139.335 E2427.12 F2000
G1 X76.8031 Y139.43 E2427.47 F2000
G1 X78.5986 Y139.601 E2429.09 F2000
G1 X78.9634 Y139.48 E2429.44 F2000
G1 X80.5665 Y138.653 E2431.06 F2000
G1 X80.8078 Y138.354 E2431.41 F2000
G1 X81.7095 Y136.792 E2433.03 F2000
G1 X81.7506 Y136.409 E2433.38 F2000
G1 X81.6648 Y134.608 E2435 F2000
G1 X81.7809 Y136.407 F2000
G1 X85.6931 Y143.183 E2442.04 F2000
G1 X85.3271 Y143.549 F2000
G1 X81.5715 Y137.044 E2448.8 F2000
G1 X81.2909 Y137.558 F2000
G1 X84.9611 Y143.915 E2455.41 F2000
G1 X84.5951 Y144.281 F2000
G1 X81.0103 Y138.072 E2461.86 F2000
G1 X80.684 Y138.507 F2000
G1 X84.229 Y144.647 E2468.24 F2000
G1 X83.863 Y145.013 F2000
G1 X80.2809 Y138.809 E2474.69 F2000
G1 X79.842 Y139.049 F2000
G1 X83.497 Y145.379 E2481.27 F2000
G1 X83.131 Y145.745 F2000
G1 X79.403 Y139.288 E2487.98 F2000
G1 X78.9405 Y139.487 F2000
G1 X82.7649 Y146.111 E2494.86 F2000
G1 X82.3989 Y146.478 F2000
G1 X78.4215 Y139.588 E2502.02 F2000
G1 X77.8193 Y139.545 F2000
G1 X82.0329 Y146.844 E2509.6 F2000
G1 X81.6668 Y147.21 F2000
G1 X77.2171 Y139.502 E2517.61 F2000
G1 X76.5623 Y139.368 F2000
G1 X80.3598 Y145.946 E2524.45 F2000
G1 X81.6452 Y147.231 F2000
G1 X62.3884 Y127.974 E2548.96 F2000
G1 X61.8934 Y127.769 E2549.44 F2000
G1 X61.3984 Y127.974 E2549.92 F2000
G1 X55.0345 Y121.61 E2558.02 F2000
G1 X55.2395 Y121.115 E2558.51 F2000
G1 X55.0345 Y120.62 E2558.99 F2000
G1 X35.7776 Y101.363 E2583.5 F2000
G1 X43.5558 Y93.5853 E2593.4 F2000
G1 X89.4234 Y139.453 E2651.78 F2000
G1 X81.6452 Y147.231 E2661.68 F2000
G1 X78.9938 Y144.58 F2000
G1 X75.6117 Y138.722 E2667.77 F2000
G1 X74.8957 Y140.482 F2000
G1 X53.6454 Y103.675 E2706.02 F2000
G1 X55.0114 Y105.041 F2000
G1 X76.2618 Y141.848 E2744.27 F2000
G1 X77.6278 Y143.214 F2000
G1 X56.3774 Y106.407 E2782.52 F2000
G1 X57.7435 Y107.773 F2000
G1 X74.1541 Y136.197 E2812.06 F2000
G1 X74.2133 Y135.3 F2000
G1 X59.1095 Y109.139 E2839.24 F2000
G1 X60.4755 Y110.505 F2000
G1 X74.3714 Y134.573 E2864.26 F2000
G1 X74.5842 Y133.942 F2000
G1 X61.8415 Y111.871 E2887.19 F2000
G1 X63.2075 Y113.237 F2000
G1 X74.9085 Y133.504 E2908.26 F2000
G1 X75.2745 Y133.138 F2000
G1 X64.5736 Y114.603 E2927.52 F2000
G1 X65.9396 Y115.969 F2000
G1 X75.6405 Y132.772 E2944.98 F2000
G1 X76.0361 Y132.457 F2000
G1 X67.3056 Y117.335 E2960.69 F2000
G1 X68.6717 Y118.701 F2000
G1 X76.488 Y132.239 E2974.76 F2000
G1 X77.0009 Y132.128 F2000
G1 X70.0377 Y120.067 E2987.3 F2000
G1 X71.4037 Y121.433 F2000
G1 X77.5138 Y132.016 E2998.3 F2000
G1 X78.0268 Y131.905 F2000
G1 X72.7697 Y122.799 E3007.76 F2000
G1 X74.1358 Y124.165 F2000
G1 X78.6662 Y132.012 E3015.91 F2000
G1 X79.402 Y132.287 F2000
G1 X75.5018 Y125.531 E3022.93 F2000
G1 X76.8678 Y126.897 F2000
G1 X80.1822 Y132.638 E3028.9 F2000
G1 X87.796 Y137.826 F2000
G1 X88.9874 Y139.889 E3031.04 F2000
G1 X89.3534 Y139.523 F2000
G1 X89.162 Y139.192 E3031.39 F2000
G1 X103.011 Y137.179 F2000
G1 X95.7009 Y124.517 E3044.55 F2000
G1 X97.0669 Y125.883 F2000
G1 X103.377 Y136.813 E3055.9 F2000
G1 X103.743 Y136.447 F2000
G1 X98.433 Y127.249 E3065.46 F2000
G1 X99.799 Y128.615 F2000
G1 X104.109 Y136.081 E3073.22 F2000
G1 X104.475 Y135.715 F2000
G1 X101.165 Y129.981 E3079.18 F2000
G1 X102.531 Y131.347 F2000
G1 X104.841 Y135.349 E3083.34 F2000
G1 X105.207 Y134.983 F2000
G1 X103.897 Y132.713 E3085.7 F2000
G1 X105.263 Y134.079 F2000
G1 X105.573 Y134.617 E3086.25 F2000
G1 X84.5188 Y123.149 F2000
G1 X77.3046 Y110.654 E3099.24 F2000
G1 X76.9386 Y111.02 F2000
G1 X83.4646 Y122.323 E3110.99 F2000
G1 X82.6667 Y121.941 F2000
G1 X76.5725 Y111.386 E3121.96 F2000
G1 X76.2065 Y111.752 F2000
G1 X82.021 Y121.823 E3132.42 F2000
G1 X81.3754 Y121.705 F2000
G1 X75.8405 Y112.118 E3142.39 F2000
G1 X75.4745 Y112.484 F2000
G1 X80.776 Y121.667 E3151.93 F2000
G1 X80.2541 Y121.763 F2000
G1 X75.1084 Y112.85 E3161.19 F2000
G1 X74.7424 Y113.216 F2000
G1 X79.7648 Y121.915 E3170.23 F2000
G1 X79.2755 Y122.068 F2000
G1 X74.3764 Y113.582 E3179.05 F2000
G1 X74.0104 Y113.948 F2000
G1 X78.7862 Y122.22 E3187.65 F2000
G1 X78.3653 Y122.491 F2000
G1 X73.6443 Y114.314 E3196.14 F2000
G1 X73.2783 Y114.68 F2000
G1 X77.9992 Y122.857 E3204.64 F2000
G1 X77.3228 Y122.686 F2000
G1 X72.9123 Y115.046 E3212.58 F2000
G1 X72.5463 Y115.412 F2000
G1 X75.9568 Y121.319 E3218.72 F2000
G1 X74.5908 Y119.953 F2000
G1 X72.1802 Y115.778 E3223.06 F2000
G1 X71.8142 Y116.144 F2000
G1 X73.2247 Y118.587 E3225.6 F2000
G1 X71.8587 Y117.221 F2000
G1 X71.4482 Y116.51 E3226.34 F2000
G1 X69.6244 Y113.997 F2000
G1 X56.6008 Y100.973 E3242.91 F2000
G1 X57.3405 Y99.7498 E3244.2 F2000
G1 X57.3897 Y99.4268 E3244.49 F2000
G1 X57.4402 Y99.4299 E3244.54 F2000
G1 X57.5596 Y97.4551 E3246.32 F2000
G1 X57.4531 Y97.1464 E3246.61 F2000
G1 X57.4992 Y97.1256 E3246.66 F2000
G1 X56.6873 Y95.3216 E3248.44 F2000
G1 X56.4495 Y95.0977 E3248.73 F2000
G1 X56.4807 Y95.0578 E3248.78 F2000
G1 X54.9234 Y93.8377 E3250.56 F2000
G1 X54.6087 Y93.75 E3250.85 F2000
G1 X54.6179 Y93.7002 E3250.9 F2000
G1 X52.6719 Y93.3436 E3252.68 F2000
G1 X52.3525 Y93.4122 E3252.97 F2000
G1 X52.3375 Y93.3638 E3253.02 F2000
G1 X50.4487 Y93.9524 E3254.8 F2000
G1 X50.1978 Y94.1615 E3255.09 F2000
G1 X50.162 Y94.1257 E3255.14 F2000
G1 X49.6676 Y94.6202 E3255.77 F2000
G1 X49.3776 Y94.7403 E3256.05 F2000
G1 X43.0136 Y88.3763 E3264.15 F2000
G1 X51.2868 Y80.1031 E3274.68 F2000
G1 X57.7357 Y86.552 E3282.89 F2000
G1 X57.5312 Y86.7565 E3283.15 F2000
G1 X57.4062 Y87.0583 E3283.44 F2000
G1 X57.3579 Y87.0432 E3283.49 F2000
G1 X56.7693 Y88.932 E3285.27 F2000
G1 X56.7989 Y89.2573 E3285.56 F2000
G1 X56.7491 Y89.2664 E3285.61 F2000
G1 X57.1057 Y91.2124 E3287.39 F2000
G1 X57.2831 Y91.4867 E3287.68 F2000
G1 X57.2432 Y91.5179 E3287.73 F2000
G1 X58.4633 Y93.0752 E3289.51 F2000
G1 X58.7478 Y93.2357 E3289.8 F2000
G1 X58.727 Y93.2818 E3289.85 F2000
G1 X60.5311 Y94.0938 E3291.63 F2000
G1 X60.8576 Y94.1036 E3291.92 F2000
G1 X60.8606 Y94.1542 E3291.97 F2000
G1 X62.8354 Y94.0347 E3293.75 F2000
G1 X63.129 Y93.8917 E3294.04 F2000
G1 X63.1552 Y93.935 E3294.09 F2000
G1 X64.3789 Y93.1953 E3295.38 F2000
G1 X77.4026 Y106.219 E3311.95 F2000
G1 X69.6244 Y113.997 E3321.85 F2000
G1 X69.8608 Y113.761 F2000
G1 X65.5495 Y106.294 E3329.61 F2000
G1 X66.1518 Y106.337 F2000
G1 X70.2268 Y113.395 E3336.95 F2000
G1 X70.5928 Y113.029 F2000
G1 X66.7195 Y106.32 E3343.92 F2000
G1 X66.5777 Y106.367 F2000
G1 X64.7793 Y106.238 E3345.54 F2000
G1 X64.4097 Y106.101 E3345.89 F2000
G1 X62.9663 Y105.02 E3347.51 F2000
G1 X62.7299 Y104.704 E3347.86 F2000
G1 X62.0998 Y103.015 E3349.48 F2000
G1 X62.0716 Y102.621 E3349.83 F2000
G1 X62.4549 Y100.86 E3351.45 F2000
G1 X62.6439 Y100.513 E3351.8 F2000
G1 X63.9189 Y99.2385 E3353.42 F2000
G1 X64.2651 Y99.0494 E3353.76 F2000
G1 X66.027 Y98.6662 E3355.39 F2000
G1 X66.4204 Y98.6943 E3355.73 F2000
G1 X68.1098 Y99.3244 E3357.36 F2000
G1 X68.4255 Y99.5608 E3357.7 F2000
G1 X69.5061 Y101.004 E3359.33 F2000
G1 X69.6439 Y101.374 E3359.67 F2000
G1 X69.7726 Y103.172 E3361.29 F2000
G1 X69.6887 Y103.558 E3361.64 F2000
G1 X68.8246 Y105.14 E3363.26 F2000
G1 X68.5457 Y105.419 E3363.61 F2000
G1 X66.9632 Y106.283 E3365.23 F2000
G1 X66.5777 Y106.367 E3365.58 F2000
G1 X67.2007 Y106.154 F2000
G1 X70.9588 Y112.663 E3372.34 F2000
G1 X71.3249 Y112.297 F2000
G1 X67.6397 Y105.914 E3378.98 F2000
G1 X68.0787 Y105.674 F2000
G1 X71.6909 Y111.931 E3385.48 F2000
G1 X72.0569 Y111.565 F2000
G1 X68.5176 Y105.434 E3391.85 F2000
G1 X68.8735 Y105.051 F2000
G1 X72.4229 Y111.199 E3398.24 F2000
G1 X72.789 Y110.833 F2000
G1 X69.1541 Y104.537 E3404.78 F2000
G1 X69.4347 Y104.023 F2000
G1 X73.155 Y110.467 E3411.48 F2000
G1 X73.521 Y110.101 F2000
G1 X69.6973 Y103.478 E3418.36 F2000
G1 X69.7265 Y102.528 F2000
G1 X73.887 Y109.735 E3425.85 F2000
G1 X74.2531 Y109.369 F2000
G1 X69.6449 Y101.387 E3434.14 F2000
G1 X69.147 Y100.525 F2000
G1 X65.6483 Y94.4647 E3440.44 F2000
G1 X64.3487 Y93.2136 F2000
G1 X67.8128 Y99.2136 E3446.68 F2000
G1 X67.077 Y98.9392 F2000
G1 X63.9207 Y93.4723 E3452.36 F2000
G1 X63.4927 Y93.731 F2000
G1 X66.3595 Y98.6965 E3457.52 F2000
G1 X65.7939 Y98.7169 F2000
G1 X63.0347 Y93.9377 E3462.49 F2000
G1 X62.5242 Y94.0535 F2000
G1 X65.281 Y98.8284 E3467.45 F2000
G1 X64.7681 Y98.94 F2000
G1 X61.9663 Y94.0873 E3472.49 F2000
G1 X61.4085 Y94.121 F2000
G1 X64.2571 Y99.055 E3477.62 F2000
G1 X63.8344 Y99.3229 F2000
G1 X60.8204 Y94.1025 E3483.04 F2000
G1 X60.1352 Y93.9156 F2000
G1 X63.4684 Y99.6889 E3489.04 F2000
G1 X63.1024 Y100.055 F2000
G1 X59.3551 Y93.5645 E3495.79 F2000
G1 X58.5107 Y93.102 F2000
G1 X62.7364 Y100.421 E3503.39 F2000
G1 X62.4432 Y100.913 F2000
G1 X50.7427 Y80.6473 E3524.46 F2000
G1 X51.1087 Y80.2813 F2000
G1 X56.9597 Y90.4154 E3534.99 F2000
G1 X56.7859 Y89.1145 F2000
G1 X51.9881 Y80.8045 E3543.62 F2000
G1 X50.3766 Y81.0133 F2000
G1 X62.2852 Y101.64 E3565.06 F2000
G1 X62.1272 Y102.366 F2000
G1 X50.0106 Y81.3793 E3586.87 F2000
G1 X49.6446 Y81.7454 F2000
G1 X62.4195 Y103.872 E3609.86 F2000
G1 X63.1705 Y105.173 F2000
G1 X66.4084 Y110.781 E3615.69 F2000
G1 X67.7744 Y112.147 F2000
G1 X64.1874 Y105.934 E3622.15 F2000
G1 X64.9473 Y106.25 F2000
G1 X69.1404 Y113.513 E3629.7 F2000
G1 X65.0423 Y109.415 F2000
G1 X49.2786 Y82.1114 E3658.07 F2000
G1 X48.9125 Y82.4774 F2000
G1 X55.924 Y94.6217 E3670.69 F2000
G1 X54.8884 Y93.828 F2000
G1 X48.5465 Y82.8434 E3682.11 F2000
G1 X48.1805 Y83.2095 F2000
G1 X54.1923 Y93.6222 E3692.93 F2000
G1 X53.5466 Y93.5039 F2000
G1 X47.8145 Y83.5755 E3703.25 F2000
G1 X47.4484 Y83.9415 F2000
G1 X52.901 Y93.3856 E3713.06 F2000
G1 X52.3151 Y93.3708 F2000
G1 X47.0824 Y84.3075 E3722.48 F2000
G1 X46.7164 Y84.6736 F2000
G1 X51.8258 Y93.5233 E3731.68 F2000
G1 X51.3365 Y93.6758 F2000
G1 X46.3504 Y85.0396 E3740.65 F2000
G1 X45.9843 Y85.4056 F2000
G1 X50.8471 Y93.8283 E3749.4 F2000
G1 X50.3763 Y94.0128 F2000
G1 X45.6183 Y85.7716 E3757.97 F2000
G1 X45.2523 Y86.1377 F2000
G1 X49.9732 Y94.3145 E3766.47 F2000
G1 X49.5907 Y94.652 F2000
G1 X44.8863 Y86.5037 E3774.93 F2000
G1 X44.5202 Y86.8697 F2000
G1 X48.6363 Y93.9989 E3782.34 F2000
G1 X47.2703 Y92.6329 F2000
G1 X44.1542 Y87.2357 E3787.95 F2000
G1 X43.7882 Y87.6018 F2000
G1 X45.9042 Y91.2669 E3791.76 F2000
G1 X44.5382 Y89.9009 F2000
G1 X43.4222 Y87.9678 E3793.77 F2000
G1 X43.0561 Y88.3338 F2000
G1 X43.1722 Y88.5349 E3793.98 F2000
G1 X43.3311 Y93.81 F2000
G1 X47.6498 Y101.29 E3801.75 F2000
G1 X47.0476 Y101.247 F2000
G1 X42.965 Y94.176 E3809.1 F2000
G1 X42.599 Y94.5421 F2000
G1 X46.4761 Y101.257 E3816.08 F2000
G1 X46.6025 Y101.215 F2000
G1 X46.2376 Y101.337 E3816.43 F2000
G1 X44.6345 Y102.163 E3818.05 F2000
G1 X44.3932 Y102.463 E3818.4 F2000
G1 X43.4915 Y104.025 E3820.02 F2000
G1 X43.4504 Y104.407 E3820.36 F2000
G1 X43.5363 Y106.209 E3821.99 F2000
G1 X43.7084 Y106.553 E3822.33 F2000
G1 X44.7547 Y108.022 E3823.96 F2000
G1 X45.0854 Y108.218 E3824.3 F2000
G1 X46.7598 Y108.888 E3825.93 F2000
G1 X47.1441 Y108.874 E3826.27 F2000
G1 X48.9151 Y108.533 E3827.89 F2000
G1 X49.231 Y108.314 E3828.24 F2000
G1 X50.5363 Y107.069 E3829.86 F2000
G1 X50.6834 Y106.714 E3830.21 F2000
G1 X51.1086 Y104.961 E3831.83 F2000
G1 X51.0403 Y104.583 E3832.18 F2000
G1 X50.4503 Y102.878 E3833.8 F2000
G1 X50.1883 Y102.597 E3834.15 F2000
G1 X48.7705 Y101.482 E3835.77 F2000
G1 X48.3979 Y101.387 E3836.12 F2000
G1 X46.6025 Y101.215 E3837.74 F2000
G1 X45.9934 Y101.421 F2000
G1 X42.233 Y94.9081 E3844.51 F2000
G1 X41.867 Y95.2741 F2000
G1 X45.5544 Y101.661 E3851.15 F2000
G1 X45.1155 Y101.901 F2000
G1 X41.5009 Y95.6401 E3857.65 F2000
G1 X41.1349 Y96.0062 F2000
G1 X44.6765 Y102.14 E3864.03 F2000
G1 X44.3157 Y102.515 F2000
G1 X40.7689 Y96.3722 E3870.41 F2000
G1 X40.4029 Y96.7382 F2000
G1 X44.035 Y103.029 E3876.95 F2000
G1 X43.7544 Y103.543 F2000
G1 X40.0368 Y97.1042 E3883.64 F2000
G1 X39.6708 Y97.4703 F2000
G1 X43.4858 Y104.078 E3890.51 F2000
G1 X43.4511 Y105.018 F2000
G1 X39.3048 Y97.8363 E3897.97 F2000
G1 X38.9388 Y98.2023 F2000
G1 X43.5327 Y106.159 E3906.24 F2000
G1 X44.1134 Y107.165 F2000
G1 X47.5752 Y113.161 E3912.47 F2000
G1 X46.2092 Y111.795 F2000
G1 X38.5727 Y98.5684 E3926.22 F2000
G1 X38.2067 Y98.9344 F2000
G1 X44.8432 Y110.429 E3938.16 F2000
G1 X43.4772 Y109.063 F2000
G1 X37.8407 Y99.3004 E3948.31 F2000
G1 X37.4747 Y99.6664 F2000
G1 X42.1111 Y107.697 E3956.65 F2000
G1 X40.7451 Y106.331 F2000
G1 X37.1086 Y100.032 E3963.2 F2000
G1 X36.7426 Y100.398 F2000
G1 X39.3791 Y104.965 E3967.94 F2000
G1 X38.0131 Y103.599 F2000
G1 X36.3766 Y100.765 E3970.89 F2000
G1 X36.0106 Y101.131 F2000
G1 X36.647 Y102.233 E3972.04 F2000
G1 X45.3908 Y108.378 F2000
G1 X48.9412 Y114.527 E3978.43 F2000
G1 X50.3073 Y115.893 F2000
G1 X46.1266 Y108.652 E3985.95 F2000
G1 X46.8387 Y108.885 F2000
G1 X51.6733 Y117.259 E3994.65 F2000
G1 X53.0393 Y118.625 F2000
G1 X47.4026 Y108.862 E4004.8 F2000
G1 X47.9155 Y108.75 F2000
G1 X54.4054 Y119.991 E4016.48 F2000
G1 X55.0345 Y120.62 F2000
G1 X55.1621 Y121.302 F2000
G1 X55.7577 Y122.334 E4017.55 F2000
G1 X57.1237 Y123.7 F2000
G1 X48.4284 Y108.639 E4033.21 F2000
G1 X48.9362 Y108.518 F2000
G1 X58.4897 Y125.066 E4050.4 F2000
G1 X59.8557 Y126.432 F2000
G1 X49.3574 Y108.248 E4069.3 F2000
G1 X49.7234 Y107.882 F2000
G1 X61.2217 Y127.798 E4090 F2000
G1 X61.8041 Y127.806 F2000
G1 X50.0894 Y107.516 E4111.08 F2000
G1 X50.4555 Y107.15 F2000
G1 X62.6015 Y128.187 E4132.95 F2000
G1 X63.9675 Y129.553 F2000
G1 X50.742 Y106.646 E4156.75 F2000
G1 X50.9 Y105.92 F2000
G1 X65.3335 Y130.919 E4182.73 F2000
G1 X66.6996 Y132.285 F2000
G1 X51.058 Y105.193 E4210.89 F2000
G1 X50.7272 Y103.621 F2000
G1 X68.0656 Y133.652 E4242.1 F2000
G1 X69.4316 Y135.018 F2000
G1 X48.1813 Y98.2108 E4280.35 F2000
G1 X49.5473 Y99.5768 F2000
G1 X70.7977 Y136.384 E4318.6 F2000
G1 X72.1637 Y137.75 F2000
G1 X50.9133 Y100.943 E4356.85 F2000
G1 X50.042 Y102.434 F2000
G1 X46.8152 Y96.8448 E4362.66 F2000
G1 X45.4492 Y95.4788 F2000
G1 X49.0251 Y101.672 E4369.09 F2000
G1 X48.252 Y101.333 F2000
G1 X44.0832 Y94.1127 E4376.6 F2000
G1 X52.2793 Y102.309 F2000
G1 X73.5297 Y139.116 E4414.85 F2000
G1 X74.6191 Y109.002 F2000
G1 X67.0144 Y95.8307 E4428.53 F2000
G1 X68.3804 Y97.1967 F2000
G1 X74.9851 Y108.636 E4440.42 F2000
G1 X75.3511 Y108.27 F2000
G1 X69.7464 Y98.5628 E4450.51 F2000
G1 X71.1125 Y99.9288 F2000
G1 X75.7172 Y107.904 E4458.8 F2000
G1 X76.0832 Y107.538 F2000
G1 X72.4785 Y101.295 E4465.29 F2000
G1 X73.8445 Y102.661 F2000
G1 X76.4492 Y107.172 E4469.98 F2000
G1 X76.8152 Y106.806 F2000
G1 X75.2105 Y104.027 E4472.87 F2000
G1 X76.5766 Y105.393 F2000
G1 X77.1813 Y106.44 E4473.95 F2000
G1 X80.231 Y103.391 F2000
G1 X60.9742 Y84.1337 E4498.46 F2000
G1 X60.4792 Y83.9286 E4498.95 F2000
G1 X59.9842 Y84.1337 E4499.43 F2000
G1 X53.6203 Y77.7697 E4507.53 F2000
G1 X61.8934 Y69.4966 E4518.06 F2000
G1 X88.0092 Y95.6124 E4551.3 F2000
G1 X80.231 Y103.391 E4561.2 F2000
G1 X80.4755 Y103.146 F2000
G1 X76.1695 Y95.6879 E4568.95 F2000
G1 X76.7717 Y95.731 F2000
G1 X80.8415 Y102.78 E4576.28 F2000
G1 X81.2076 Y102.414 F2000
G1 X77.3368 Y95.7097 E4583.24 F2000
G1 X77.1843 Y95.7605 F2000
G1 X75.3858 Y95.6319 E4584.87 F2000
G1 X75.0163 Y95.494 E4585.21 F2000
G1 X73.5729 Y94.4135 E4586.83 F2000
G1 X73.3365 Y94.0977 E4587.18 F2000
G1 X72.7064 Y92.4083 E4588.8 F2000
G1 X72.6782 Y92.0149 E4589.15 F2000
G1 X73.0615 Y90.253 E4590.77 F2000
G1 X73.2505 Y89.9068 E4591.12 F2000
G1 X74.5255 Y88.6319 E4592.74 F2000
G1 X74.8717 Y88.4428 E4593.09 F2000
G1 X76.6336 Y88.0596 E4594.71 F2000
G1 X77.027 Y88.0877 E4595.06 F2000
G1 X78.7164 Y88.7178 E4596.68 F2000
G1 X79.0322 Y88.9542 E4597.02 F2000
G1 X80.1127 Y90.3976 E4598.65 F2000
G1 X80.2505 Y90.7672 E4598.99 F2000
G1 X80.3792 Y92.5657 E4600.62 F2000
G1 X80.2953 Y92.9511 E4600.96 F2000
G1 X79.4312 Y94.5336 E4602.58 F2000
G1 X79.1523 Y94.8125 E4602.93 F2000
G1 X77.5698 Y95.6767 E4604.55 F2000
G1 X77.1843 Y95.7605 E4604.9 F2000
G1 X77.8171 Y95.5416 F2000
G1 X81.5736 Y102.048 E4611.66 F2000
G1 X81.9396 Y101.682 F2000
G1 X78.2561 Y95.3019 E4618.29 F2000
G1 X78.695 Y95.0622 F2000
G1 X82.3056 Y101.316 E4624.79 F2000
G1 X82.6717 Y100.95 F2000
G1 X79.134 Y94.8225 E4631.16 F2000
G1 X79.4863 Y94.4327 F2000
G1 X83.0377 Y100.584 E4637.55 F2000
G1 X83.4037 Y100.218 F2000
G1 X79.7669 Y93.9188 E4644.1 F2000
G1 X80.0476 Y93.4049 F2000
G1 X83.7697 Y99.8519 E4650.8 F2000
G1 X84.1358 Y99.4858 F2000
G1 X80.3059 Y92.8524 E4657.69 F2000
G1 X80.3313 Y91.8963 F2000
G1 X84.5018 Y99.1198 E4665.2 F2000
G1 X84.8678 Y98.7538 F2000
G1 X80.21 Y90.6863 E4673.58 F2000
G1 X79.8097 Y89.9929 F2000
G1 X76.2853 Y83.8885 E4679.92 F2000
G1 X77.6514 Y85.2545 F2000
G1 X85.2338 Y98.3877 E4693.57 F2000
G1 X85.5999 Y98.0217 F2000
G1 X79.0174 Y86.6205 E4705.42 F2000
G1 X80.3834 Y87.9865 F2000
G1 X85.9659 Y97.6557 E4715.47 F2000
G1 X86.3319 Y97.2897 F2000
G1 X81.7494 Y89.3526 E4723.72 F2000
G1 X83.1155 Y90.7186 F2000
G1 X86.6979 Y96.9236 E4730.17 F2000
G1 X87.064 Y96.5576 F2000
G1 X84.4815 Y92.0846 E4734.81 F2000
G1 X85.8475 Y93.4507 F2000
G1 X87.43 Y96.1916 E4737.66 F2000
G1 X87.796 Y95.8256 F2000
G1 X87.2135 Y94.8167 E4738.71 F2000
G1 X86.3163 Y88.2626 F2000
G1 X70.508 Y60.8819 E4767.17 F2000
G1 X70.8741 Y60.5159 F2000
G1 X83.5859 Y82.5334 E4790.05 F2000
G1 X83.3474 Y81.1204 F2000
G1 X71.2401 Y60.1499 E4811.84 F2000
G1 X71.6061 Y59.7838 F2000
G1 X83.5054 Y80.3941 E4833.26 F2000
G1 X83.6635 Y79.6678 F2000
G1 X71.9721 Y59.4178 E4854.3 F2000
G1 X72.3382 Y59.0518 F2000
G1 X83.9658 Y79.1915 E4875.23 F2000
G1 X84.3319 Y78.8255 F2000
G1 X73.262 Y59.652 E4895.16 F2000
G1 X74.6281 Y61.018 F2000
G1 X84.6979 Y78.4595 E4913.29 F2000
G1 X85.0639 Y78.0935 F2000
G1 X75.9941 Y62.384 E4929.61 F2000
G1 X77.3601 Y63.7501 F2000
G1 X85.4911 Y77.8334 E4944.25 F2000
G1 X86.0041 Y77.7219 F2000
G1 X78.7261 Y65.1161 E4957.35 F2000
G1 X80.0922 Y66.4821 F2000
G1 X86.517 Y77.6103 E4968.91 F2000
G1 X87.0299 Y77.4987 F2000
G1 X81.4582 Y67.8481 E4978.94 F2000
G1 X82.8242 Y69.2142 F2000
G1 X87.5979 Y77.4824 E4987.53 F2000
G1 X88.3229 Y77.7382 F2000
G1 X84.1902 Y70.5802 E4994.97 F2000
G1 X85.5563 Y71.9462 F2000
G1 X89.0587 Y78.0126 E5001.28 F2000
G1 X83.5842 Y85.5305 F2000
G1 X69.776 Y61.614 E5026.13 F2000
G1 X70.142 Y61.2479 F2000
G1 X84.9502 Y86.8965 E5052.79 F2000
G1 X78.4358 Y88.6131 F2000
G1 X74.9193 Y82.5224 E5059.12 F2000
G1 X73.5533 Y81.1564 F2000
G1 X77.7 Y88.3387 E5066.58 F2000
G1 X76.9787 Y88.0894 F2000
G1 X72.1873 Y79.7904 E5075.21 F2000
G1 X70.8212 Y78.4244 F2000
G1 X76.4119 Y88.1078 E5085.27 F2000
G1 X75.899 Y88.2194 F2000
G1 X69.4552 Y77.0583 E5096.87 F2000
G1 X68.0892 Y75.6923 F2000
G1 X75.3861 Y88.3309 E5110 F2000
G1 X74.8731 Y88.4425 F2000
G1 X66.7231 Y74.3263 E5124.67 F2000
G1 X65.3571 Y72.9603 F2000
G1 X74.4492 Y88.7082 E5141.04 F2000
G1 X74.0832 Y89.0742 F2000
G1 X63.9911 Y71.5943 E5159.2 F2000
G1 X62.6251 Y70.2282 F2000
G1 X73.7171 Y89.4402 E5179.17 F2000
G1 X73.3511 Y89.8063 F2000
G1 X61.7234 Y69.6665 E5200.1 F2000
G1 X61.3574 Y70.0325 F2000
G1 X73.0533 Y90.2905 E5221.15 F2000
G1 X72.8953 Y91.0168 F2000
G1 X60.9914 Y70.3986 E5242.58 F2000
G1 X60.6253 Y70.7646 F2000
G1 X72.7373 Y91.7432 E5264.38 F2000
G1 X73.0027 Y93.2028 F2000
G1 X60.2593 Y71.1306 E5287.32 F2000
G1 X59.8933 Y71.4967 F2000
G1 X75.6793 Y98.8388 E5315.73 F2000
G1 X77.0453 Y100.205 F2000
G1 X73.7997 Y94.5833 E5321.57 F2000
G1 X74.8166 Y95.3445 F2000
G1 X78.4113 Y101.571 E5328.04 F2000
G1 X79.7774 Y102.937 F2000
G1 X75.5673 Y95.6448 E5335.62 F2000
G1 X74.3133 Y97.4728 F2000
G1 X59.5273 Y71.8627 E5362.24 F2000
G1 X59.1612 Y72.2287 F2000
G1 X72.9472 Y96.1067 E5387.05 F2000
G1 X71.5812 Y94.7407 F2000
G1 X58.7952 Y72.5947 E5410.07 F2000
G1 X58.4292 Y72.9608 F2000
G1 X70.2152 Y93.3747 E5431.28 F2000
G1 X68.8492 Y92.0087 F2000
G1 X58.0632 Y73.3268 E5450.7 F2000
G1 X57.6971 Y73.6928 F2000
G1 X67.4831 Y90.6426 E5468.31 F2000
G1 X66.1171 Y89.2766 F2000
G1 X57.3311 Y74.0588 E5484.13 F2000
G1 X56.9651 Y74.4249 F2000
G1 X64.7511 Y87.9106 E5498.14 F2000
G1 X63.3851 Y86.5446 F2000
G1 X56.5991 Y74.7909 E5510.36 F2000
G1 X56.233 Y75.1569 F2000
G1 X62.019 Y85.1785 E5520.77 F2000
G1 X60.7958 Y84.0598 F2000
G1 X55.867 Y75.5229 E5529.64 F2000
G1 X55.501 Y75.889 F2000
G1 X60.2076 Y84.0411 E5538.11 F2000
G1 X59.2733 Y83.4227 F2000
G1 X55.135 Y76.255 E5545.56 F2000
G1 X54.7689 Y76.621 F2000
G1 X57.9072 Y82.0567 E5551.21 F2000
G1 X56.5412 Y80.6907 F2000
G1 X54.4029 Y76.987 E5555.06 F2000
G1 X54.0369 Y77.3531 F2000
G1 X55.1752 Y79.3246 E5557.11 F2000
G1 X53.8091 Y77.9586 F2000
G1 X53.6709 Y77.7191 E5557.36 F2000
G1 X53.3541 Y82.1705 F2000
G1 X56.9406 Y88.3824 E5563.81 F2000
G1 X57.143 Y87.7329 F2000
G1 X54.7202 Y83.5365 E5568.18 F2000
G1 X56.0862 Y84.9025 F2000
G1 X57.3454 Y87.0835 E5570.44 F2000
G1 X57.6597 Y86.628 F2000
G1 X57.4522 Y86.2686 E5570.82 F2000
G1 X57.5592 Y97.4539 F2000
G1 X63.6763 Y108.049 E5581.83 F2000
G1 X62.3103 Y106.683 F2000
G1 X57.5049 Y98.3599 E5590.48 F2000
G1 X57.4502 Y99.265 F2000
G1 X60.9443 Y105.317 E5596.77 F2000
G1 X59.5782 Y103.951 F2000
G1 X57.2444 Y99.9087 E5600.97 F2000
G1 X56.9491 Y100.397 F2000
G1 X58.2122 Y102.585 E5603.24 F2000
G1 X56.8462 Y101.219 F2000
G1 X56.6538 Y100.886 E5603.59 F2000
G1 X68.5442 Y71.4805 F2000
G1 X65.3837 Y66.0063 E5609.27 F2000
G1 X65.0177 Y66.3723 F2000
G1 X67.1782 Y70.1144 E5613.16 F2000
G1 X65.8121 Y68.7484 F2000
G1 X64.6516 Y66.7383 E5615.25 F2000
G1 X64.2856 Y67.1043 F2000
G1 X64.4461 Y67.3824 E5615.54 F2000
G1 X101.949 Y88.3385 F2000
G1 X112.724 Y107.002 E5634.94 F2000
G1 X113.09 Y106.636 F2000
G1 X103.315 Y89.7045 E5652.53 F2000
G1 X104.681 Y91.0705 F2000
G1 X113.482 Y106.315 E5668.38 F2000
G1 X113.926 Y106.085 F2000
G1 X106.047 Y92.4366 E5682.56 F2000
G1 X107.413 Y93.8026 F2000
G1 X114.439 Y105.973 E5695.21 F2000
G1 X114.952 Y105.862 F2000
G1 X108.779 Y95.1686 E5706.32 F2000
G1 X110.145 Y96.5347 F2000
G1 X115.465 Y105.75 E5715.9 F2000
G1 X116.088 Y105.829 F2000
G1 X111.511 Y97.9007 E5724.14 F2000
G1 X112.877 Y99.2667 F2000
G1 X116.824 Y106.103 E5731.24 F2000
G1 X117.56 Y106.378 F2000
G1 X114.243 Y100.633 E5737.21 F2000
G1 X117.593 Y106.435 F2000
G1 F70
G1 Z0.45 F70

G1 X115.918 Y105.765 E5738.83 F2000
G1 X115.534 Y105.779 E5739.18 F2000
G1 X113.763 Y106.12 E5740.8 F2000
G1 X113.447 Y106.34 E5741.15 F2000
G1 X112.141 Y107.585 E5742.77 F2000
G1 X111.994 Y107.94 E5743.12 F2000
G1 X111.569 Y109.693 E5744.74 F2000
G1 X111.637 Y110.071 E5745.09 F2000
G1 X112.227 Y111.775 E5746.71 F2000
G1 X112.489 Y112.057 E5747.05 F2000
G1 X113.907 Y113.172 E5748.68 F2000
G1 X114.28 Y113.267 E5749.02 F2000
G1 X116.075 Y113.438 E5750.65 F2000
G1 X116.44 Y113.317 E5750.99 F2000
G1 X118.043 Y112.49 E5752.61 F2000
G1 X118.284 Y112.191 E5752.96 F2000
G1 X119.186 Y110.629 E5754.58 F2000
G1 X119.227 Y110.246 E5754.93 F2000
G1 X119.141 Y108.445 E5756.55 F2000
G1 X118.969 Y108.101 E5756.9 F2000
G1 X117.923 Y106.632 E5758.52 F2000
G1 X117.592 Y106.436 E5758.87 F2000
G1 X117.7 Y106.5 F2000
G1 X118.582 Y104.972 E5760.45 F2000
G1 X118.948 Y105.338 F2000
G1 X118.08 Y106.842 E5762.02 F2000
G1 X118.406 Y107.277 F2000
G1 X119.314 Y105.704 E5763.65 F2000
G1 X119.68 Y106.07 F2000
G1 X118.732 Y107.713 E5765.36 F2000
G1 X119.023 Y108.209 F2000
G1 X120.046 Y106.436 E5767.2 F2000
G1 X120.412 Y106.802 F2000
G1 X119.177 Y108.942 E5769.42 F2000
G1 X119.241 Y109.832 F2000
G1 X120.778 Y107.168 E5772.19 F2000
G1 X121.144 Y107.534 F2000
G1 X115.45 Y117.397 E5782.44 F2000
G1 X115.816 Y117.763 F2000
G1 X121.51 Y107.9 E5792.69 F2000
G1 X121.876 Y108.266 F2000
G1 X116.182 Y118.129 E5802.94 F2000
G1 X116.548 Y118.495 F2000
G1 X122.242 Y108.632 E5813.19 F2000
G1 X122.609 Y108.998 F2000
G1 X116.915 Y118.861 E5823.44 F2000
G1 X117.281 Y119.227 F2000
G1 X122.975 Y109.365 E5833.69 F2000
G1 X123.341 Y109.731 F2000
G1 X117.647 Y119.593 E5843.94 F2000
G1 X118.013 Y119.959 F2000
G1 X123.707 Y110.097 E5854.18 F2000
G1 X124.073 Y110.463 F2000
G1 X118.379 Y120.325 E5864.43 F2000
G1 X118.745 Y120.691 F2000
G1 X124.439 Y110.829 E5874.68 F2000
G1 X124.805 Y111.195 F2000
G1 X119.111 Y121.057 E5884.93 F2000
G1 X99.865 Y101.811 E5909.44 F2000
G1 X99.3701 Y101.606 E5909.92 F2000
G1 X98.8751 Y101.811 E5910.41 F2000
G1 X92.5111 Y95.4474 E5918.51 F2000
G1 X100.784 Y87.1742 E5929.04 F2000
G1 X126.9 Y113.29 E5962.28 F2000
G1 X119.122 Y121.068 E5972.18 F2000
G1 X120.446 Y119.744 F2000
G1 X125.171 Y111.561 E5980.68 F2000
G1 X125.537 Y111.927 F2000
G1 X121.812 Y118.378 E5987.39 F2000
G1 X123.178 Y117.012 F2000
G1 X125.903 Y112.293 E5992.29 F2000
G1 X126.269 Y112.659 F2000
G1 X124.544 Y115.646 E5995.39 F2000
G1 X125.91 Y114.28 F2000
G1 X126.635 Y113.025 E5996.7 F2000
G1 X117.551 Y112.759 F2000
G1 X115.084 Y117.031 E6001.14 F2000
G1 X114.718 Y116.665 F2000
G1 X116.707 Y113.22 E6004.72 F2000
G1 X116.007 Y113.433 F2000
G1 X114.352 Y116.299 E6007.7 F2000
G1 X113.986 Y115.933 F2000
G1 X115.452 Y113.394 E6010.33 F2000
G1 X114.898 Y113.354 F2000
G1 X113.62 Y115.567 E6012.63 F2000
G1 X113.254 Y115.201 F2000
G1 X114.343 Y113.314 E6014.59 F2000
G1 X113.866 Y113.141 F2000
G1 X112.888 Y114.835 E6016.35 F2000
G1 X112.522 Y114.469 F2000
G1 X113.463 Y112.839 E6018.05 F2000
G1 X113.06 Y112.537 F2000
G1 X112.156 Y114.102 E6019.67 F2000
G1 X111.79 Y113.736 F2000
G1 X112.657 Y112.236 E6021.23 F2000
G1 X112.3 Y111.853 F2000
G1 X111.424 Y113.37 E6022.81 F2000
G1 X111.058 Y113.004 F2000
G1 X112.047 Y111.292 E6024.59 F2000
G1 X111.82 Y110.684 F2000
G1 X110.692 Y112.638 E6026.62 F2000
G1 X110.326 Y112.272 F2000
G1 X111.628 Y110.018 E6028.96 F2000
G1 X111.769 Y108.773 F2000
G1 X109.96 Y111.906 E6032.22 F2000
G1 X109.594 Y111.54 F2000
G1 X115.288 Y101.678 E6042.47 F2000
G1 X114.922 Y101.312 F2000
G1 X109.228 Y111.174 E6052.72 F2000
G1 X108.862 Y110.808 F2000
G1 X114.556 Y100.946 E6062.97 F2000
G1 X114.19 Y100.58 F2000
G1 X108.496 Y110.442 E6073.22 F2000
G1 X108.13 Y110.076 F2000
G1 X113.824 Y100.214 E6083.47 F2000
G1 X113.458 Y99.8478 F2000
G1 X107.764 Y109.71 E6093.72 F2000
G1 X107.398 Y109.344 F2000
G1 X113.092 Y99.4818 E6103.96 F2000
G1 X112.726 Y99.1158 F2000
G1 X107.032 Y108.978 E6114.21 F2000
G1 X106.666 Y108.612 F2000
G1 X112.36 Y98.7498 E6124.46 F2000
G1 X111.994 Y98.3837 F2000
G1 X106.3 Y108.246 E6134.71 F2000
G1 X105.934 Y107.88 F2000
G1 X111.628 Y98.0177 E6144.96 F2000
G1 X111.262 Y97.6517 F2000
G1 X105.568 Y107.514 E6155.21 F2000
G1 X105.202 Y107.148 F2000
G1 X110.896 Y97.2857 E6165.46 F2000
G1 X110.53 Y96.9196 F2000
G1 X104.836 Y106.782 E6175.71 F2000
G1 X104.47 Y106.416 F2000
G1 X110.164 Y96.5536 E6185.96 F2000
G1 X109.798 Y96.1876 F2000
G1 X104.104 Y106.05 E6196.21 F2000
G1 X103.738 Y105.684 F2000
G1 X109.432 Y95.8216 E6206.45 F2000
G1 X109.066 Y95.4555 F2000
G1 X103.372 Y105.318 E6216.7 F2000
G1 X103.006 Y104.952 F2000
G1 X108.7 Y95.0895 E6226.95 F2000
G1 X108.334 Y94.7235 F2000
G1 X102.64 Y104.586 E6237.2 F2000
G1 X102.273 Y104.22 F2000
G1 X107.968 Y94.3575 E6247.45 F2000
G1 X107.601 Y93.9914 F2000
G1 X101.907 Y103.854 E6257.7 F2000
G1 X101.541 Y103.488 F2000
G1 X107.235 Y93.6254 E6267.95 F2000
G1 X106.869 Y93.2594 F2000
G1 X101.175 Y103.122 E6278.2 F2000
G1 X100.809 Y102.756 F2000
G1 X106.503 Y92.8934 E6288.45 F2000
G1 X106.137 Y92.5273 F2000
G1 X100.443 Y102.39 E6298.7 F2000
G1 X100.077 Y102.024 F2000
G1 X105.771 Y92.1613 E6308.94 F2000
G1 X105.405 Y91.7953 F2000
G1 X99.6694 Y101.73 E6319.27 F2000
G1 X99.0987 Y101.719 F2000
G1 X105.039 Y91.4293 E6329.96 F2000
G1 X104.673 Y91.0632 F2000
G1 X98.6169 Y101.553 E6340.86 F2000
G1 X98.2509 Y101.187 F2000
G1 X104.307 Y90.6972 E6351.77 F2000
G1 X103.941 Y90.3312 F2000
G1 X97.8849 Y100.821 E6362.67 F2000
G1 X97.5188 Y100.455 F2000
G1 X103.575 Y89.9651 E6373.57 F2000
G1 X103.209 Y89.5991 F2000
G1 X97.1528 Y100.089 E6384.47 F2000
G1 X96.7868 Y99.723 F2000
G1 X102.843 Y89.2331 E6395.37 F2000
G1 X102.477 Y88.8671 F2000
G1 X96.4208 Y99.357 E6406.27 F2000
G1 X96.0547 Y98.991 F2000
G1 X102.111 Y88.5011 E6417.17 F2000
G1 X101.745 Y88.135 F2000
G1 X95.6887 Y98.625 E6428.08 F2000
G1 X95.3227 Y98.2589 F2000
G1 X101.379 Y87.769 E6438.98 F2000
G1 X101.013 Y87.403 F2000
G1 X94.9567 Y97.8929 E6449.88 F2000
G1 X94.5906 Y97.5269 F2000
G1 X100.272 Y87.6865 E6460.1 F2000
G1 X98.906 Y89.0525 F2000
G1 X94.2246 Y97.1609 E6468.53 F2000
G1 X93.8586 Y96.7948 F2000
G1 X97.5399 Y90.4186 E6475.16 F2000
G1 X96.1739 Y91.7846 F2000
G1 X93.4926 Y96.4288 E6479.98 F2000
G1 X93.1265 Y96.0628 F2000
G1 X94.8079 Y93.1506 E6483.01 F2000
G1 X93.4418 Y94.5166 F2000
G1 X92.7605 Y95.6968 E6484.24 F2000
G1 X90.3203 Y97.9234 F2000
G1 X84.2639 Y108.413 E6495.14 F2000
G1 X84.6299 Y108.779 F2000
G1 X90.6863 Y98.2894 E6506.04 F2000
G1 X91.0523 Y98.6555 F2000
G1 X84.9959 Y109.145 E6516.94 F2000
G1 X85.362 Y109.511 F2000
G1 X91.4183 Y99.0215 E6527.84 F2000
G1 X91.7844 Y99.3875 F2000
G1 X85.728 Y109.877 E6538.74 F2000
G1 X86.094 Y110.243 F2000
G1 X92.1504 Y99.7535 E6549.65 F2000
G1 X92.5164 Y100.12 F2000
G1 X86.46 Y110.609 E6560.55 F2000
G1 X86.8261 Y110.976 F2000
G1 X92.8824 Y100.486 E6571.45 F2000
G1 X93.2485 Y100.852 F2000
G1 X87.1921 Y111.342 E6582.35 F2000
G1 X87.5581 Y111.708 F2000
G1 X93.6145 Y101.218 E6593.25 F2000
G1 X93.9805 Y101.584 F2000
G1 X87.9241 Y112.074 E6604.15 F2000
G1 X88.2685 Y112.418 F2000
G1 X81.9045 Y106.054 E6612.25 F2000
G1 X90.1777 Y97.7808 E6622.78 F2000
G1 X116.293 Y123.897 E6656.02 F2000
G1 X108.515 Y131.675 E6665.92 F2000
G1 X89.2584 Y112.418 E6690.43 F2000
G1 X88.7635 Y112.213 E6690.91 F2000
G1 X88.2685 Y112.418 E6691.4 F2000
G1 X94.3465 Y101.95 E6702.26 F2000
G1 X94.7126 Y102.316 F2000
G1 X88.9531 Y112.291 E6712.62 F2000
G1 X89.3846 Y112.544 F2000
G1 X95.0786 Y102.682 E6722.87 F2000
G1 X95.4446 Y103.048 F2000
G1 X89.7506 Y112.91 E6733.12 F2000
G1 X90.1166 Y113.276 F2000
G1 X95.8106 Y103.414 E6743.37 F2000
G1 X96.1767 Y103.78 F2000
G1 X90.4826 Y113.642 E6753.62 F2000
G1 X90.8487 Y114.008 F2000
G1 X96.5427 Y104.146 E6763.87 F2000
G1 X96.9087 Y104.512 F2000
G1 X91.2147 Y114.374 E6774.12 F2000
G1 X91.5807 Y114.74 F2000
G1 X97.2747 Y104.878 E6784.37 F2000
G1 X97.6408 Y105.244 F2000
G1 X91.9467 Y115.106 E6794.62 F2000
G1 X92.3128 Y115.472 F2000
G1 X98.0068 Y105.61 E6804.86 F2000
G1 X98.3728 Y105.976 F2000
G1 X92.6788 Y115.838 E6815.11 F2000
G1 X93.0448 Y116.204 F2000
G1 X98.7388 Y106.342 E6825.36 F2000
G1 X99.1049 Y106.708 F2000
G1 X93.4108 Y116.57 E6835.61 F2000
G1 X93.7769 Y116.936 F2000
G1 X99.4709 Y107.074 E6845.86 F2000
G1 X99.8369 Y107.44 F2000
G1 X94.1429 Y117.302 E6856.11 F2000
G1 X94.5089 Y117.668 F2000
G1 X100.203 Y107.806 E6866.36 F2000
G1 X100.569 Y108.172 F2000
G1 X94.8749 Y118.034 E6876.61 F2000
G1 X95.241 Y118.4 F2000
G1 X100.935 Y108.538 E6886.86 F2000
G1 X101.301 Y108.904 F2000
G1 X95.607 Y118.766 E6897.11 F2000
G1 X95.973 Y119.133 F2000
G1 X101.667 Y109.27 E6907.35 F2000
G1 X102.033 Y109.636 F2000
G1 X96.3391 Y119.499 E6917.6 F2000
G1 X96.7051 Y119.865 F2000
G1 X102.399 Y110.002 E6927.85 F2000
G1 X102.765 Y110.368 F2000
G1 X97.0711 Y120.231 E6938.1 F2000
G1 X97.4371 Y120.597 F2000
G1 X103.131 Y110.734 E6948.35 F2000
G1 X103.497 Y111.1 F2000
G1 X97.8031 Y120.963 E6958.6 F2000
G1 X98.1692 Y121.329 F2000
G1 X103.863 Y111.466 E6968.85 F2000
G1 X104.229 Y111.832 F2000
G1 X98.5352 Y121.695 E6979.1 F2000
G1 X98.9012 Y122.061 F2000
G1 X104.595 Y112.198 E6989.35 F2000
G1 X104.961 Y112.564 F2000
G1 X101.956 Y117.77 E6994.76 F2000
G1 X101.535 Y118.191 F2000
G1 X101.388 Y118.546 E6995.1 F2000
G1 X100.963 Y120.299 E6996.73 F2000
G1 X101.031 Y120.678 E6997.07 F2000
G1 X101.621 Y122.382 E6998.69 F2000
G1 X101.883 Y122.663 E6999.04 F2000
G1 X103.301 Y123.778 E7000.66 F2000
G1 X103.673 Y123.873 E7001.01 F2000
G1 X105.469 Y124.045 E7002.63 F2000
G1 X105.834 Y123.923 E7002.98 F2000
G1 X107.437 Y123.097 E7004.6 F2000
G1 X107.678 Y122.797 E7004.95 F2000
G1 X108.58 Y121.235 E7006.57 F2000
G1 X108.621 Y120.853 E7006.92 F2000
G1 X108.535 Y119.051 E7008.54 F2000
G1 X108.363 Y118.708 E7008.88 F2000
G1 X107.316 Y117.238 E7010.51 F2000
G1 X106.986 Y117.042 E7010.85 F2000
G1 X105.311 Y116.372 E7012.48 F2000
G1 X104.927 Y116.386 E7012.82 F2000
G1 X103.156 Y116.727 E7014.44 F2000
G1 X102.84 Y116.946 E7014.79 F2000
G1 X101.535 Y118.191 E7016.41 F2000
G1 X101.245 Y119.002 F2000
G1 X99.2672 Y122.427 E7019.97 F2000
G1 X99.6333 Y122.793 F2000
G1 X100.989 Y120.445 E7022.41 F2000
G1 X101.16 Y121.148 F2000
G1 X99.9993 Y123.159 E7024.5 F2000
G1 X100.365 Y123.525 F2000
G1 X101.387 Y121.755 E7026.34 F2000
G1 X101.614 Y122.363 F2000
G1 X100.731 Y123.891 E7027.93 F2000
G1 X101.097 Y124.257 F2000
G1 X101.955 Y122.771 E7029.47 F2000
G1 X102.358 Y123.073 F2000
G1 X101.463 Y124.623 E7031.08 F2000
G1 X101.829 Y124.989 F2000
G1 X102.761 Y123.375 E7032.76 F2000
G1 X103.165 Y123.676 F2000
G1 X102.195 Y125.355 E7034.51 F2000
G1 X102.561 Y125.721 F2000
G1 X103.634 Y123.863 E7036.44 F2000
G1 X104.161 Y123.951 F2000
G1 X102.927 Y126.087 E7038.66 F2000
G1 X103.294 Y126.453 F2000
G1 X104.715 Y123.991 E7041.21 F2000
G1 X105.27 Y124.031 F2000
G1 X103.66 Y126.819 E7044.11 F2000
G1 X104.026 Y127.185 F2000
G1 X105.902 Y123.935 E7047.49 F2000
G1 X106.745 Y123.474 F2000
G1 X104.392 Y127.551 E7051.73 F2000
G1 X104.758 Y127.917 F2000
G1 X107.705 Y122.812 E7057.03 F2000
G1 X107.956 Y122.378 F2000
G1 X110.452 Y118.055 E7061.52 F2000
G1 X110.818 Y118.421 F2000
G1 X105.124 Y128.283 E7071.77 F2000
G1 X105.49 Y128.649 F2000
G1 X111.184 Y118.787 E7082.02 F2000
G1 X111.55 Y119.153 F2000
G1 X105.856 Y129.015 E7092.27 F2000
G1 X106.222 Y129.381 F2000
G1 X111.916 Y119.519 E7102.52 F2000
G1 X112.282 Y119.885 F2000
G1 X106.588 Y129.747 E7112.77 F2000
G1 X106.954 Y130.113 F2000
G1 X112.648 Y120.251 E7123.02 F2000
G1 X113.014 Y120.617 F2000
G1 X107.32 Y130.479 E7133.27 F2000
G1 X107.686 Y130.845 F2000
G1 X113.38 Y120.983 E7143.52 F2000
G1 X113.746 Y121.349 F2000
G1 X108.052 Y131.211 E7153.77 F2000
G1 X108.418 Y131.577 F2000
G1 X114.112 Y121.715 E7164.02 F2000
G1 X114.478 Y122.081 F2000
G1 X109.518 Y130.672 E7172.94 F2000
G1 X110.884 Y129.306 F2000
G1 X114.844 Y122.447 E7180.07 F2000
G1 X115.21 Y122.813 F2000
G1 X112.25 Y127.94 E7185.4 F2000
G1 X113.616 Y126.574 F2000
G1 X115.576 Y123.179 E7188.93 F2000
G1 X115.942 Y123.545 F2000
G1 X114.982 Y125.208 E7190.66 F2000
G1 X108.619 Y120.229 F2000
G1 X110.086 Y117.689 E7193.3 F2000
G1 X109.72 Y117.323 F2000
G1 X108.555 Y119.339 E7195.39 F2000
G1 X108.375 Y118.652 F2000
G1 X109.354 Y116.957 E7197.15 F2000
G1 X108.988 Y116.591 F2000
G1 X108.049 Y118.217 E7198.84 F2000
G1 X107.723 Y117.781 F2000
G1 X108.622 Y116.225 E7200.46 F2000
G1 X108.255 Y115.859 F2000
G1 X107.397 Y117.346 E7202.01 F2000
G1 X106.992 Y117.046 F2000
G1 X107.889 Y115.493 E7203.62 F2000
G1 X107.523 Y115.127 F2000
G1 X106.54 Y116.83 E7205.39 F2000
G1 X106.065 Y116.653 F2000
G1 X107.157 Y114.761 E7207.36 F2000
G1 X106.791 Y114.395 F2000
G1 X105.59 Y116.476 E7209.52 F2000
G1 X105.067 Y116.381 F2000
G1 X106.425 Y114.029 E7211.97 F2000
G1 X106.059 Y113.662 F2000
G1 X104.453 Y116.445 E7214.86 F2000
G1 X103.793 Y116.589 F2000
G1 X105.693 Y113.296 E7218.28 F2000
G1 X105.327 Y112.93 F2000
G1 X103.121 Y116.751 E7222.25 F2000
G1 X95.3666 Y124.183 F2000
G1 X93.6908 Y127.085 E7225.27 F2000
G1 X94.3112 Y126.95 F2000
G1 X92.5494 Y127.334 E7226.89 F2000
G1 X92.2335 Y127.553 E7227.23 F2000
G1 X90.9282 Y128.798 E7228.86 F2000
G1 X90.781 Y129.153 E7229.2 F2000
G1 X90.3559 Y130.906 E7230.83 F2000
G1 X90.4242 Y131.284 E7231.17 F2000
G1 X91.0142 Y132.989 E7232.79 F2000
G1 X91.2762 Y133.27 E7233.14 F2000
G1 X92.694 Y134.385 E7234.76 F2000
G1 X93.0666 Y134.48 E7235.11 F2000
G1 X94.862 Y134.651 E7236.73 F2000
G1 X95.2269 Y134.53 E7237.08 F2000
G1 X96.83 Y133.703 E7238.7 F2000
G1 X97.0713 Y133.404 E7239.05 F2000
G1 X97.973 Y131.842 E7240.67 F2000
G1 X98.0141 Y131.46 E7241.02 F2000
G1 X97.9282 Y129.658 E7242.64 F2000
G1 X97.7561 Y129.314 E7242.98 F2000
G1 X96.7098 Y127.845 E7244.61 F2000
G1 X96.3791 Y127.649 E7244.95 F2000
G1 X94.7047 Y126.979 E7246.58 F2000
G1 X94.3204 Y126.992 E7246.92 F2000
G1 X95.7326 Y124.549 E7249.46 F2000
G1 X96.0986 Y124.915 F2000
G1 X94.8713 Y127.041 E7251.67 F2000
G1 X95.3464 Y127.218 F2000
G1 X96.4646 Y125.281 E7253.68 F2000
G1 X96.8307 Y125.647 F2000
G1 X95.8214 Y127.395 E7255.5 F2000
G1 X96.2965 Y127.572 F2000
G1 X97.1967 Y126.013 E7257.12 F2000
G1 X97.5627 Y126.379 F2000
G1 X96.7135 Y127.85 E7258.65 F2000
G1 X97.0395 Y128.285 F2000
G1 X97.9287 Y126.745 E7260.25 F2000
G1 X98.2948 Y127.111 F2000
G1 X97.3654 Y128.721 E7261.92 F2000
G1 X97.6914 Y129.156 F2000
G1 X98.6608 Y127.477 E7263.67 F2000
G1 X99.0268 Y127.843 F2000
G1 X97.9338 Y129.736 E7265.64 F2000
G1 X97.9974 Y130.626 F2000
G1 X99.3929 Y128.209 E7268.15 F2000
G1 X99.7589 Y128.575 F2000
G1 X97.9959 Y131.629 E7271.32 F2000
G1 X96.7835 Y133.729 F2000
G1 X94.0649 Y138.438 E7276.21 F2000
G1 X93.6988 Y138.072 F2000
G1 X95.9403 Y134.189 E7280.25 F2000
G1 X95.1518 Y134.555 F2000
G1 X93.3328 Y137.706 E7283.52 F2000
G1 X92.9668 Y137.339 F2000
G1 X94.5324 Y134.628 E7286.34 F2000
G1 X93.9779 Y134.588 F2000
G1 X92.6008 Y136.973 E7288.82 F2000
G1 X92.2347 Y136.607 F2000
G1 X93.4235 Y134.548 E7290.96 F2000
G1 X92.9089 Y134.44 F2000
G1 X91.8687 Y136.241 E7292.83 F2000
G1 X91.5027 Y135.875 F2000
G1 X92.463 Y134.212 E7294.56 F2000
G1 X92.0599 Y133.91 F2000
G1 X91.1367 Y135.509 E7296.22 F2000
G1 X90.7706 Y135.143 F2000
G1 X91.6568 Y133.608 E7297.82 F2000
G1 X91.2537 Y133.307 F2000
G1 X90.4046 Y134.777 E7299.35 F2000
G1 X90.0386 Y134.411 F2000
G1 X90.9536 Y132.826 E7300.99 F2000
G1 X91.2753 Y133.269 F2000
G1 X90.727 Y132.219 F2000
G1 X89.6726 Y134.045 E7302.89 F2000
G1 X89.3065 Y133.679 F2000
G1 X90.5005 Y131.611 E7305.04 F2000
G1 X90.3713 Y130.835 F2000
G1 X88.9405 Y133.313 E7307.61 F2000
G1 X88.5745 Y132.947 F2000
G1 X90.7203 Y129.23 E7311.48 F2000
G1 X90.7668 Y129.15 F2000
G1 X90.8216 Y129.055 E7311.58 F2000
G1 X91.0275 Y128.698 F2000
G1 X94.2685 Y123.085 E7317.41 F2000
G1 X94.6345 Y123.451 F2000
G1 X92.288 Y127.515 E7321.63 F2000
G1 X93.0306 Y127.229 F2000
G1 X95.0005 Y123.817 E7325.18 F2000
G1 X93.9025 Y122.719 F2000
G1 X88.2085 Y132.581 E7335.43 F2000
G1 X87.8424 Y132.215 F2000
G1 X93.5364 Y122.353 E7345.68 F2000
G1 X93.1704 Y121.987 F2000
G1 X87.4764 Y131.849 E7355.93 F2000
G1 X87.1104 Y131.483 F2000
G1 X92.8044 Y121.621 E7366.18 F2000
G1 X92.6632 Y121.48 F2000
G1 X105.687 Y134.503 E7382.75 F2000
G1 X97.9087 Y142.281 E7392.65 F2000
G1 X84.885 Y129.258 E7409.23 F2000
G1 X85.6248 Y128.034 E7410.52 F2000
G1 X85.6739 Y127.711 E7410.81 F2000
G1 X85.7245 Y127.714 E7410.85 F2000
G1 X85.8439 Y125.739 E7412.64 F2000
G1 X85.7374 Y125.431 E7412.93 F2000
G1 X85.7835 Y125.41 E7412.97 F2000
G1 X84.9716 Y123.606 E7414.75 F2000
G1 X84.7337 Y123.382 E7415.05 F2000
G1 X84.765 Y123.342 E7415.09 F2000
G1 X83.2076 Y122.122 E7416.87 F2000
G1 X82.893 Y122.034 E7417.17 F2000
G1 X82.9021 Y121.984 E7417.21 F2000
G1 X80.9562 Y121.628 E7418.99 F2000
G1 X80.6368 Y121.696 E7419.29 F2000
G1 X80.6217 Y121.648 E7419.33 F2000
G1 X78.733 Y122.237 E7421.11 F2000
G1 X78.4821 Y122.446 E7421.41 F2000
G1 X78.4463 Y122.41 E7421.45 F2000
G1 X77.9519 Y122.904 E7422.08 F2000
G1 X77.6619 Y123.025 E7422.37 F2000
G1 X71.2979 Y116.661 E7430.47 F2000
G1 X79.5711 Y108.387 E7441 F2000
G1 X86.02 Y114.836 E7449.2 F2000
G1 X85.8155 Y115.041 E7449.46 F2000
G1 X85.6905 Y115.343 E7449.76 F2000
G1 X85.6422 Y115.328 E7449.8 F2000
G1 X85.0536 Y117.216 E7451.58 F2000
G1 X85.0832 Y117.542 E7451.88 F2000
G1 X85.0334 Y117.551 E7451.92 F2000
G1 X85.39 Y119.497 E7453.7 F2000
G1 X85.5673 Y119.771 E7454 F2000
G1 X85.5275 Y119.802 E7454.04 F2000
G1 X86.7476 Y121.359 E7455.82 F2000
G1 X87.0321 Y121.52 E7456.12 F2000
G1 X87.0113 Y121.566 E7456.16 F2000
G1 X88.8153 Y122.378 E7457.94 F2000
G1 X89.1418 Y122.388 E7458.24 F2000
G1 X89.1449 Y122.438 E7458.28 F2000
G1 X91.1196 Y122.319 E7460.06 F2000
G1 X91.4133 Y122.176 E7460.36 F2000
G1 X91.4395 Y122.219 E7460.4 F2000
G1 X92.6632 Y121.48 E7461.69 F2000
G1 X92.1184 Y121.809 F2000
G1 X86.7443 Y131.117 E7471.36 F2000
G1 X86.3783 Y130.751 F2000
G1 X91.2962 Y122.233 E7480.21 F2000
G1 X90.6529 Y122.347 F2000
G1 X86.0123 Y130.385 E7488.57 F2000
G1 X85.6463 Y130.019 F2000
G1 X90.0547 Y122.383 E7496.5 F2000
G1 X89.4564 Y122.42 F2000
G1 X85.2802 Y129.653 E7504.02 F2000
G1 X84.9142 Y129.287 F2000
G1 X88.9016 Y122.381 E7511.2 F2000
G1 X88.4267 Y122.203 F2000
G1 X85.7806 Y126.786 E7515.96 F2000
G1 X85.8304 Y125.7 F2000
G1 X87.9684 Y121.997 E7519.81 F2000
G1 X87.5102 Y121.791 F2000
G1 X85.6245 Y125.057 E7523.2 F2000
G1 X85.3716 Y124.495 F2000
G1 X87.0519 Y121.584 E7526.23 F2000
G1 X86.6651 Y121.254 F2000
G1 X85.1187 Y123.933 E7529.01 F2000
G1 X84.8151 Y123.459 F2000
G1 X86.3327 Y120.83 E7531.74 F2000
G1 X86.0003 Y120.406 F2000
G1 X84.4483 Y123.094 E7534.54 F2000
G1 X84.0507 Y122.783 F2000
G1 X85.6679 Y119.981 E7537.45 F2000
G1 X85.3853 Y119.471 F2000
G1 X83.6532 Y122.471 E7540.56 F2000
G1 X83.2557 Y122.16 F2000
G1 X85.2462 Y118.712 E7544.15 F2000
G1 X85.1071 Y117.953 F2000
G1 X82.7912 Y121.964 E7548.32 F2000
G1 X82.2691 Y121.868 F2000
G1 X85.1692 Y116.845 E7553.54 F2000
G1 X85.8499 Y114.666 F2000
G1 X81.7469 Y121.773 E7560.92 F2000
G1 X81.2248 Y121.677 F2000
G1 X85.4839 Y114.3 E7568.59 F2000
G1 X85.1179 Y113.934 F2000
G1 X80.6366 Y121.696 E7576.65 F2000
G1 X79.9695 Y121.851 F2000
G1 X84.7518 Y113.568 E7585.26 F2000
G1 X84.3858 Y113.202 F2000
G1 X79.2655 Y122.071 E7594.48 F2000
G1 X78.4754 Y122.439 F2000
G1 X84.0198 Y112.836 E7604.46 F2000
G1 X83.6538 Y112.47 F2000
G1 X77.5974 Y122.96 E7615.36 F2000
G1 X77.2314 Y122.594 F2000
G1 X83.2877 Y112.104 E7626.26 F2000
G1 X82.9217 Y111.738 F2000
G1 X76.8653 Y122.228 E7637.16 F2000
G1 X76.4993 Y121.862 F2000
G1 X82.5557 Y111.372 E7648.06 F2000
G1 X82.1897 Y111.006 F2000
G1 X76.1333 Y121.496 E7658.96 F2000
G1 X75.7673 Y121.13 F2000
G1 X81.8236 Y110.64 E7669.87 F2000
G1 X81.4576 Y110.274 F2000
G1 X75.4012 Y120.764 E7680.77 F2000
G1 X75.0352 Y120.398 F2000
G1 X81.0916 Y109.908 E7691.67 F2000
G1 X80.7256 Y109.542 F2000
G1 X74.6692 Y120.032 E7702.57 F2000
G1 X74.3032 Y119.666 F2000
G1 X80.3595 Y109.176 E7713.47 F2000
G1 X79.9935 Y108.81 F2000
G1 X73.9371 Y119.3 E7724.37 F2000
G1 X73.5711 Y118.934 F2000
G1 X79.6275 Y108.444 E7735.27 F2000
G1 X78.4156 Y109.543 F2000
G1 X73.2051 Y118.568 E7744.65 F2000
G1 X72.8391 Y118.202 F2000
G1 X77.0495 Y110.909 E7752.23 F2000
G1 X75.6835 Y112.275 F2000
G1 X72.473 Y117.836 E7758.01 F2000
G1 X72.107 Y117.47 F2000
G1 X74.3175 Y113.641 E7761.99 F2000
G1 X72.9515 Y115.007 F2000
G1 X71.741 Y117.104 E7764.17 F2000
G1 X71.375 Y116.738 F2000
G1 X71.5854 Y116.373 E7764.55 F2000
G1 X69.6244 Y113.997 F2000
G1 X56.6008 Y100.973 E7781.12 F2000
G1 X57.3405 Y99.7498 E7782.41 F2000
G1 X57.3897 Y99.4268 E7782.71 F2000
G1 X57.4402 Y99.4299 E7782.75 F2000
G1 X57.5596 Y97.4551 E7784.53 F2000
G1 X57.4531 Y97.1464 E7784.83 F2000
G1 X57.4992 Y97.1256 E7784.87 F2000
G1 X56.6873 Y95.3216 E7786.65 F2000
G1 X56.4495 Y95.0977 E7786.94 F2000
G1 X56.4807 Y95.0578 E7786.99 F2000
G1 X54.9234 Y93.8377 E7788.77 F2000
G1 X54.6087 Y93.75 E7789.06 F2000
G1 X54.6179 Y93.7002 E7789.11 F2000
G1 X52.6719 Y93.3436 E7790.89 F2000
G1 X52.3525 Y93.4122 E7791.18 F2000
G1 X52.3375 Y93.3638 E7791.23 F2000
G1 X50.4487 Y93.9524 E7793.01 F2000
G1 X50.1978 Y94.1615 E7793.3 F2000
G1 X50.162 Y94.1257 E7793.35 F2000
G1 X49.6676 Y94.6202 E7793.98 F2000
G1 X49.3776 Y94.7403 E7794.26 F2000
G1 X43.0136 Y88.3763 E7802.36 F2000
G1 X51.2868 Y80.1031 E7812.89 F2000
G1 X57.7357 Y86.552 E7821.1 F2000
G1 X57.5312 Y86.7565 E7821.36 F2000
G1 X57.4062 Y87.0583 E7821.65 F2000
G1 X57.3579 Y87.0432 E7821.7 F2000
G1 X56.7693 Y88.932 E7823.48 F2000
G1 X56.7989 Y89.2573 E7823.77 F2000
G1 X56.7491 Y89.2664 E7823.82 F2000
G1 X57.1057 Y91.2124 E7825.6 F2000
G1 X57.2831 Y91.4867 E7825.89 F2000
G1 X57.2432 Y91.5179 E7825.94 F2000
G1 X58.4633 Y93.0752 E7827.72 F2000
G1 X58.7478 Y93.2357 E7828.01 F2000
G1 X58.727 Y93.2818 E7828.06 F2000
G1 X60.5311 Y94.0938 E7829.84 F2000
G1 X60.8576 Y94.1036 E7830.13 F2000
G1 X60.8606 Y94.1542 E7830.18 F2000
G1 X62.8354 Y94.0347 E7831.96 F2000
G1 X63.129 Y93.8917 E7832.25 F2000
G1 X63.1552 Y93.935 E7832.3 F2000
G1 X64.3789 Y93.1953 E7833.58 F2000
G1 X77.4026 Y106.219 E7850.16 F2000
G1 X69.6244 Y113.997 E7860.06 F2000
G1 X69.5412 Y113.914 F2000
G1 X75.2352 Y104.052 E7870.31 F2000
G1 X75.6012 Y104.418 F2000
G1 X70.6796 Y112.942 E7879.17 F2000
G1 X69.1751 Y113.548 F2000
G1 X74.8691 Y103.686 E7889.42 F2000
G1 X74.5031 Y103.319 F2000
G1 X68.8091 Y113.182 E7899.67 F2000
G1 X68.4431 Y112.816 F2000
G1 X74.1371 Y102.953 E7909.92 F2000
G1 X73.7711 Y102.587 F2000
G1 X68.077 Y112.45 E7920.16 F2000
G1 X67.711 Y112.084 F2000
G1 X73.405 Y102.221 E7930.41 F2000
G1 X73.039 Y101.855 F2000
G1 X67.345 Y111.718 E7940.66 F2000
G1 X66.979 Y111.352 F2000
G1 X72.673 Y101.489 E7950.91 F2000
G1 X72.307 Y101.123 F2000
G1 X66.6129 Y110.986 E7961.16 F2000
G1 X66.2469 Y110.62 F2000
G1 X71.9409 Y100.757 E7971.41 F2000
G1 X71.5749 Y100.391 F2000
G1 X65.8809 Y110.254 E7981.66 F2000
G1 X65.5149 Y109.888 F2000
G1 X67.8871 Y105.779 E7985.93 F2000
G1 X68.5457 Y105.419 F2000
G1 X68.787 Y105.12 E7986.27 F2000
G1 X69.6887 Y103.558 E7987.9 F2000
G1 X69.7298 Y103.175 E7988.24 F2000
G1 X69.6439 Y101.374 E7989.87 F2000
G1 X69.4718 Y101.03 E7990.21 F2000
G1 X68.4255 Y99.5608 E7991.83 F2000
G1 X68.0948 Y99.3646 E7992.18 F2000
G1 X66.4204 Y98.6943 E7993.8 F2000
G1 X66.0361 Y98.708 E7994.15 F2000
G1 X64.2651 Y99.0494 E7995.77 F2000
G1 X63.9492 Y99.2688 E7996.12 F2000
G1 X62.6439 Y100.513 E7997.74 F2000
G1 X62.4968 Y100.869 E7998.09 F2000
G1 X62.0716 Y102.621 E7999.71 F2000
G1 X62.1399 Y103 E8000.06 F2000
G1 X62.7299 Y104.704 E8001.68 F2000
G1 X62.9919 Y104.986 E8002.02 F2000
G1 X64.4097 Y106.101 E8003.65 F2000
G1 X64.7823 Y106.196 E8003.99 F2000
G1 X66.5777 Y106.367 E8005.62 F2000
G1 X66.9426 Y106.246 E8005.96 F2000
G1 X68.5457 Y105.419 E8007.58 F2000
G1 X67.0439 Y106.239 F2000
G1 X65.1488 Y109.522 E8011 F2000
G1 X64.7828 Y109.156 F2000
G1 X66.4001 Y106.354 E8013.91 F2000
G1 X65.8456 Y106.315 F2000
G1 X64.4168 Y108.79 E8016.48 F2000
G1 X64.0508 Y108.423 F2000
G1 X65.2912 Y106.275 E8018.71 F2000
G1 X64.7625 Y106.191 F2000
G1 X63.6847 Y108.057 E8020.65 F2000
G1 X63.3187 Y107.691 F2000
G1 X64.2892 Y106.01 E8022.4 F2000
G1 X63.8861 Y105.709 F2000
G1 X62.9527 Y107.325 E8024.08 F2000
G1 X62.5867 Y106.959 F2000
G1 X63.483 Y105.407 E8025.69 F2000
G1 X63.0799 Y105.105 F2000
G1 X62.2206 Y106.593 E8027.24 F2000
G1 X61.8546 Y106.227 F2000
G1 X62.7324 Y104.707 E8028.82 F2000
G1 X62.5049 Y104.101 F2000
G1 X61.4886 Y105.861 E8030.65 F2000
G1 X61.1226 Y105.495 F2000
G1 X62.2783 Y103.494 E8032.73 F2000
G1 X62.1032 Y102.797 F2000
G1 X60.7565 Y105.129 E8035.15 F2000
G1 X60.3905 Y104.763 F2000
G1 X62.3404 Y101.386 E8038.66 F2000
G1 X63.1176 Y100.04 F2000
G1 X66.0845 Y94.9009 E8044 F2000
G1 X65.7185 Y94.5349 F2000
G1 X60.0245 Y104.397 E8054.25 F2000
G1 X59.6585 Y104.031 F2000
G1 X65.3525 Y94.1688 E8064.5 F2000
G1 X64.9865 Y93.8028 F2000
G1 X59.2924 Y103.665 E8074.75 F2000
G1 X58.9264 Y103.299 F2000
G1 X64.6204 Y93.4368 E8085 F2000
G1 X64.0772 Y93.3777 F2000
G1 X58.5604 Y102.933 E8094.93 F2000
G1 X58.1944 Y102.567 F2000
G1 X63.1903 Y93.9138 E8103.92 F2000
G1 X62.5326 Y94.053 F2000
G1 X57.8283 Y102.201 E8112.39 F2000
G1 X57.4623 Y101.835 F2000
G1 X61.9344 Y94.0892 E8120.44 F2000
G1 X61.3361 Y94.1254 F2000
G1 X57.0963 Y101.469 E8128.07 F2000
G1 X56.7303 Y101.103 F2000
G1 X60.7728 Y94.1011 E8135.35 F2000
G1 X60.268 Y93.9754 F2000
G1 X57.4778 Y98.8082 E8140.37 F2000
G1 X57.5454 Y97.6912 F2000
G1 X59.8098 Y93.7691 E8144.44 F2000
G1 X59.3515 Y93.5629 F2000
G1 X57.4096 Y96.9264 E8147.94 F2000
G1 X57.1567 Y96.3644 F2000
G1 X58.8932 Y93.3566 E8151.07 F2000
G1 X58.4746 Y93.0816 F2000
G1 X56.9038 Y95.8025 E8153.89 F2000
G1 X56.6334 Y95.2708 F2000
G1 X58.1396 Y92.662 E8156.6 F2000
G1 X57.8072 Y92.2377 F2000
G1 X56.273 Y94.8951 E8159.37 F2000
G1 X55.8754 Y94.5836 F2000
G1 X57.4748 Y91.8135 E8162.25 F2000
G1 X57.179 Y91.3257 F2000
G1 X55.4779 Y94.2722 E8165.31 F2000
G1 X55.0803 Y93.9607 F2000
G1 X57 Y90.6357 E8168.76 F2000
G1 X56.8609 Y89.8767 F2000
G1 X54.6224 Y93.7538 E8172.79 F2000
G1 X54.1279 Y93.6104 F2000
G1 X56.7774 Y89.0213 E8177.56 F2000
G1 X57.666 Y86.4823 F2000
G1 X53.6058 Y93.5148 E8184.87 F2000
G1 X53.0837 Y93.4191 F2000
G1 X57.2999 Y86.1163 E8192.46 F2000
G1 X56.9339 Y85.7503 F2000
G1 X52.5326 Y93.3735 E8200.38 F2000
G1 X51.8782 Y93.507 F2000
G1 X56.5679 Y85.3842 E8208.82 F2000
G1 X56.2019 Y85.0182 F2000
G1 X51.1742 Y93.7263 E8217.87 F2000
G1 X50.4702 Y93.9457 F2000
G1 X55.8358 Y84.6522 E8227.53 F2000
G1 X55.4698 Y84.2862 F2000
G1 X49.4519 Y94.7095 E8238.36 F2000
G1 X49.0474 Y94.4101 F2000
G1 X55.1038 Y83.9201 E8249.26 F2000
G1 X54.7378 Y83.5541 F2000
G1 X48.6814 Y94.044 E8260.16 F2000
G1 X48.3154 Y93.678 F2000
G1 X54.3717 Y83.1881 E8271.07 F2000
G1 X54.0057 Y82.8221 F2000
G1 X47.9493 Y93.312 E8281.97 F2000
G1 X47.5833 Y92.946 F2000
G1 X53.6397 Y82.456 E8292.87 F2000
G1 X53.2737 Y82.09 F2000
G1 X47.2173 Y92.5799 E8303.77 F2000
G1 X46.8513 Y92.2139 F2000
G1 X52.9076 Y81.724 E8314.67 F2000
G1 X52.5416 Y81.358 F2000
G1 X46.4852 Y91.8479 E8325.57 F2000
G1 X46.1192 Y91.4819 F2000
G1 X52.1756 Y80.9919 E8336.47 F2000
G1 X51.8095 Y80.6259 F2000
G1 X45.7532 Y91.1158 E8347.38 F2000
G1 X45.3872 Y90.7498 F2000
G1 X51.4435 Y80.2599 E8358.28 F2000
G1 X50.5057 Y80.8843 F2000
G1 X45.0211 Y90.3838 E8368.15 F2000
G1 X44.6551 Y90.0178 F2000
G1 X49.1397 Y82.2503 E8376.22 F2000
G1 X47.7736 Y83.6163 F2000
G1 X44.2891 Y89.6517 E8382.49 F2000
G1 X43.9231 Y89.2857 F2000
G1 X46.4076 Y84.9823 E8386.97 F2000
G1 X45.0416 Y86.3484 F2000
G1 X43.557 Y88.9197 E8389.64 F2000
G1 X43.191 Y88.5537 F2000
G1 X43.6756 Y87.7144 E8390.51 F2000
G1 X43.5558 Y93.5853 F2000
G1 X89.4234 Y139.453 E8448.89 F2000
G1 X81.6452 Y147.231 E8458.79 F2000
G1 X62.3884 Y127.974 E8483.3 F2000
G1 X61.8934 Y127.769 E8483.78 F2000
G1 X61.3984 Y127.974 E8484.26 F2000
G1 X55.0345 Y121.61 E8492.36 F2000
G1 X55.2395 Y121.115 E8492.85 F2000
G1 X55.0345 Y120.62 E8493.33 F2000
G1 X35.7776 Y101.363 E8517.84 F2000
G1 X43.5558 Y93.5853 E8527.74 F2000
G1 X43.679 Y93.7085 F2000
G1 X37.9849 Y103.571 E8537.99 F2000
G1 X38.351 Y103.937 F2000
G1 X44.045 Y94.0745 E8548.24 F2000
G1 X44.411 Y94.4406 F2000
G1 X38.717 Y104.303 E8558.49 F2000
G1 X39.083 Y104.669 F2000
G1 X44.777 Y94.8066 E8568.74 F2000
G1 X45.1431 Y95.1726 F2000
G1 X39.449 Y105.035 E8578.98 F2000
G1 X39.8151 Y105.401 F2000
G1 X45.5091 Y95.5386 E8589.23 F2000
G1 X45.8751 Y95.9047 F2000
G1 X40.1811 Y105.767 E8599.48 F2000
G1 X40.5471 Y106.133 F2000
G1 X46.2411 Y96.2707 E8609.73 F2000
G1 X46.6072 Y96.6367 F2000
G1 X40.9131 Y106.499 E8619.98 F2000
G1 X41.2792 Y106.865 F2000
G1 X46.9732 Y97.0027 E8630.23 F2000
G1 X47.3392 Y97.3688 F2000
G1 X44.4108 Y102.441 E8635.5 F2000
G1 X43.4915 Y104.025 E8637.12 F2000
G1 X43.4504 Y104.407 E8637.47 F2000
G1 X43.5363 Y106.209 E8639.09 F2000
G1 X43.7084 Y106.553 E8639.44 F2000
G1 X44.7547 Y108.022 E8641.06 F2000
G1 X45.0854 Y108.218 E8641.41 F2000
G1 X46.7598 Y108.888 E8643.03 F2000
G1 X47.1441 Y108.874 E8643.38 F2000
G1 X48.9151 Y108.533 E8645 F2000
G1 X49.231 Y108.314 E8645.34 F2000
G1 X50.5363 Y107.069 E8646.97 F2000
G1 X50.6834 Y106.714 E8647.31 F2000
G1 X51.1086 Y104.961 E8648.94 F2000
G1 X51.0403 Y104.583 E8649.28 F2000
G1 X50.4503 Y102.878 E8650.91 F2000
G1 X50.1883 Y102.597 E8651.25 F2000
G1 X48.7705 Y101.482 E8652.87 F2000
G1 X48.3979 Y101.387 E8653.22 F2000
G1 X46.6025 Y101.215 E8654.84 F2000
G1 X46.2376 Y101.337 E8655.19 F2000
G1 X44.6345 Y102.163 E8656.81 F2000
G1 X44.3932 Y102.463 E8657.16 F2000
G1 X45.385 Y101.754 F2000
G1 X47.7052 Y97.7348 E8661.33 F2000
G1 X48.0713 Y98.1008 F2000
G1 X46.2207 Y101.306 E8664.67 F2000
G1 X46.8406 Y101.232 F2000
G1 X48.4373 Y98.4668 E8667.54 F2000
G1 X48.8033 Y98.8329 F2000
G1 X47.395 Y101.272 E8670.07 F2000
G1 X47.9495 Y101.312 F2000
G1 X49.1693 Y99.1989 E8672.27 F2000
G1 X49.5354 Y99.5649 F2000
G1 X48.4725 Y101.406 E8674.18 F2000
G1 X48.9349 Y101.605 F2000
G1 X49.9014 Y99.9309 E8675.92 F2000
G1 X50.2674 Y100.297 F2000
G1 X49.338 Y101.907 E8677.59 F2000
G1 X49.7412 Y102.208 F2000
G1 X50.6334 Y100.663 E8679.2 F2000
G1 X50.9995 Y101.029 F2000
G1 X50.1443 Y102.51 E8680.74 F2000
G1 X50.4734 Y102.94 F2000
G1 X51.3655 Y101.395 E8682.35 F2000
G1 X51.7315 Y101.761 F2000
G1 X50.7 Y103.548 E8684.2 F2000
G1 X50.9266 Y104.155 F2000
G1 X52.0975 Y102.127 E8686.31 F2000
G1 X52.4636 Y102.493 F2000
G1 X51.0919 Y104.869 E8688.78 F2000
G1 X50.8017 Y106.371 F2000
G1 X52.8296 Y102.859 E8692.43 F2000
G1 X53.1956 Y103.225 F2000
G1 X47.5016 Y113.087 E8702.68 F2000
G1 X47.1356 Y112.721 F2000
G1 X50.2115 Y107.394 E8708.21 F2000
G1 X49.0174 Y108.462 F2000
G1 X46.7695 Y112.355 E8712.26 F2000
G1 X46.4035 Y111.989 F2000
G1 X48.3249 Y108.661 E8715.72 F2000
G1 X47.6647 Y108.805 F2000
G1 X46.0375 Y111.623 E8718.65 F2000
G1 X45.6715 Y111.257 F2000
G1 X47.0452 Y108.878 E8721.12 F2000
G1 X46.5147 Y108.797 F2000
G1 X45.3054 Y110.891 E8723.3 F2000
G1 X44.9394 Y110.525 F2000
G1 X46.0397 Y108.62 E8725.28 F2000
G1 X45.5646 Y108.442 F2000
G1 X44.5734 Y110.159 E8727.06 F2000
G1 X44.2074 Y109.793 F2000
G1 X45.0896 Y108.265 E8728.65 F2000
G1 X44.6972 Y107.945 F2000
G1 X43.8413 Y109.427 E8730.19 F2000
G1 X43.4753 Y109.061 F2000
G1 X44.3712 Y107.509 E8731.8 F2000
G1 X44.0453 Y107.074 F2000
G1 X43.1093 Y108.695 E8733.49 F2000
G1 X42.7433 Y108.329 F2000
G1 X43.7193 Y106.639 E8735.24 F2000
G1 X43.5202 Y105.984 F2000
G1 X42.3772 Y107.963 E8737.3 F2000
G1 X42.0112 Y107.597 F2000
G1 X43.4565 Y105.094 E8739.9 F2000
G1 X43.4904 Y104.035 F2000
G1 X41.6452 Y107.231 E8743.22 F2000
G1 X37.6189 Y103.205 F2000
G1 X42.6495 Y94.4916 E8752.28 F2000
G1 X41.2835 Y95.8576 F2000
G1 X37.2529 Y102.839 E8759.53 F2000
G1 X36.8869 Y102.473 F2000
G1 X39.9174 Y97.2236 E8764.99 F2000
G1 X38.5514 Y98.5897 F2000
G1 X36.5208 Y102.107 E8768.64 F2000
G1 X36.1548 Y101.741 F2000
G1 X37.1854 Y99.9557 E8770.5 F2000
G1 X35.8194 Y101.322 F2000
G1 X35.7888 Y101.375 E8770.55 F2000
G1 X47.8676 Y113.454 F2000
G1 X53.5616 Y103.591 E8780.8 F2000
G1 X53.9277 Y103.957 F2000
G1 X48.2336 Y113.82 E8791.05 F2000
G1 X48.5997 Y114.186 F2000
G1 X54.2937 Y104.323 E8801.3 F2000
G1 X54.6597 Y104.689 F2000
G1 X48.9657 Y114.552 E8811.55 F2000
G1 X49.3317 Y114.918 F2000
G1 X55.0257 Y105.055 E8821.8 F2000
G1 X55.3918 Y105.421 F2000
G1 X49.6977 Y115.284 E8832.05 F2000
G1 X50.0638 Y115.65 F2000
G1 X55.7578 Y105.787 E8842.3 F2000
G1 X56.1238 Y106.153 F2000
G1 X50.4298 Y116.016 E8852.55 F2000
G1 X50.7958 Y116.382 F2000
G1 X56.4898 Y106.519 E8862.8 F2000
G1 X56.8559 Y106.885 F2000
G1 X51.1618 Y116.748 E8873.04 F2000
G1 X51.5279 Y117.114 F2000
G1 X57.2219 Y107.251 E8883.29 F2000
G1 X57.5879 Y107.617 F2000
G1 X51.8939 Y117.48 E8893.54 F2000
G1 X52.2599 Y117.846 F2000
G1 X57.9539 Y107.984 E8903.79 F2000
G1 X58.32 Y108.35 F2000
G1 X52.6259 Y118.212 E8914.04 F2000
G1 X52.992 Y118.578 F2000
G1 X58.686 Y108.716 E8924.29 F2000
G1 X59.052 Y109.082 F2000
G1 X53.358 Y118.944 E8934.54 F2000
G1 X53.724 Y119.31 F2000
G1 X59.418 Y109.448 E8944.79 F2000
G1 X59.7841 Y109.814 F2000
G1 X54.09 Y119.676 E8955.04 F2000
G1 X54.4561 Y120.042 F2000
G1 X60.1501 Y110.18 E8965.29 F2000
G1 X60.5161 Y110.546 F2000
G1 X54.8221 Y120.408 E8975.54 F2000
G1 X55.0345 Y120.62 F2000
G1 X55.1357 Y120.865 F2000
G1 X60.8821 Y110.912 E8985.88 F2000
G1 X61.2482 Y111.278 F2000
G1 X55.1918 Y121.768 E8996.78 F2000
G1 X55.5578 Y122.134 F2000
G1 X61.6142 Y111.644 E9007.68 F2000
G1 X61.9802 Y112.01 F2000
G1 X55.9239 Y122.5 E9018.58 F2000
G1 X56.2899 Y122.866 F2000
G1 X62.3462 Y112.376 E9029.48 F2000
G1 X62.7123 Y112.742 F2000
G1 X56.6559 Y123.232 E9040.39 F2000
G1 X57.0219 Y123.598 F2000
G1 X63.0783 Y113.108 E9051.29 F2000
G1 X63.4443 Y113.474 F2000
G1 X57.388 Y123.964 E9062.19 F2000
G1 X57.754 Y124.33 F2000
G1 X63.8103 Y113.84 E9073.09 F2000
G1 X64.1764 Y114.206 F2000
G1 X58.12 Y124.696 E9083.99 F2000
G1 X58.486 Y125.062 F2000
G1 X64.5424 Y114.572 E9094.89 F2000
G1 X64.9084 Y114.938 F2000
G1 X58.8521 Y125.428 E9105.79 F2000
G1 X59.2181 Y125.794 F2000
G1 X65.2744 Y115.304 E9116.7 F2000
G1 X65.6405 Y115.67 F2000
G1 X59.5841 Y126.16 E9127.6 F2000
G1 X59.9501 Y126.526 F2000
G1 X66.0065 Y116.036 E9138.5 F2000
G1 X66.3725 Y116.402 F2000
G1 X60.3162 Y126.892 E9149.4 F2000
G1 X60.6822 Y127.258 F2000
G1 X66.7385 Y116.768 E9160.3 F2000
G1 X67.1046 Y117.134 F2000
G1 X61.0482 Y127.624 E9171.2 F2000
G1 X61.4312 Y127.961 F2000
G1 X67.4706 Y117.5 E9182.07 F2000
G1 X67.8366 Y117.866 F2000
G1 X62.0755 Y127.845 E9192.44 F2000
G1 X62.5086 Y128.095 F2000
G1 X68.2027 Y118.232 E9202.69 F2000
G1 X68.5687 Y118.598 F2000
G1 X62.8747 Y128.461 E9212.94 F2000
G1 X63.2407 Y128.827 F2000
G1 X68.9347 Y118.964 E9223.19 F2000
G1 X69.3007 Y119.33 F2000
G1 X63.6067 Y129.193 E9233.44 F2000
G1 X63.9727 Y129.559 F2000
G1 X69.6668 Y119.696 E9243.69 F2000
G1 X70.0328 Y120.062 F2000
G1 X64.3388 Y129.925 E9253.94 F2000
G1 X64.7048 Y130.291 F2000
G1 X70.3988 Y120.428 E9264.19 F2000
G1 X70.7648 Y120.794 F2000
G1 X65.0708 Y130.657 E9274.44 F2000
G1 X65.4368 Y131.023 F2000
G1 X71.1309 Y121.16 E9284.68 F2000
G1 X71.4969 Y121.526 F2000
G1 X65.8029 Y131.389 E9294.93 F2000
G1 X66.1689 Y131.755 F2000
G1 X71.8629 Y121.892 E9305.18 F2000
G1 X72.2289 Y122.258 F2000
G1 X66.5349 Y132.121 E9315.43 F2000
G1 X66.9009 Y132.487 F2000
G1 X72.595 Y122.625 E9325.68 F2000
G1 X72.961 Y122.991 F2000
G1 X67.267 Y132.853 E9335.93 F2000
G1 X67.633 Y133.219 F2000
G1 X73.327 Y123.357 E9346.18 F2000
G1 X73.693 Y123.723 F2000
G1 X67.999 Y133.585 E9356.43 F2000
G1 X68.365 Y133.951 F2000
G1 X74.0591 Y124.089 E9366.68 F2000
G1 X74.4251 Y124.455 F2000
G1 X68.7311 Y134.317 E9376.93 F2000
G1 X69.0971 Y134.683 F2000
G1 X74.7911 Y124.821 E9387.17 F2000
G1 X75.1571 Y125.187 F2000
G1 X69.4631 Y135.049 E9397.42 F2000
G1 X69.8291 Y135.415 F2000
G1 X75.5232 Y125.553 E9407.67 F2000
G1 X75.8892 Y125.919 F2000
G1 X70.1952 Y135.781 E9417.92 F2000
G1 X70.5612 Y136.147 F2000
G1 X76.2552 Y126.285 E9428.17 F2000
G1 X76.6212 Y126.651 F2000
G1 X70.9272 Y136.513 E9438.42 F2000
G1 X71.2932 Y136.879 F2000
G1 X76.9873 Y127.017 E9448.67 F2000
G1 X77.3533 Y127.383 F2000
G1 X71.6593 Y137.245 E9458.92 F2000
G1 X72.0253 Y137.611 F2000
G1 X77.7193 Y127.749 E9469.17 F2000
G1 X78.0853 Y128.115 F2000
G1 X75.0637 Y133.348 E9474.61 F2000
G1 X74.6647 Y133.747 F2000
G1 X74.5176 Y134.103 E9474.95 F2000
G1 X74.0924 Y135.856 E9476.57 F2000
G1 X74.1607 Y136.234 E9476.92 F2000
G1 X74.7507 Y137.938 E9478.54 F2000
G1 X75.0127 Y138.22 E9478.89 F2000
G1 X76.4305 Y139.335 E9480.51 F2000
G1 X76.8031 Y139.43 E9480.86 F2000
G1 X78.5986 Y139.601 E9482.48 F2000
G1 X78.9634 Y139.48 E9482.83 F2000
G1 X80.5665 Y138.653 E9484.45 F2000
G1 X80.8078 Y138.354 E9484.79 F2000
G1 X81.7095 Y136.792 E9486.42 F2000
G1 X81.7506 Y136.409 E9486.76 F2000
G1 X81.6648 Y134.608 E9488.39 F2000
G1 X81.4926 Y134.264 E9488.73 F2000
G1 X80.4464 Y132.795 E9490.36 F2000
G1 X80.1156 Y132.599 E9490.7 F2000
G1 X78.4412 Y131.928 E9492.32 F2000
G1 X78.0569 Y131.942 E9492.67 F2000
G1 X76.2859 Y132.283 E9494.29 F2000
G1 X75.97 Y132.503 E9494.64 F2000
G1 X74.6647 Y133.747 E9496.26 F2000
G1 X74.3803 Y134.532 F2000
G1 X72.3913 Y137.977 E9499.84 F2000
G1 X72.7573 Y138.343 F2000
G1 X74.1165 Y135.989 E9502.29 F2000
G1 X74.2867 Y136.694 F2000
G1 X73.1234 Y138.709 E9504.38 F2000
G1 X73.4894 Y139.075 F2000
G1 X74.5133 Y137.302 E9506.22 F2000
G1 X74.7399 Y137.909 F2000
G1 X73.8554 Y139.441 E9507.82 F2000
G1 X74.2215 Y139.807 F2000
G1 X75.0786 Y138.323 E9509.36 F2000
G1 X75.4818 Y138.624 F2000
G1 X74.5875 Y140.173 E9510.97 F2000
G1 X74.9535 Y140.539 F2000
G1 X75.8849 Y138.926 E9512.65 F2000
G1 X76.288 Y139.228 F2000
G1 X75.3195 Y140.905 E9514.39 F2000
G1 X75.6855 Y141.271 F2000
G1 X76.7558 Y139.418 E9516.32 F2000
G1 X77.2817 Y139.507 F2000
G1 X76.0516 Y141.637 E9518.53 F2000
G1 X76.4176 Y142.004 F2000
G1 X77.8361 Y139.547 E9521.08 F2000
G1 X78.3906 Y139.586 F2000
G1 X76.7836 Y142.37 E9523.98 F2000
G1 X77.1497 Y142.736 F2000
G1 X79.0187 Y139.498 E9527.34 F2000
G1 X79.8618 Y139.038 F2000
G1 X77.5157 Y143.102 E9531.56 F2000
G1 X77.8817 Y143.468 F2000
G1 X80.8279 Y138.365 E9536.87 F2000
G1 X81.2475 Y137.638 F2000
G1 X83.5757 Y133.605 E9541.06 F2000
G1 X83.9417 Y133.971 F2000
G1 X78.2477 Y143.834 E9551.3 F2000
G1 X78.6138 Y144.2 F2000
G1 X84.3078 Y134.337 E9561.55 F2000
G1 X84.6738 Y134.703 F2000
G1 X78.9798 Y144.566 E9571.8 F2000
G1 X79.3458 Y144.932 F2000
G1 X85.0398 Y135.069 E9582.05 F2000
G1 X85.4058 Y135.435 F2000
G1 X79.7118 Y145.298 E9592.3 F2000
G1 X80.0779 Y145.664 F2000
G1 X85.7719 Y135.801 E9602.55 F2000
G1 X86.1379 Y136.167 F2000
G1 X80.4439 Y146.03 E9612.8 F2000
G1 X80.8099 Y146.396 F2000
G1 X86.5039 Y136.533 E9623.05 F2000
G1 X86.8699 Y136.9 F2000
G1 X81.1759 Y146.762 E9633.3 F2000
G1 X81.542 Y147.128 F2000
G1 X87.236 Y137.266 E9643.55 F2000
G1 X87.602 Y137.632 F2000
G1 X82.6258 Y146.251 E9652.5 F2000
G1 X83.9918 Y144.885 F2000
G1 X87.968 Y137.998 E9659.66 F2000
G1 X88.334 Y138.364 F2000
G1 X85.3578 Y143.519 E9665.02 F2000
G1 X86.7239 Y142.153 F2000
G1 X88.7001 Y138.73 E9668.58 F2000
G1 X89.0661 Y139.096 F2000
G1 X88.0899 Y140.787 E9670.33 F2000
G1 X94.4309 Y138.804 F2000
G1 X100.125 Y128.941 E9680.58 F2000
G1 X100.491 Y129.307 F2000
G1 X94.7969 Y139.17 E9690.83 F2000
G1 X95.1629 Y139.536 F2000
G1 X100.857 Y129.673 E9701.08 F2000
G1 X101.223 Y130.039 F2000
G1 X95.529 Y139.902 E9711.33 F2000
G1 X95.895 Y140.268 F2000
G1 X101.589 Y130.405 E9721.58 F2000
G1 X101.955 Y130.771 F2000
G1 X96.261 Y140.634 E9731.83 F2000
G1 X96.627 Y141 F2000
G1 X102.321 Y131.137 E9742.08 F2000
G1 X102.687 Y131.503 F2000
G1 X96.9931 Y141.366 E9752.32 F2000
G1 X97.3591 Y141.732 F2000
G1 X103.053 Y131.869 E9762.57 F2000
G1 X103.419 Y132.235 F2000
G1 X97.7251 Y142.098 E9772.82 F2000
G1 X98.5895 Y141.601 F2000
G1 X103.785 Y132.602 E9782.17 F2000
G1 X104.151 Y132.968 F2000
G1 X99.9556 Y140.235 E9789.73 F2000
G1 X101.322 Y138.869 F2000
G1 X104.517 Y133.334 E9795.48 F2000
G1 X104.883 Y133.7 F2000
G1 X102.688 Y137.502 E9799.43 F2000
G1 X104.054 Y136.136 F2000
G1 X105.249 Y134.066 E9801.58 F2000
G1 X105.615 Y134.432 F2000
G1 X105.42 Y134.77 E9801.94 F2000
G1 X83.2097 Y133.239 F2000
G1 X81.7479 Y135.771 E9804.57 F2000
G1 X81.6843 Y134.881 F2000
G1 X82.8437 Y132.873 E9806.65 F2000
G1 X82.4776 Y132.507 F2000
G1 X81.4994 Y134.202 E9808.41 F2000
G1 X81.1735 Y133.766 F2000
G1 X82.1116 Y132.141 E9810.1 F2000
G1 X81.7456 Y131.775 F2000
G1 X80.8475 Y133.331 E9811.72 F2000
G1 X80.5216 Y132.895 F2000
G1 X81.3796 Y131.409 E9813.26 F2000
G1 X81.0135 Y131.043 F2000
G1 X80.1159 Y132.598 E9814.88 F2000
G1 X79.6622 Y132.384 F2000
G1 X80.6475 Y130.677 E9816.65 F2000
G1 X80.2815 Y130.311 F2000
G1 X79.1871 Y132.207 E9818.62 F2000
G1 X78.7121 Y132.029 F2000
G1 X79.9155 Y129.945 E9820.79 F2000
G1 X79.5494 Y129.579 F2000
G1 X78.1878 Y131.937 E9823.24 F2000
G1 X77.5722 Y132.004 F2000
G1 X79.1834 Y129.213 E9826.14 F2000
G1 X78.8174 Y128.847 F2000
G1 X76.912 Y132.147 E9829.57 F2000
G1 X76.2359 Y132.318 F2000
G1 X78.4514 Y128.481 E9833.56 F2000
G1 X72.0457 Y111.576 F2000
G1 X75.9672 Y104.784 E9840.62 F2000
G1 X76.3333 Y105.15 F2000
G1 X73.4117 Y110.21 E9845.87 F2000
G1 X74.7777 Y108.844 F2000
G1 X76.6993 Y105.516 E9849.33 F2000
G1 X77.0653 Y105.882 F2000
G1 X76.1438 Y107.478 E9850.99 F2000
G1 X80.231 Y103.391 F2000
G1 X60.9742 Y84.1337 E9875.5 F2000
G1 X60.4792 Y83.9286 E9875.98 F2000
G1 X59.9842 Y84.1337 E9876.47 F2000
G1 X53.6203 Y77.7697 E9884.57 F2000
G1 X61.8934 Y69.4966 E9895.1 F2000
G1 X88.0092 Y95.6124 E9928.34 F2000
G1 X80.231 Y103.391 E9938.24 F2000
G1 X85.9279 Y93.5311 E9948.47 F2000
G1 X86.294 Y93.8971 F2000
G1 X81.6078 Y102.014 E9956.91 F2000
G1 X82.9739 Y100.648 F2000
G1 X86.66 Y94.2632 E9963.54 F2000
G1 X87.026 Y94.6292 F2000
G1 X84.3399 Y99.2817 E9968.38 F2000
G1 X85.7059 Y97.9157 F2000
G1 X87.3921 Y94.9952 E9971.41 F2000
G1 X87.7581 Y95.3612 F2000
G1 X87.072 Y96.5496 E9972.65 F2000
G1 X89.3438 Y98.6147 F2000
G1 X83.8979 Y108.047 E9982.45 F2000
G1 X83.5318 Y107.681 F2000
G1 X87.9777 Y99.9808 E9990.45 F2000
G1 X86.6117 Y101.347 F2000
G1 X83.1658 Y107.315 E9996.66 F2000
G1 X82.7998 Y106.949 F2000
G1 X85.2457 Y102.713 E10001.1 F2000
G1 X83.8797 Y104.079 F2000
G1 X82.4338 Y106.583 E10003.7 F2000
G1 X82.0677 Y106.217 F2000
G1 X82.5137 Y105.445 E10004.5 F2000
G1 X79.8679 Y103.027 F2000
G1 X85.5619 Y93.1651 E10014.7 F2000
G1 X85.1959 Y92.799 F2000
G1 X79.5019 Y102.661 E10025 F2000
G1 X79.1359 Y102.295 F2000
G1 X84.8299 Y92.433 E10035.2 F2000
G1 X84.4639 Y92.067 F2000
G1 X78.7698 Y101.929 E10045.5 F2000
G1 X78.4038 Y101.563 F2000
G1 X84.0978 Y91.701 E10055.7 F2000
G1 X83.7318 Y91.3349 F2000
G1 X78.0378 Y101.197 E10066 F2000
G1 X77.6718 Y100.831 F2000
G1 X83.3658 Y90.9689 E10076.2 F2000
G1 X82.9997 Y90.6029 F2000
G1 X77.3057 Y100.465 E10086.5 F2000
G1 X76.9397 Y100.099 F2000
G1 X82.6337 Y90.2369 E10096.7 F2000
G1 X82.2677 Y89.8708 F2000
G1 X76.5737 Y99.7332 E10107 F2000
G1 X76.2076 Y99.3671 F2000
G1 X78.6922 Y95.0637 E10111.4 F2000
G1 X79.1523 Y94.8125 F2000
G1 X79.3936 Y94.5131 E10111.8 F2000
G1 X80.2953 Y92.9511 E10113.4 F2000
G1 X80.3364 Y92.5687 E10113.7 F2000
G1 X80.2505 Y90.7672 E10115.4 F2000
G1 X80.0784 Y90.4233 E10115.7 F2000
G1 X79.0322 Y88.9542 E10117.3 F2000
G1 X78.7014 Y88.7579 E10117.7 F2000
G1 X77.027 Y88.0877 E10119.3 F2000
G1 X76.6427 Y88.1014 E10119.6 F2000
G1 X74.8717 Y88.4428 E10121.3 F2000
G1 X74.5558 Y88.6621 E10121.6 F2000
G1 X73.2505 Y89.9068 E10123.2 F2000
G1 X73.1034 Y90.2621 E10123.6 F2000
G1 X72.6782 Y92.0149 E10125.2 F2000
G1 X72.7465 Y92.3933 E10125.6 F2000
G1 X73.3365 Y94.0977 E10127.2 F2000
G1 X73.5985 Y94.3792 E10127.5 F2000
G1 X75.0163 Y95.494 E10129.1 F2000
G1 X75.3889 Y95.5891 E10129.5 F2000
G1 X77.1843 Y95.7605 E10131.1 F2000
G1 X77.5492 Y95.6391 E10131.5 F2000
G1 X79.1523 Y94.8125 E10133.1 F2000
G1 X77.8491 Y95.5241 F2000
G1 X75.8416 Y99.0011 E10136.7 F2000
G1 X75.4756 Y98.6351 F2000
G1 X77.1372 Y95.7571 E10139.7 F2000
G1 X76.5827 Y95.7175 F2000
G1 X75.1096 Y98.2691 E10142.3 F2000
G1 X74.7435 Y97.9031 F2000
G1 X76.0283 Y95.6778 E10144.7 F2000
G1 X75.4738 Y95.6382 F2000
G1 X74.3775 Y97.537 E10146.6 F2000
G1 X74.0115 Y97.171 F2000
G1 X74.9908 Y95.4749 E10148.4 F2000
G1 X74.5876 Y95.1731 F2000
G1 X73.6455 Y96.805 E10150.1 F2000
G1 X73.2794 Y96.439 F2000
G1 X74.1845 Y94.8713 E10151.7 F2000
G1 X73.7814 Y94.5696 F2000
G1 X72.9134 Y96.0729 E10153.3 F2000
G1 X72.5474 Y95.7069 F2000
G1 X73.4229 Y94.1905 E10154.9 F2000
G1 X73.1648 Y93.6375 F2000
G1 X72.1814 Y95.3409 E10156.6 F2000
G1 X71.8153 Y94.9748 F2000
G1 X72.9382 Y93.03 E10158.6 F2000
G1 X72.7116 Y92.4224 F2000
G1 X71.4493 Y94.6088 E10160.9 F2000
G1 X71.0833 Y94.2428 F2000
G1 X72.8648 Y91.1571 E10164.1 F2000
G1 X72.7422 Y92.3695 F2000
G1 X70.7173 Y93.8768 F2000
G1 X76.4113 Y84.0144 E10174.4 F2000
G1 X76.7773 Y84.3805 F2000
G1 X74.0458 Y89.1115 E10179.3 F2000
G1 X75.029 Y88.4086 F2000
G1 X77.1433 Y84.7465 E10183.1 F2000
G1 X77.5094 Y85.1125 F2000
G1 X75.6893 Y88.265 E10186.4 F2000
G1 X76.3496 Y88.1213 F2000
G1 X77.8754 Y85.4785 E10189.1 F2000
G1 X78.2414 Y85.8446 F2000
G1 X76.9446 Y88.0906 E10191.5 F2000
G1 X77.4357 Y88.2401 F2000
G1 X78.6074 Y86.2106 E10193.6 F2000
G1 X78.9735 Y86.5766 F2000
G1 X77.9107 Y88.4173 E10195.5 F2000
G1 X78.3858 Y88.5945 F2000
G1 X79.3395 Y86.9426 E10197.2 F2000
G1 X79.7055 Y87.3087 F2000
G1 X78.8261 Y88.8319 E10198.8 F2000
G1 X79.2019 Y89.181 F2000
G1 X80.0715 Y87.6747 E10200.3 F2000
G1 X80.4376 Y88.0407 F2000
G1 X79.5279 Y89.6164 E10202 F2000
G1 X79.8538 Y90.0518 F2000
G1 X80.8036 Y88.4067 E10203.7 F2000
G1 X81.1696 Y88.7728 F2000
G1 X80.1426 Y90.5516 E10205.5 F2000
G1 X80.2886 Y91.2988 F2000
G1 X81.5356 Y89.1388 E10207.8 F2000
G1 X81.9017 Y89.5048 F2000
G1 X80.3522 Y92.1886 E10210.6 F2000
G1 X85.4363 Y87.3826 F2000
G1 X86.7654 Y85.0805 E10213 F2000
G1 X87.3199 Y85.1202 F2000
G1 X85.8023 Y87.7487 E10215.7 F2000
G1 X86.1684 Y88.1147 F2000
G1 X87.8984 Y85.1181 E10218.8 F2000
G1 X87.791 Y85.1539 F2000
G1 X85.9925 Y85.0253 E10220.4 F2000
G1 X85.6229 Y84.8874 E10220.8 F2000
G1 X84.1795 Y83.8069 E10222.4 F2000
G1 X83.9431 Y83.4911 E10222.7 F2000
G1 X83.313 Y81.8017 E10224.4 F2000
G1 X83.2848 Y81.4083 E10224.7 F2000
G1 X83.6681 Y79.6464 E10226.3 F2000
G1 X83.8571 Y79.3002 E10226.7 F2000
G1 X85.1321 Y78.0253 E10228.3 F2000
G1 X85.4783 Y77.8362 E10228.7 F2000
G1 X87.2402 Y77.453 E10230.3 F2000
G1 X87.6336 Y77.4811 E10230.6 F2000
G1 X89.323 Y78.1112 E10232.2 F2000
G1 X89.6387 Y78.3476 E10232.6 F2000
G1 X90.7193 Y79.791 E10234.2 F2000
G1 X90.8571 Y80.1606 E10234.6 F2000
G1 X90.9858 Y81.9591 E10236.2 F2000
G1 X90.9019 Y82.3445 E10236.5 F2000
G1 X90.0378 Y83.927 E10238.1 F2000
G1 X89.7589 Y84.2059 E10238.5 F2000
G1 X88.1764 Y85.07 E10240.1 F2000
G1 X87.791 Y85.1539 E10240.5 F2000
G1 X88.6542 Y84.8091 F2000
G1 X86.5344 Y88.4807 E10244.3 F2000
G1 X86.9004 Y88.8467 F2000
G1 X89.4973 Y84.3487 E10249 F2000
G1 X90.9738 Y81.7915 F2000
G1 X92.5945 Y78.9844 E10251.9 F2000
G1 X92.9605 Y79.3504 F2000
G1 X87.2664 Y89.2128 E10262.1 F2000
G1 X87.6325 Y89.5788 F2000
G1 X93.3265 Y79.7164 E10272.4 F2000
G1 X93.6925 Y80.0825 F2000
G1 X87.9985 Y89.9448 E10282.6 F2000
G1 X88.3645 Y90.3108 F2000
G1 X94.0585 Y80.4485 E10292.9 F2000
G1 X94.4246 Y80.8145 F2000
G1 X88.7305 Y90.6769 E10303.1 F2000
G1 X89.0966 Y91.0429 F2000
G1 X94.7906 Y81.1805 E10313.4 F2000
G1 X95.1566 Y81.5466 F2000
G1 X89.4626 Y91.4089 E10323.6 F2000
G1 X89.8286 Y91.7749 F2000
G1 X95.5226 Y81.9126 E10333.9 F2000
G1 X95.8887 Y82.2786 F2000
G1 X90.1947 Y92.141 E10344.1 F2000
G1 X90.5607 Y92.507 F2000
G1 X96.2547 Y82.6446 E10354.4 F2000
G1 X96.6207 Y83.0107 F2000
G1 X91.17 Y92.4515 E10364.2 F2000
G1 X90.8376 Y92.7839 F2000
G1 X71.5808 Y73.5271 E10388.7 F2000
G1 X71.0858 Y73.322 E10389.2 F2000
G1 X70.5908 Y73.5271 E10389.6 F2000
G1 X64.2268 Y67.1631 E10397.7 F2000
G1 X72.5 Y58.8899 E10408.3 F2000
G1 X98.6158 Y85.0058 E10441.5 F2000
G1 X90.8376 Y92.7839 E10451.4 F2000
G1 X92.5361 Y91.0855 F2000
G1 X96.9868 Y83.3767 E10459.4 F2000
G1 X97.3528 Y83.7427 F2000
G1 X93.9021 Y89.7195 E10465.6 F2000
G1 X95.2681 Y88.3535 F2000
G1 X97.7188 Y84.1087 E10470.1 F2000
G1 X98.0848 Y84.4748 F2000
G1 X96.6341 Y86.9874 E10472.7 F2000
G1 X98.0002 Y85.6214 F2000
G1 X98.4509 Y84.8408 E10473.5 F2000
G1 X90.9101 Y80.9017 F2000
G1 X92.2284 Y78.6184 E10475.8 F2000
G1 X91.8624 Y78.2523 F2000
G1 X90.8123 Y80.0711 E10477.7 F2000
G1 X90.5372 Y79.5477 F2000
G1 X91.4964 Y77.8863 E10479.5 F2000
G1 X91.1303 Y77.5203 F2000
G1 X90.2112 Y79.1123 E10481.1 F2000
G1 X89.8852 Y78.6769 F2000
G1 X90.7643 Y77.1543 E10482.7 F2000
G1 X90.3983 Y76.7882 F2000
G1 X89.5339 Y78.2854 E10484.3 F2000
G1 X89.1042 Y78.0296 F2000
G1 X90.0323 Y76.4222 E10485.9 F2000
G1 X89.6662 Y76.0562 F2000
G1 X88.6292 Y77.8524 E10487.8 F2000
G1 X88.1541 Y77.6753 F2000
G1 X89.3002 Y75.6902 E10489.9 F2000
G1 X88.9342 Y75.3241 F2000
G1 X87.6791 Y77.4981 E10492.1 F2000
G1 X87.1116 Y77.4809 F2000
G1 X88.5682 Y74.9581 E10494.7 F2000
G1 X88.2021 Y74.5921 F2000
G1 X86.4513 Y77.6246 E10497.9 F2000
G1 X85.7911 Y77.7682 F2000
G1 X87.8361 Y74.2261 E10501.6 F2000
G1 X87.4701 Y73.86 F2000
G1 X84.974 Y78.1833 E10506.1 F2000
G1 X83.3893 Y80.9283 F2000
G1 X81.7761 Y83.7224 E10509 F2000
G1 X82.1421 Y84.0884 F2000
G1 X83.3716 Y81.9589 E10511.2 F2000
G1 X83.5982 Y82.5664 F2000
G1 X82.5081 Y84.4544 E10513.1 F2000
G1 X82.8741 Y84.8204 F2000
G1 X83.8248 Y83.1739 E10514.9 F2000
G1 X84.1134 Y83.674 F2000
G1 X83.2402 Y85.1865 E10516.4 F2000
G1 X83.6062 Y85.5525 F2000
G1 X84.4829 Y84.034 E10518 F2000
G1 X84.886 Y84.3358 F2000
G1 X83.9722 Y85.9185 E10519.6 F2000
G1 X84.3382 Y86.2845 F2000
G1 X85.2891 Y84.6376 E10521.4 F2000
G1 X85.7095 Y84.9095 F2000
G1 X84.7043 Y86.6506 E10523.2 F2000
G1 X85.0703 Y87.0166 F2000
G1 X86.211 Y85.0409 E10525.2 F2000
G1 X81.41 Y83.3563 F2000
G1 X87.1041 Y73.494 E10535.5 F2000
G1 X86.738 Y73.128 F2000
G1 X81.044 Y82.9903 E10545.7 F2000
G1 X80.678 Y82.6243 F2000
G1 X86.372 Y72.762 E10556 F2000
G1 X86.006 Y72.3959 F2000
G1 X80.312 Y82.2583 E10566.2 F2000
G1 X79.9459 Y81.8923 F2000
G1 X85.64 Y72.0299 E10576.5 F2000
G1 X85.2739 Y71.6639 F2000
G1 X79.5799 Y81.5262 E10586.7 F2000
G1 X79.2139 Y81.1602 F2000
G1 X84.9079 Y71.2979 E10597 F2000
G1 X84.5419 Y70.9318 F2000
G1 X78.8479 Y80.7942 E10607.2 F2000
G1 X78.4818 Y80.4281 F2000
G1 X84.1759 Y70.5658 E10617.5 F2000
G1 X83.8098 Y70.1998 F2000
G1 X78.1158 Y80.0621 E10627.7 F2000
G1 X77.7498 Y79.6961 F2000
G1 X83.4438 Y69.8338 E10638 F2000
G1 X83.0778 Y69.4677 F2000
G1 X77.3838 Y79.3301 E10648.2 F2000
G1 X77.0177 Y78.964 F2000
G1 X82.7118 Y69.1017 E10658.5 F2000
G1 X82.3457 Y68.7357 F2000
G1 X76.6517 Y78.598 E10668.7 F2000
G1 X76.2857 Y78.232 F2000
G1 X81.9797 Y68.3697 E10679 F2000
G1 X81.6137 Y68.0036 F2000
G1 X75.9197 Y77.866 E10689.2 F2000
G1 X75.5536 Y77.4999 F2000
G1 X81.2477 Y67.6376 E10699.5 F2000
G1 X80.8816 Y67.2716 F2000
G1 X75.1876 Y77.1339 E10709.7 F2000
G1 X74.8216 Y76.7679 F2000
G1 X80.5156 Y66.9056 E10720 F2000
G1 X80.1496 Y66.5395 F2000
G1 X74.4556 Y76.4019 E10730.2 F2000
G1 X74.0895 Y76.0358 F2000
G1 X79.7836 Y66.1735 E10740.4 F2000
G1 X79.4175 Y65.8075 F2000
G1 X73.7235 Y75.6698 E10750.7 F2000
G1 X73.3575 Y75.3038 F2000
G1 X79.0515 Y65.4415 E10760.9 F2000
G1 X78.6855 Y65.0754 F2000
G1 X72.9915 Y74.9378 E10771.2 F2000
G1 X72.6254 Y74.5717 F2000
G1 X78.3195 Y64.7094 E10781.4 F2000
G1 X77.9534 Y64.3434 F2000
G1 X72.2594 Y74.2057 E10791.7 F2000
G1 X71.8934 Y73.8397 F2000
G1 X77.5874 Y63.9774 E10801.9 F2000
G1 X77.2214 Y63.6113 F2000
G1 X71.5128 Y73.4989 E10812.2 F2000
G1 X71.0224 Y73.3483 F2000
G1 X76.8553 Y63.2453 E10822.7 F2000
G1 X76.4893 Y62.8793 F2000
G1 X70.433 Y73.3692 E10833.6 F2000
G1 X70.0669 Y73.0032 F2000
G1 X76.1233 Y62.5132 E10844.5 F2000
G1 X75.7573 Y62.1472 F2000
G1 X69.7009 Y72.6372 E10855.4 F2000
G1 X69.3349 Y72.2711 F2000
G1 X75.3913 Y61.7812 E10866.3 F2000
G1 X75.0252 Y61.4152 F2000
G1 X68.9689 Y71.9051 E10877.2 F2000
G1 X68.6028 Y71.5391 F2000
G1 X74.6592 Y61.0492 E10888.1 F2000
G1 X74.2932 Y60.6831 F2000
G1 X68.2368 Y71.1731 E10899 F2000
G1 X67.8708 Y70.807 F2000
G1 X73.9272 Y60.3171 E10909.9 F2000
G1 X73.5611 Y59.9511 F2000
G1 X67.5048 Y70.441 E10920.8 F2000
G1 X67.1387 Y70.075 F2000
G1 X73.1951 Y59.5851 E10931.7 F2000
G1 X72.8291 Y59.219 F2000
G1 X66.7727 Y69.709 E10942.6 F2000
G1 X66.4067 Y69.3429 F2000
G1 X72.3621 Y59.0279 E10953.4 F2000
G1 X70.9961 Y60.3939 F2000
G1 X66.0406 Y68.9769 E10962.3 F2000
G1 X65.6746 Y68.6109 F2000
G1 X69.63 Y61.7599 E10969.4 F2000
G1 X68.264 Y63.1259 F2000
G1 X65.3086 Y68.2449 E10974.7 F2000
G1 X64.9426 Y67.8788 F2000
G1 X66.898 Y64.492 E10978.2 F2000
G1 X65.532 Y65.858 F2000
G1 X64.5766 Y67.5128 E10980 F2000
G1 X62.1363 Y69.7394 F2000
G1 X56.0799 Y80.2294 E10990.9 F2000
G1 X55.7139 Y79.8634 F2000
G1 X61.4339 Y69.9561 E11001.1 F2000
G1 X62.5023 Y70.1055 F2000
G1 X56.446 Y80.5954 E11012 F2000
G1 X56.812 Y80.9614 F2000
G1 X62.8684 Y70.4715 E11023 F2000
G1 X63.2344 Y70.8375 F2000
G1 X57.178 Y81.3275 E11033.9 F2000
G1 X57.544 Y81.6935 F2000
G1 X63.6004 Y71.2036 E11044.8 F2000
G1 X63.9664 Y71.5696 F2000
G1 X57.9101 Y82.0595 E11055.7 F2000
G1 X58.2761 Y82.4255 F2000
G1 X64.3325 Y71.9356 E11066.6 F2000
G1 X64.6985 Y72.3016 F2000
G1 X58.6421 Y82.7916 E11077.5 F2000
G1 X59.0081 Y83.1576 F2000
G1 X65.0645 Y72.6676 E11088.4 F2000
G1 X65.4305 Y73.0337 F2000
G1 X59.3742 Y83.5236 E11099.3 F2000
G1 X59.7402 Y83.8896 F2000
G1 X65.7966 Y73.3997 E11110.2 F2000
G1 X66.1626 Y73.7657 F2000
G1 X60.2371 Y84.0289 E11120.8 F2000
G1 X60.7965 Y84.0601 F2000
G1 X66.5286 Y74.1317 E11131.1 F2000
G1 X66.8946 Y74.4978 F2000
G1 X61.2006 Y84.3601 E11141.4 F2000
G1 X61.5666 Y84.7261 F2000
G1 X67.2607 Y74.8638 E11151.6 F2000
G1 X67.6267 Y75.2298 F2000
G1 X61.9327 Y85.0922 E11161.9 F2000
G1 X62.2987 Y85.4582 F2000
G1 X67.9927 Y75.5959 E11172.1 F2000
G1 X68.3587 Y75.9619 F2000
G1 X62.6647 Y85.8242 E11182.4 F2000
G1 X63.0307 Y86.1902 F2000
G1 X68.7248 Y76.3279 E11192.6 F2000
G1 X69.0908 Y76.6939 F2000
G1 X63.3968 Y86.5563 E11202.9 F2000
G1 X63.7628 Y86.9223 F2000
G1 X69.4568 Y77.06 E11213.1 F2000
G1 X69.8228 Y77.426 F2000
G1 X64.1288 Y87.2883 E11223.4 F2000
G1 X64.4948 Y87.6544 F2000
G1 X70.1889 Y77.792 E11233.6 F2000
G1 X70.5549 Y78.158 F2000
G1 X64.8609 Y88.0204 E11243.9 F2000
G1 X65.2269 Y88.3864 F2000
G1 X70.9209 Y78.5241 E11254.1 F2000
G1 X71.2869 Y78.8901 F2000
G1 X65.5929 Y88.7524 E11264.4 F2000
G1 X65.9589 Y89.1184 F2000
G1 X71.653 Y79.2561 E11274.6 F2000
G1 X72.019 Y79.6221 F2000
G1 X66.325 Y89.4845 E11284.9 F2000
G1 X66.691 Y89.8505 F2000
G1 X72.385 Y79.9882 E11295.1 F2000
G1 X72.751 Y80.3542 F2000
G1 X67.057 Y90.2165 E11305.4 F2000
G1 X67.423 Y90.5825 F2000
G1 X73.1171 Y80.7202 E11315.6 F2000
G1 X73.4831 Y81.0862 F2000
G1 X67.7891 Y90.9486 E11325.9 F2000
G1 X68.1551 Y91.3146 F2000
G1 X73.8491 Y81.4523 E11336.1 F2000
G1 X74.2151 Y81.8183 F2000
G1 X68.5211 Y91.6806 E11346.4 F2000
G1 X68.8871 Y92.0466 F2000
G1 X74.5812 Y82.1843 E11356.6 F2000
G1 X74.9472 Y82.5503 F2000
G1 X69.2532 Y92.4127 E11366.9 F2000
G1 X69.6192 Y92.7787 F2000
G1 X75.3132 Y82.9164 E11377.1 F2000
G1 X75.6792 Y83.2824 F2000
G1 X69.9852 Y93.1447 E11387.4 F2000
G1 X70.3512 Y93.5107 F2000
G1 X76.0453 Y83.6484 E11397.6 F2000
G1 X66.4506 Y95.2669 F2000
G1 X64.267 Y99.049 E11401.6 F2000
G1 X64.9272 Y98.9054 F2000
G1 X66.8166 Y95.6329 E11405 F2000
G1 X67.1826 Y95.999 F2000
G1 X65.5875 Y98.7617 E11407.8 F2000
G1 X66.1993 Y98.7022 F2000
G1 X67.5486 Y96.365 E11410.3 F2000
G1 X67.9147 Y96.731 F2000
G1 X66.7172 Y98.805 E11412.4 F2000
G1 X67.1923 Y98.9822 F2000
G1 X68.2807 Y97.097 E11414.4 F2000
G1 X68.6467 Y97.4631 F2000
G1 X67.6673 Y99.1594 E11416.1 F2000
G1 X68.1182 Y99.3784 F2000
G1 X69.0127 Y97.8291 E11417.7 F2000
G1 X69.3788 Y98.1951 F2000
G1 X68.5186 Y99.685 E11419.3 F2000
G1 X68.8445 Y100.12 F2000
G1 X69.7448 Y98.5611 E11420.9 F2000
G1 X70.1108 Y98.9272 F2000
G1 X69.1705 Y100.556 E11422.6 F2000
G1 X69.4964 Y100.991 F2000
G1 X70.4768 Y99.2932 E11424.4 F2000
G1 X70.8429 Y99.6592 F2000
G1 X69.667 Y101.696 E11426.5 F2000
G1 X69.4729 Y101.032 F2000
G1 X69.7306 Y102.586 F2000
G1 X71.2089 Y100.025 E11429.1 F2000
G1 X55.3479 Y79.4973 F2000
G1 X60.0679 Y71.3221 E11437.6 F2000
G1 X58.7018 Y72.6881 F2000
G1 X54.9819 Y79.1313 E11444.3 F2000
G1 X54.6158 Y78.7653 F2000
G1 X57.3358 Y74.0541 E11449.2 F2000
G1 X55.9698 Y75.4202 F2000
G1 X54.2498 Y78.3993 E11452.3 F2000
G1 X53.8838 Y78.0332 F2000
G1 X54.6038 Y76.7862 E11453.6 F2000
G1 X112.884 Y106.842 F2000
G1 X115.654 Y102.044 E11458.6 F2000
G1 X116.02 Y102.41 F2000
G1 X113.894 Y106.092 E11462.4 F2000
G1 X114.555 Y105.948 F2000
G1 X116.386 Y102.776 E11465.7 F2000
G1 X116.752 Y103.142 F2000
G1 X115.215 Y105.805 E11468.5 F2000
G1 X115.813 Y105.769 F2000
G1 X117.118 Y103.508 E11470.8 F2000
G1 X117.484 Y103.874 F2000
G1 X116.308 Y105.911 E11473 F2000
G1 X116.783 Y106.088 F2000
G1 X117.85 Y104.24 E11474.9 F2000
G1 X118.216 Y104.606 F2000
G1 X117.258 Y106.265 E11476.6 F2000
G1 F70
G1 Z0.75 F70

G1 X119.88 Y106.27 E11479 F2000
G1 X119.38 Y105.77 F2000
G1 X115.931 E11482.1 F2000
G1 X115.534 Y105.779 E11482.4 F2000
G1 X113.763 Y106.12 E11484 F2000
G1 X113.447 Y106.34 E11484.4 F2000
G1 X112.141 Y107.585 E11486 F2000
G1 X111.994 Y107.94 E11486.3 F2000
G1 X111.569 Y109.693 E11488 F2000
G1 X111.637 Y110.071 E11488.3 F2000
G1 X112.227 Y111.775 E11489.9 F2000
G1 X112.489 Y112.057 E11490.3 F2000
G1 X113.907 Y113.172 E11491.9 F2000
G1 X114.28 Y113.267 E11492.3 F2000
G1 X116.075 Y113.438 E11493.9 F2000
G1 X116.44 Y113.317 E11494.2 F2000
G1 X118.043 Y112.49 E11495.8 F2000
G1 X118.284 Y112.191 E11496.2 F2000
G1 X119.186 Y110.629 E11497.8 F2000
G1 X119.227 Y110.246 E11498.2 F2000
G1 X119.141 Y108.445 E11499.8 F2000
G1 X118.969 Y108.101 E11500.1 F2000
G1 X117.923 Y106.632 E11501.7 F2000
G1 X117.592 Y106.436 E11502.1 F2000
G1 X115.918 Y105.765 E11503.7 F2000
G1 X115.785 Y105.77 F2000
G1 X115.532 E11503.9 F2000
G1 X115.373 F2000
G1 X103.824 E11514.3 F2000
G1 X104.324 Y106.27 F2000
G1 X113.547 E11522.6 F2000
G1 X112.956 Y106.77 F2000
G1 X104.824 E11530 F2000
G1 X105.324 Y107.27 F2000
G1 X112.456 E11536.4 F2000
G1 X112.065 Y107.77 F2000
G1 X105.824 E11542 F2000
G1 X106.324 Y108.27 F2000
G1 X111.879 E11547 F2000
G1 X111.77 Y108.77 F2000
G1 X106.824 E11551.4 F2000
G1 X107.324 Y109.27 F2000
G1 X111.661 E11555.3 F2000
G1 X111.583 Y109.77 F2000
G1 X107.824 E11558.7 F2000
G1 X108.324 Y110.27 F2000
G1 X111.666 E11561.7 F2000
G1 X111.852 Y110.77 F2000
G1 X108.824 E11564.5 F2000
G1 X109.324 Y111.27 F2000
G1 X112.039 E11566.9 F2000
G1 X112.225 Y111.77 F2000
G1 X109.824 E11569.1 F2000
G1 X110.324 Y112.27 F2000
G1 X112.703 E11571.2 F2000
G1 X113.371 Y112.77 F2000
G1 X110.824 E11573.5 F2000
G1 X111.324 Y113.27 F2000
G1 X114.28 E11576.2 F2000
G1 X112.824 Y114.77 F2000
G1 X125.42 Y114.77 E11587.5 F2000
G1 X124.92 Y115.27 F2000
G1 X113.324 Y115.27 E11597.9 F2000
G1 X113.824 Y115.77 F2000
G1 X124.42 Y115.77 E11607.5 F2000
G1 X123.92 Y116.27 F2000
G1 X114.324 Y116.27 E11616.1 F2000
G1 X114.824 Y116.77 F2000
G1 X123.42 Y116.77 E11623.8 F2000
G1 X122.92 Y117.27 F2000
G1 X115.324 Y117.27 E11630.7 F2000
G1 X115.824 Y117.77 F2000
G1 X122.42 Y117.77 E11636.6 F2000
G1 X121.92 Y118.27 F2000
G1 X116.324 Y118.27 E11641.7 F2000
G1 X116.824 Y118.77 F2000
G1 X121.42 E11645.8 F2000
G1 X120.92 Y119.27 F2000
G1 X117.324 E11649 F2000
G1 X117.824 Y119.77 F2000
G1 X120.42 E11651.4 F2000
G1 X119.92 Y120.27 F2000
G1 X118.324 E11652.8 F2000
G1 X118.824 Y120.77 F2000
G1 X119.42 E11653.3 F2000
G1 X119.122 Y121.068 F2000
G1 X99.865 Y101.811 E11677.8 F2000
G1 X99.3701 Y101.606 E11678.3 F2000
G1 X98.8751 Y101.811 E11678.8 F2000
G1 X92.5111 Y95.4474 E11686.9 F2000
G1 X100.784 Y87.1742 E11697.4 F2000
G1 X126.9 Y113.29 E11730.7 F2000
G1 X119.122 Y121.068 E11740.6 F2000
G1 X116.293 Y123.897 F2000
G1 X90.1777 Y97.7808 E11773.8 F2000
G1 X81.9045 Y106.054 E11784.4 F2000
G1 X88.2685 Y112.418 E11792.5 F2000
G1 X88.7635 Y112.213 E11792.9 F2000
G1 X89.2584 Y112.418 E11793.4 F2000
G1 X108.515 Y131.675 E11817.9 F2000
G1 X116.293 Y123.897 E11827.8 F2000
G1 X116.167 Y123.77 F2000
G1 X106.203 E11836.8 F2000
G1 X105.854 Y123.961 F2000
G1 X107.437 Y123.097 E11838.4 F2000
G1 X107.678 Y122.797 E11838.8 F2000
G1 X108.58 Y121.235 E11840.4 F2000
G1 X108.621 Y120.853 E11840.7 F2000
G1 X108.535 Y119.051 E11842.4 F2000
G1 X108.363 Y118.708 E11842.7 F2000
G1 X107.316 Y117.238 E11844.3 F2000
G1 X106.986 Y117.042 E11844.7 F2000
G1 X105.311 Y116.372 E11846.3 F2000
G1 X104.927 Y116.386 E11846.6 F2000
G1 X103.156 Y116.727 E11848.3 F2000
G1 X102.84 Y116.946 E11848.6 F2000
G1 X101.535 Y118.191 E11850.2 F2000
G1 X101.388 Y118.546 E11850.6 F2000
G1 X100.963 Y120.299 E11852.2 F2000
