; GCode generated by RepSnapper by Kulitorum
G21                              ;metric is good!
G90                              ;absolute positioning
T0                                 ;select new extruder
G28                               ;go home
G92 E0                          ;set extruder home
M104 S230                   ;set temperature
G1 X20 Y20 F500            ;Move away from 0.0, so we use the same reset (in the layer code) for each layer


G1 F70
G1 Z0.15 E0 F70

G1 X80.9994 Y74.7236 F2000
G1 X90.941 Y91.9429 E17.8948 F2000
G1 X92.2965 Y93.2907 F2000
G1 X81.7795 Y75.0747 E36.8254 F2000
G1 X82.5595 Y75.4258 F2000
G1 X92.6625 Y92.9247 E55.0108 F2000
G1 X93.0285 Y92.5587 F2000
G1 X83.2955 Y75.7005 E72.5303 F2000
G1 X83.8534 Y75.6668 F2000
G1 X93.3946 Y92.1926 E89.7044 F2000
G1 X93.7606 Y91.8266 F2000
G1 X84.4112 Y75.633 E106.533 F2000
G1 X84.9691 Y75.5993 F2000
G1 X94.1266 Y91.4606 E123.017 F2000
G1 X94.4926 Y91.0945 F2000
G1 X85.527 Y75.5656 E139.155 F2000
G1 X86.0556 Y75.4811 F2000
G1 X94.8587 Y90.7285 E155.001 F2000
G1 X95.2247 Y90.3625 F2000
G1 X86.4836 Y75.2224 E170.735 F2000
G1 X86.9248 Y74.9866 F2000
G1 X95.5907 Y89.9965 E186.333 F2000
G1 X95.9567 Y89.6304 F2000
G1 X88.2908 Y76.3526 E200.132 F2000
G1 X89.6568 Y77.7187 F2000
G1 X96.3228 Y89.2644 E212.131 F2000
G1 X96.6888 Y88.8984 F2000
G1 X91.0228 Y79.0847 E222.329 F2000
G1 X92.3889 Y80.4507 F2000
G1 X97.0548 Y88.5324 E230.728 F2000
G1 X97.4208 Y88.1663 F2000
G1 X93.7549 Y81.8167 E237.327 F2000
G1 X95.1209 Y83.1827 F2000
G1 X97.7869 Y87.8003 E242.126 F2000
G1 X98.1529 Y87.4343 F2000
G1 X96.4869 Y84.5488 E245.124 F2000
G1 X97.853 Y85.9148 F2000
G1 X98.5189 Y87.0683 E246.323 F2000
G1 X99.6819 Y86.8245 F2000
G1 X92.2926 Y94.2138 E255.728 F2000
G1 X79.6158 Y81.5369 E271.863 F2000
G1 X80.3684 Y80.2919 E273.172 F2000
G1 X80.5169 Y77.8374 E275.385 F2000
G1 X79.5077 Y75.5951 E277.599 F2000
G1 X77.572 Y74.0786 E279.812 F2000
G1 X75.1533 Y73.6354 E282.025 F2000
G1 X72.8057 Y74.3669 E284.238 F2000
G1 X72.6257 Y74.5469 E284.467 F2000
G1 X53.0458 Y54.9669 E309.388 F2000
G1 X53.2257 Y54.787 E309.617 F2000
G1 X53.9573 Y52.4393 E311.83 F2000
G1 X53.514 Y50.0206 E314.043 F2000
G1 X51.9975 Y48.085 E316.256 F2000
G1 X49.7552 Y47.0758 E318.469 F2000
G1 X47.3007 Y47.2243 E320.682 F2000
G1 X46.0557 Y47.9769 E321.992 F2000
G1 X33.3789 Y35.3 E338.127 F2000
G1 X40.7681 Y27.9107 E347.532 F2000
G1 X53.445 Y40.5876 E363.667 F2000
G1 X52.6924 Y41.8326 E364.976 F2000
G1 X52.5439 Y44.2871 E367.189 F2000
G1 X53.5531 Y46.5294 E369.402 F2000
G1 X55.4888 Y48.0459 E371.615 F2000
G1 X57.9075 Y48.4892 E373.828 F2000
G1 X60.2551 Y47.7576 E376.041 F2000
G1 X60.828 Y47.1847 E376.771 F2000
G1 X60.9723 Y47.1249 E376.911 F2000
G1 X69.4368 Y55.5895 E387.685 F2000
G1 X69.2495 Y56.0418 E388.125 F2000
G1 X69.4972 Y56.6398 E388.708 F2000
G1 X70.9528 Y58.0954 E390.561 F2000
G1 X71.3021 Y58.2401 E390.901 F2000
G1 X71.5508 Y58.2896 E391.129 F2000
G1 X71.7996 Y58.2401 E391.357 F2000
G1 X72.0031 Y58.1558 E391.556 F2000
G1 X80.4677 Y66.6204 E402.329 F2000
G1 X80.408 Y66.7646 E402.47 F2000
G1 X79.835 Y67.3375 E403.199 F2000
G1 X79.1035 Y69.6852 E405.412 F2000
G1 X79.5467 Y72.1039 E407.625 F2000
G1 X81.0632 Y74.0395 E409.838 F2000
G1 X83.3056 Y75.0487 E412.051 F2000
G1 X85.7601 Y74.9003 E414.264 F2000
G1 X87.005 Y74.1476 E415.574 F2000
G1 X99.6819 Y86.8245 E431.709 F2000
G1 X100.601 F2000
G1 X92.2926 Y95.133 E442.284 F2000
G1 X78.7961 Y81.6364 E459.462 F2000
G1 X79.7293 Y80.0928 E461.086 F2000
G1 X79.8584 Y77.9581 E463.01 F2000
G1 X78.9807 Y76.008 E464.935 F2000
G1 X77.2972 Y74.6891 E466.86 F2000
G1 X75.1937 Y74.3036 E468.784 F2000
G1 X73.152 Y74.9398 E470.709 F2000
G1 X72.6257 Y75.4661 E471.379 F2000
G1 X52.1265 Y54.9669 E497.47 F2000
G1 X52.6528 Y54.4406 E498.14 F2000
G1 X53.289 Y52.3989 E500.065 F2000
G1 X52.9036 Y50.2954 E501.989 F2000
G1 X51.5847 Y48.612 E503.914 F2000
G1 X49.6345 Y47.7343 E505.839 F2000
G1 X47.4999 Y47.8634 E507.763 F2000
G1 X45.9562 Y48.7966 E509.387 F2000
G1 X32.4596 Y35.3 E526.565 F2000
G1 X40.7681 Y26.9915 E537.14 F2000
G1 X54.2647 Y40.4881 E554.319 F2000
G1 X53.3315 Y42.0318 E555.942 F2000
G1 X53.2024 Y44.1664 E557.867 F2000
G1 X54.0801 Y46.1166 E559.791 F2000
G1 X55.7635 Y47.4354 E561.716 F2000
G1 X57.867 Y47.8209 E563.641 F2000
G1 X59.9088 Y47.1847 E565.565 F2000
G1 X60.4951 Y46.5984 E566.312 F2000
G1 X60.7498 Y46.5135 E566.536 F2000
G1 X61.0149 Y46.2484 E566.873 F2000
G1 X70.3134 Y55.5468 E578.708 F2000
G1 X70.0482 Y55.812 E579.046 F2000
G1 X69.953 Y56.0418 E579.27 F2000
G1 X70.0482 Y56.2716 E579.493 F2000
G1 X71.321 Y57.5444 E581.113 F2000
G1 X71.5508 Y57.6396 E581.337 F2000
G1 X71.7806 Y57.5444 E581.561 F2000
G1 X72.0458 Y57.2792 E581.899 F2000
G1 X81.3443 Y66.5777 E593.734 F2000
G1 X81.0791 Y66.8428 E594.071 F2000
G1 X80.9839 Y67.0727 E594.295 F2000
G1 X80.4079 Y67.6839 E595.041 F2000
G1 X79.7717 Y69.7256 E596.966 F2000
G1 X80.1572 Y71.8291 E598.891 F2000
G1 X81.4761 Y73.5126 E600.815 F2000
G1 X83.4262 Y74.3903 E602.74 F2000
G1 X85.5609 Y74.2611 E604.665 F2000
G1 X87.1046 Y73.3279 E606.288 F2000
G1 X100.601 Y86.8245 E623.466 F2000
G1 X89.575 Y90.5769 F2000
G1 X79.4378 Y73.0188 E641.713 F2000
G1 X78.8749 Y72.0438 F2000
G1 X71.2861 Y58.8997 E655.373 F2000
G1 X71.9122 Y58.9841 F2000
G1 X78.6064 Y70.5788 E667.423 F2000
G1 X78.5086 Y69.4094 F2000
G1 X73.2782 Y60.3501 E676.837 F2000
G1 X74.6443 Y61.7162 F2000
G1 X78.711 Y68.7599 E684.158 F2000
G1 X78.9134 Y68.1105 F2000
G1 X76.0103 Y63.0822 E689.383 F2000
G1 X77.3763 Y64.4482 F2000
G1 X79.1157 Y67.461 E692.514 F2000
G1 X79.3634 Y66.8899 F2000
G1 X78.7423 Y65.8142 E693.632 F2000
G1 X77.3335 Y73.3741 F2000
G1 X65.0821 Y52.154 E715.685 F2000
G1 X63.7161 Y50.788 F2000
G1 X76.6879 Y73.2558 E739.034 F2000
G1 X76.0422 Y73.1374 F2000
G1 X62.3501 Y49.422 E763.68 F2000
G1 X60.984 Y48.0559 F2000
G1 X75.3965 Y73.0191 E789.622 F2000
G1 X74.8385 Y73.0526 F2000
G1 X60.5707 Y48.3401 E815.304 F2000
G1 X60.0814 Y48.4926 F2000
G1 X74.3492 Y73.2051 E840.986 F2000
G1 X73.8599 Y73.3576 F2000
G1 X59.5921 Y48.645 E866.668 F2000
G1 X59.1028 Y48.7975 F2000
G1 X73.3706 Y73.5101 E892.35 F2000
G1 X72.8813 Y73.6625 F2000
G1 X58.6135 Y48.95 E918.032 F2000
G1 X58.1241 Y49.1025 F2000
G1 X71.8166 Y72.8185 E942.679 F2000
G1 X70.4506 Y71.4525 F2000
G1 X57.5348 Y49.0817 E965.927 F2000
G1 X56.8891 Y48.9634 F2000
G1 X69.0846 Y70.0865 E987.879 F2000
G1 X67.7185 Y68.7204 F2000
G1 X56.2435 Y48.845 E1008.53 F2000
G1 X55.5978 Y48.7267 F2000
G1 X66.3525 Y67.3544 E1027.89 F2000
G1 X64.9865 Y65.9884 F2000
G1 X54.7865 Y48.3214 E1046.25 F2000
G1 X53.7323 Y47.4955 F2000
G1 X63.6205 Y64.6224 E1064.05 F2000
G1 X62.2544 Y63.2563 F2000
G1 X44.578 Y32.6398 E1095.87 F2000
G1 X43.212 Y31.2738 F2000
G1 X53.183 Y48.5441 E1113.82 F2000
G1 X51.905 Y47.3305 F2000
G1 X41.8459 Y29.9078 E1131.92 F2000
G1 X40.6909 Y28.9072 F2000
G1 X51.1249 Y46.9794 E1150.7 F2000
G1 X50.3449 Y46.6284 F2000
G1 X40.3249 Y29.2732 E1168.74 F2000
G1 X39.9588 Y29.6392 F2000
G1 X49.6534 Y46.4307 E1186.19 F2000
G1 X49.0956 Y46.4645 F2000
G1 X39.5928 Y30.0053 E1203.3 F2000
G1 X39.2268 Y30.3713 F2000
G1 X48.5377 Y46.4982 E1220.05 F2000
G1 X47.9798 Y46.532 F2000
G1 X38.8608 Y30.7373 E1236.47 F2000
G1 X38.4948 Y31.1033 F2000
G1 X47.422 Y46.5657 E1252.54 F2000
G1 X46.9194 Y46.6952 F2000
G1 X38.1287 Y31.4694 E1268.36 F2000
G1 X37.7627 Y31.8354 F2000
G1 X46.4914 Y46.954 E1284.07 F2000
G1 X45.8621 Y46.864 F2000
G1 X37.3967 Y32.2014 E1299.31 F2000
G1 X37.0306 Y32.5674 F2000
G1 X44.4961 Y45.498 E1312.75 F2000
G1 X43.1301 Y44.132 F2000
G1 X36.6646 Y32.9335 E1324.39 F2000
G1 X36.2986 Y33.2995 F2000
G1 X41.764 Y42.7659 E1334.22 F2000
G1 X40.398 Y41.3999 F2000
G1 X35.9326 Y33.6655 E1342.26 F2000
G1 X35.5665 Y34.0315 F2000
G1 X39.032 Y40.0339 E1348.5 F2000
G1 X37.666 Y38.6679 F2000
G1 X35.2005 Y34.3976 E1352.94 F2000
G1 X34.8345 Y34.7636 F2000
G1 X36.2999 Y37.3018 E1355.58 F2000
G1 X34.9339 Y35.9358 F2000
G1 X34.4685 Y35.1296 E1356.41 F2000
G1 X45.944 Y34.0059 F2000
G1 X51.8915 Y44.3072 E1367.12 F2000
G1 X51.9463 Y43.402 F2000
G1 X47.31 Y35.3719 E1375.46 F2000
G1 X48.6761 Y36.7379 F2000
G1 X52.001 Y42.4969 E1381.45 F2000
G1 X52.0668 Y41.6109 F2000
G1 X50.0421 Y38.1039 E1385.09 F2000
G1 X51.4081 Y39.47 F2000
G1 X52.3622 Y41.1224 E1386.81 F2000
G1 X54.2397 Y50.3744 F2000
G1 X60.8884 Y61.8903 E1398.78 F2000
G1 X59.5224 Y60.5243 F2000
G1 X54.5082 Y51.8394 E1407.8 F2000
G1 X54.5116 Y52.8453 F2000
G1 X58.1564 Y59.1583 E1414.36 F2000
G1 X56.7903 Y57.7922 F2000
G1 X54.3092 Y53.4948 E1418.83 F2000
G1 X54.1068 Y54.1443 F2000
G1 X55.4243 Y56.4262 E1421.2 F2000
G1 X54.0583 Y55.0602 F2000
G1 X53.9045 Y54.7937 E1421.48 F2000
G1 X66.4481 Y53.52 F2000
G1 X78.063 Y73.6375 E1442.39 F2000
G1 X79.1171 Y74.4634 F2000
G1 X69.1665 Y57.2283 E1460.3 F2000
G1 X68.7097 Y56.4372 F2000
G1 X67.8142 Y54.8861 E1461.91 F2000
G1 X70.5325 Y58.5943 F2000
G1 X88.2089 Y89.2108 E1493.73 F2000
G1 X86.8429 Y87.8448 F2000
G1 X81.1583 Y77.9988 E1503.96 F2000
G1 X81.1035 Y78.9039 F2000
G1 X85.4769 Y86.4788 E1511.83 F2000
G1 X84.1108 Y85.1127 F2000
G1 X81.0488 Y79.8091 E1517.34 F2000
G1 X80.9347 Y80.6115 F2000
G1 X82.7448 Y83.7467 E1520.6 F2000
G1 X81.3788 Y82.3807 F2000
G1 X80.6394 Y81.1 E1521.93 F2000
G1 F70
G1 Z0.45 F70

G1 X80.7797 Y81.7816 F2000
G1 X84.3265 Y75.6382 E1528.32 F2000
G1 X83.7283 Y75.6743 F2000
G1 X81.0146 Y80.3747 E1533.2 F2000
G1 X80.3684 Y80.2919 F2000
G1 X80.5169 Y77.8374 E1535.41 F2000
G1 X79.5077 Y75.5951 E1537.63 F2000
G1 X77.572 Y74.0786 E1539.84 F2000
G1 X75.1533 Y73.6354 E1542.05 F2000
G1 X72.8057 Y74.3669 E1544.27 F2000
G1 X72.6257 Y74.5469 E1544.5 F2000
G1 X53.0458 Y54.9669 E1569.42 F2000
G1 X53.2257 Y54.787 E1569.65 F2000
G1 X53.9573 Y52.4393 E1571.86 F2000
G1 X53.514 Y50.0206 E1574.07 F2000
G1 X51.9975 Y48.085 E1576.28 F2000
G1 X49.7552 Y47.0758 E1578.5 F2000
G1 X47.3007 Y47.2243 E1580.71 F2000
G1 X46.0557 Y47.9769 E1582.02 F2000
G1 X33.3789 Y35.3 E1598.16 F2000
G1 X40.7681 Y27.9107 E1607.56 F2000
G1 X53.445 Y40.5876 E1623.7 F2000
G1 X52.6924 Y41.8326 E1625 F2000
G1 X52.5439 Y44.2871 E1627.22 F2000
G1 X53.5531 Y46.5294 E1629.43 F2000
G1 X55.4888 Y48.0459 E1631.64 F2000
G1 X57.9075 Y48.4892 E1633.86 F2000
G1 X60.2551 Y47.7576 E1636.07 F2000
G1 X60.828 Y47.1847 E1636.8 F2000
G1 X60.9723 Y47.1249 E1636.94 F2000
G1 X69.4368 Y55.5895 E1647.71 F2000
G1 X69.2495 Y56.0418 E1648.15 F2000
G1 X69.4972 Y56.6398 E1648.74 F2000
G1 X70.9528 Y58.0954 E1650.59 F2000
G1 X71.3021 Y58.2401 E1650.93 F2000
G1 X71.5508 Y58.2896 E1651.16 F2000
G1 X71.7996 Y58.2401 E1651.39 F2000
G1 X72.0031 Y58.1558 E1651.58 F2000
G1 X80.4677 Y66.6204 E1662.36 F2000
G1 X80.408 Y66.7646 E1662.5 F2000
G1 X79.835 Y67.3375 E1663.23 F2000
G1 X79.1035 Y69.6852 E1665.44 F2000
G1 X79.5467 Y72.1039 E1667.65 F2000
G1 X81.0632 Y74.0395 E1669.87 F2000
G1 X83.3056 Y75.0487 E1672.08 F2000
G1 X85.7601 Y74.9003 E1674.29 F2000
G1 X87.005 Y74.1476 E1675.6 F2000
G1 X99.6819 Y86.8245 E1691.74 F2000
G1 X92.2926 Y94.2138 E1701.14 F2000
G1 X79.6158 Y81.5369 E1717.28 F2000
G1 X80.3684 Y80.2919 E1718.59 F2000
G1 X79.7293 Y80.0928 F2000
G1 X79.8584 Y77.9581 E1720.51 F2000
G1 X78.9807 Y76.008 E1722.44 F2000
G1 X77.2972 Y74.6891 E1724.36 F2000
G1 X75.1937 Y74.3036 E1726.29 F2000
G1 X73.152 Y74.9398 E1728.21 F2000
G1 X72.6257 Y75.4661 E1728.88 F2000
G1 X52.1265 Y54.9669 E1754.97 F2000
G1 X52.6528 Y54.4406 E1755.64 F2000
G1 X53.289 Y52.3989 E1757.57 F2000
G1 X52.9036 Y50.2954 E1759.49 F2000
G1 X51.5847 Y48.612 E1761.42 F2000
G1 X49.6345 Y47.7343 E1763.34 F2000
G1 X47.4999 Y47.8634 E1765.27 F2000
G1 X45.9562 Y48.7966 E1766.89 F2000
G1 X32.4596 Y35.3 E1784.07 F2000
G1 X40.7681 Y26.9915 E1794.64 F2000
G1 X54.2647 Y40.4881 E1811.82 F2000
G1 X53.3315 Y42.0318 E1813.44 F2000
G1 X53.2024 Y44.1664 E1815.37 F2000
G1 X54.0801 Y46.1166 E1817.29 F2000
G1 X55.7635 Y47.4354 E1819.22 F2000
G1 X57.867 Y47.8209 E1821.14 F2000
G1 X59.9088 Y47.1847 E1823.07 F2000
G1 X60.4951 Y46.5984 E1823.81 F2000
G1 X60.7498 Y46.5135 E1824.04 F2000
G1 X61.0149 Y46.2484 E1824.37 F2000
G1 X70.3134 Y55.5468 E1836.21 F2000
G1 X70.0482 Y55.812 E1836.55 F2000
G1 X69.953 Y56.0418 E1836.77 F2000
G1 X70.0482 Y56.2716 E1836.99 F2000
G1 X71.321 Y57.5444 E1838.61 F2000
G1 X71.5508 Y57.6396 E1838.84 F2000
G1 X71.7806 Y57.5444 E1839.06 F2000
G1 X72.0458 Y57.2792 E1839.4 F2000
G1 X81.3443 Y66.5777 E1851.24 F2000
G1 X81.0791 Y66.8428 E1851.57 F2000
G1 X80.9839 Y67.0727 E1851.8 F2000
G1 X80.4079 Y67.6839 E1852.54 F2000
G1 X79.7717 Y69.7256 E1854.47 F2000
G1 X80.1572 Y71.8291 E1856.39 F2000
G1 X81.4761 Y73.5126 E1858.32 F2000
G1 X83.4262 Y74.3903 E1860.24 F2000
G1 X85.5609 Y74.2611 E1862.17 F2000
G1 X87.1046 Y73.3279 E1863.79 F2000
G1 X100.601 Y86.8245 E1880.97 F2000
G1 X92.2926 Y95.133 E1891.54 F2000
G1 X78.7961 Y81.6364 E1908.72 F2000
G1 X79.7293 Y80.0928 E1910.34 F2000
G1 X81.0821 Y79.2576 F2000
G1 X83.1429 Y75.6883 E1914.05 F2000
G1 X82.6846 Y75.4821 F2000
G1 X81.1497 Y78.1406 E1916.82 F2000
G1 X81.0184 Y77.368 F2000
G1 X82.2263 Y75.2758 E1918.99 F2000
G1 X81.7681 Y75.0696 F2000
G1 X80.7655 Y76.8061 E1920.8 F2000
G1 X80.5126 Y76.2441 F2000
G1 X81.3098 Y74.8633 E1922.23 F2000
G1 X80.8515 Y74.6571 F2000
G1 X80.2597 Y75.6822 E1923.3 F2000
G1 X79.9908 Y75.1479 F2000
G1 X80.4639 Y74.3285 E1924.15 F2000
G1 X80.1315 Y73.9042 F2000
G1 X79.5933 Y74.8364 E1925.12 F2000
G1 X79.1957 Y74.525 F2000
G1 X79.7991 Y73.4799 E1926.2 F2000
G1 X79.4667 Y73.0557 F2000
G1 X78.7982 Y74.2135 E1927.41 F2000
G1 X78.4007 Y73.9021 F2000
G1 X79.1343 Y72.6314 E1928.73 F2000
G1 X78.88 Y72.0718 F2000
G1 X78.0031 Y73.5906 E1930.3 F2000
G1 X77.53 Y73.4101 F2000
G1 X78.7409 Y71.3127 E1932.48 F2000
G1 X78.6018 Y70.5537 F2000
G1 X77.0079 Y73.3144 E1935.35 F2000
G1 X76.4858 Y73.2187 F2000
G1 X78.4627 Y69.7946 E1938.91 F2000
G1 X78.9786 Y67.901 F2000
G1 X75.9637 Y73.123 E1944.34 F2000
G1 X75.4416 Y73.0274 F2000
G1 X79.2899 Y66.3618 E1951.27 F2000
G1 X78.9239 Y65.9958 F2000
G1 X74.8521 Y73.0484 E1958.59 F2000
G1 X74.1481 Y73.2678 F2000
G1 X78.5579 Y65.6298 E1966.53 F2000
G1 X78.1919 Y65.2637 F2000
G1 X73.4441 Y73.4872 E1975.08 F2000
G1 X72.7401 Y73.7065 F2000
G1 X77.8258 Y64.8977 E1984.23 F2000
G1 X77.4598 Y64.5317 F2000
G1 X72.3611 Y73.363 E1993.41 F2000
G1 X71.995 Y72.9969 F2000
G1 X77.0938 Y64.1657 E2002.59 F2000
G1 X76.7278 Y63.7996 F2000
G1 X71.629 Y72.6309 E2011.77 F2000
G1 X71.263 Y72.2649 F2000
G1 X76.3617 Y63.4336 E2020.94 F2000
G1 X75.9957 Y63.0676 F2000
G1 X70.897 Y71.8989 E2030.12 F2000
G1 X70.5309 Y71.5328 F2000
G1 X75.6297 Y62.7016 E2039.3 F2000
G1 X75.2637 Y62.3355 F2000
G1 X70.1649 Y71.1668 E2048.48 F2000
G1 X69.7989 Y70.8008 F2000
G1 X74.8976 Y61.9695 E2057.65 F2000
G1 X74.5316 Y61.6035 F2000
G1 X69.4329 Y70.4348 E2066.83 F2000
G1 X69.0668 Y70.0687 F2000
G1 X74.1656 Y61.2375 E2076.01 F2000
G1 X73.7996 Y60.8714 F2000
G1 X68.7008 Y69.7027 E2085.19 F2000
G1 X68.3348 Y69.3367 F2000
G1 X73.4335 Y60.5054 E2094.37 F2000
G1 X73.0675 Y60.1394 F2000
G1 X67.9688 Y68.9707 E2103.54 F2000
G1 X67.6027 Y68.6046 F2000
G1 X72.7015 Y59.7734 E2112.72 F2000
G1 X72.3355 Y59.4073 F2000
G1 X67.2367 Y68.2386 E2121.9 F2000
G1 X66.8707 Y67.8726 F2000
G1 X71.9694 Y59.0413 E2131.08 F2000
G1 X71.4545 Y58.9332 F2000
G1 X66.5047 Y67.5066 E2139.99 F2000
G1 X66.1386 Y67.1405 F2000
G1 X70.9543 Y58.7996 E2148.65 F2000
G1 X70.509 Y58.5708 F2000
G1 X65.7726 Y66.7745 E2157.18 F2000
G1 X65.4066 Y66.4085 F2000
G1 X70.143 Y58.2048 E2165.71 F2000
G1 X69.7769 Y57.8388 F2000
G1 X65.0406 Y66.0425 E2174.23 F2000
G1 X64.6745 Y65.6764 F2000
G1 X69.4109 Y57.4728 E2182.76 F2000
G1 X69.0449 Y57.1068 F2000
G1 X64.3085 Y65.3104 E2191.28 F2000
G1 X63.9425 Y64.9444 F2000
G1 X68.77 Y56.5828 E2199.97 F2000
G1 X68.6498 Y55.7911 F2000
G1 X63.5765 Y64.5784 E2209.1 F2000
G1 X63.2104 Y64.2123 F2000
G1 X68.3092 Y55.3811 E2218.28 F2000
G1 X67.9431 Y55.0151 F2000
G1 X62.8444 Y63.8463 E2227.46 F2000
G1 X62.4784 Y63.4803 F2000
G1 X67.5771 Y54.649 E2236.64 F2000
G1 X67.2111 Y54.283 F2000
G1 X62.1124 Y63.1143 E2245.81 F2000
G1 X61.7463 Y62.7482 F2000
G1 X66.8451 Y53.917 E2254.99 F2000
G1 X66.479 Y53.5509 F2000
G1 X61.3803 Y62.3822 E2264.17 F2000
G1 X61.0143 Y62.0162 F2000
G1 X66.113 Y53.1849 E2273.35 F2000
G1 X65.747 Y52.8189 F2000
G1 X60.6483 Y61.6502 E2282.52 F2000
G1 X60.2822 Y61.2841 F2000
G1 X65.381 Y52.4529 E2291.7 F2000
G1 X65.0149 Y52.0868 F2000
G1 X59.9162 Y60.9181 E2300.88 F2000
G1 X59.5502 Y60.5521 F2000
G1 X64.6489 Y51.7208 E2310.06 F2000
G1 X64.2829 Y51.3548 F2000
G1 X59.1842 Y60.1861 E2319.24 F2000
G1 X58.8181 Y59.82 F2000
G1 X63.9169 Y50.9888 E2328.41 F2000
G1 X63.5508 Y50.6227 F2000
G1 X58.4521 Y59.454 E2337.59 F2000
G1 X58.0861 Y59.088 F2000
G1 X63.1848 Y50.2567 E2346.77 F2000
G1 X62.8188 Y49.8907 F2000
G1 X57.7201 Y58.722 E2355.95 F2000
G1 X57.354 Y58.3559 F2000
G1 X62.4528 Y49.5247 E2365.12 F2000
G1 X62.0867 Y49.1586 F2000
G1 X56.988 Y57.9899 E2374.3 F2000
G1 X56.622 Y57.6239 F2000
G1 X61.7207 Y48.7926 E2383.48 F2000
G1 X61.3547 Y48.4266 F2000
G1 X56.256 Y57.2579 E2392.66 F2000
G1 X55.8899 Y56.8918 F2000
G1 X60.9887 Y48.0606 E2401.84 F2000
G1 X60.1796 Y48.462 F2000
G1 X55.5239 Y56.5258 E2410.22 F2000
G1 X55.1579 Y56.1598 F2000
G1 X59.4755 Y48.6814 E2417.99 F2000
G1 X58.7715 Y48.9007 F2000
G1 X54.7919 Y55.7938 E2425.15 F2000
G1 X54.4258 Y55.4277 F2000
G1 X58.0675 Y49.1201 E2431.71 F2000
G1 X57.5145 Y49.078 F2000
G1 X54.0598 Y55.0617 E2437.92 F2000
G1 X54.2179 Y53.7879 F2000
G1 X56.9924 Y48.9823 E2442.92 F2000
G1 X56.4703 Y48.8866 F2000
G1 X54.5702 Y52.1777 E2446.34 F2000
G1 X54.4311 Y51.4187 F2000
G1 X55.9482 Y48.7909 E2449.07 F2000
G1 X55.4261 Y48.6952 F2000
G1 X54.292 Y50.6596 E2451.11 F2000
G1 X54.1529 Y49.9005 F2000
G1 X54.9779 Y48.4714 E2452.6 F2000
G1 X54.5804 Y48.16 F2000
G1 X53.8598 Y49.4081 E2453.89 F2000
G1 X53.5274 Y48.9838 F2000
G1 X54.1829 Y47.8485 E2455.07 F2000
G1 X53.7853 Y47.5371 F2000
G1 X53.195 Y48.5595 E2456.14 F2000
G1 X52.8626 Y48.1352 F2000
G1 X53.3878 Y47.2256 E2457.08 F2000
G1 X53.0033 Y46.8916 F2000
G1 X52.5303 Y47.711 E2457.93 F2000
G1 X52.1174 Y47.4261 F2000
G1 X52.7504 Y46.3297 E2459.07 F2000
G1 X52.4975 Y45.7677 F2000
G1 X51.6591 Y47.2198 E2460.58 F2000
G1 X51.2008 Y47.0136 F2000
G1 X52.2446 Y45.2058 E2462.46 F2000
G1 X51.9917 Y44.6438 F2000
G1 X50.7426 Y46.8073 E2464.71 F2000
G1 X50.2843 Y46.6011 F2000
G1 X51.9246 Y43.76 E2467.66 F2000
G1 X51.9922 Y42.6429 F2000
G1 X49.8108 Y46.4212 E2471.59 F2000
G1 X49.2125 Y46.4574 F2000
G1 X52.5738 Y40.6356 E2477.64 F2000
G1 X52.2077 Y40.2696 F2000
G1 X48.6143 Y46.4936 E2484.11 F2000
G1 X48.016 Y46.5298 F2000
G1 X51.8417 Y39.9036 E2490.99 F2000
G1 X51.4757 Y39.5375 F2000
G1 X47.4178 Y46.566 E2498.3 F2000
G1 X46.6835 Y46.8378 F2000
G1 X51.1097 Y39.1715 E2506.26 F2000
G1 X50.7436 Y38.8055 F2000
G1 X46.0072 Y47.0091 E2514.79 F2000
G1 X45.6412 Y46.6431 F2000
G1 X50.3776 Y38.4394 E2523.31 F2000
G1 X50.0116 Y38.0734 F2000
G1 X45.2752 Y46.2771 E2531.84 F2000
G1 X44.9092 Y45.9111 F2000
G1 X49.6456 Y37.7074 E2540.36 F2000
G1 X49.2795 Y37.3414 F2000
G1 X44.5431 Y45.545 E2548.89 F2000
G1 X44.1771 Y45.179 F2000
G1 X48.9135 Y36.9753 E2557.42 F2000
G1 X48.5475 Y36.6093 F2000
G1 X43.8111 Y44.813 E2565.94 F2000
G1 X43.4451 Y44.447 F2000
G1 X48.1814 Y36.2433 E2574.47 F2000
G1 X47.8154 Y35.8773 F2000
G1 X43.079 Y44.0809 E2582.99 F2000
G1 X42.713 Y43.7149 F2000
G1 X47.4494 Y35.5112 E2591.52 F2000
G1 X47.0834 Y35.1452 F2000
G1 X42.347 Y43.3489 E2600.04 F2000
G1 X41.981 Y42.9829 F2000
G1 X46.7174 Y34.7792 E2608.57 F2000
G1 X46.3513 Y34.4132 F2000
G1 X41.6149 Y42.6168 E2617.09 F2000
G1 X41.2489 Y42.2508 F2000
G1 X45.9853 Y34.0471 E2625.62 F2000
G1 X45.6193 Y33.6811 F2000
G1 X40.8829 Y41.8848 E2634.14 F2000
G1 X40.5169 Y41.5188 F2000
G1 X45.2533 Y33.3151 E2642.67 F2000
G1 X44.8872 Y32.9491 F2000
G1 X40.1508 Y41.1527 E2651.19 F2000
G1 X39.7848 Y40.7867 F2000
G1 X44.5212 Y32.583 E2659.72 F2000
G1 X44.1552 Y32.217 F2000
G1 X39.4188 Y40.4207 E2668.25 F2000
G1 X39.0528 Y40.0547 F2000
G1 X43.7891 Y31.851 E2676.77 F2000
G1 X43.4231 Y31.485 F2000
G1 X38.6867 Y39.6886 E2685.3 F2000
G1 X38.3207 Y39.3226 F2000
G1 X43.0571 Y31.1189 E2693.82 F2000
G1 X42.6911 Y30.7529 F2000
G1 X37.9547 Y38.9566 E2702.35 F2000
G1 X37.5887 Y38.5906 F2000
G1 X42.325 Y30.3869 E2710.87 F2000
G1 X41.959 Y30.0209 F2000
G1 X37.2226 Y38.2245 E2719.4 F2000
G1 X36.8566 Y37.8585 F2000
G1 X41.593 Y29.6548 E2727.92 F2000
G1 X41.227 Y29.2888 F2000
G1 X36.4906 Y37.4925 E2736.45 F2000
G1 X36.1246 Y37.1265 F2000
G1 X40.8609 Y28.9228 E2744.97 F2000
G1 X39.7485 Y29.8496 F2000
G1 X35.7585 Y36.7604 E2752.16 F2000
G1 X35.3925 Y36.3944 F2000
G1 X38.3825 Y31.2156 E2757.54 F2000
G1 X37.0165 Y32.5816 F2000
G1 X35.0265 Y36.0284 E2761.12 F2000
G1 X34.6604 Y35.6624 F2000
G1 X35.6504 Y33.9477 E2762.9 F2000
G1 X84.9248 Y75.602 F2000
G1 X81.1457 Y82.1476 E2769.7 F2000
G1 X81.5117 Y82.5136 F2000
G1 X85.523 Y75.5658 E2776.92 F2000
G1 X86.1995 Y75.3942 F2000
G1 X81.8777 Y82.8796 E2784.7 F2000
G1 X82.2438 Y83.2457 F2000
G1 X86.9801 Y75.042 E2793.23 F2000
G1 X87.3462 Y75.408 F2000
G1 X82.6098 Y83.6117 E2801.75 F2000
G1 X82.9758 Y83.9777 F2000
G1 X87.7122 Y75.774 E2810.28 F2000
G1 X88.0782 Y76.1401 F2000
G1 X83.3418 Y84.3437 E2818.8 F2000
G1 X83.7079 Y84.7098 F2000
G1 X88.4442 Y76.5061 E2827.33 F2000
G1 X88.8103 Y76.8721 F2000
G1 X84.0739 Y85.0758 E2835.86 F2000
G1 X84.4399 Y85.4418 F2000
G1 X89.1763 Y77.2381 E2844.38 F2000
G1 X89.5423 Y77.6042 F2000
G1 X84.8059 Y85.8078 E2852.91 F2000
G1 X85.172 Y86.1739 F2000
G1 X89.9084 Y77.9702 E2861.43 F2000
G1 X90.2744 Y78.3362 F2000
G1 X85.538 Y86.5399 E2869.96 F2000
G1 X85.904 Y86.9059 F2000
G1 X90.6404 Y78.7022 E2878.48 F2000
G1 X91.0064 Y79.0683 F2000
G1 X86.27 Y87.2719 E2887.01 F2000
G1 X86.6361 Y87.638 F2000
G1 X91.3725 Y79.4343 E2895.53 F2000
G1 X91.7385 Y79.8003 F2000
G1 X87.0021 Y88.004 E2904.06 F2000
G1 X87.3681 Y88.37 F2000
G1 X92.1045 Y80.1663 E2912.58 F2000
G1 X92.4705 Y80.5324 F2000
G1 X87.7341 Y88.736 E2921.11 F2000
G1 X88.1002 Y89.1021 F2000
G1 X92.8365 Y80.8984 E2929.64 F2000
G1 X93.2026 Y81.2644 F2000
G1 X88.4662 Y89.4681 E2938.16 F2000
G1 X88.8322 Y89.8341 F2000
G1 X93.5686 Y81.6304 E2946.69 F2000
G1 X93.9346 Y81.9965 F2000
G1 X89.1982 Y90.2001 E2955.21 F2000
G1 X89.5643 Y90.5662 F2000
G1 X94.3007 Y82.3625 E2963.74 F2000
G1 X94.6667 Y82.7285 F2000
G1 X89.9303 Y90.9322 E2972.26 F2000
G1 X90.2963 Y91.2982 F2000
G1 X95.0327 Y83.0945 E2980.79 F2000
G1 X95.3987 Y83.4606 F2000
G1 X90.6623 Y91.6642 E2989.31 F2000
G1 X91.0284 Y92.0303 F2000
G1 X95.7648 Y83.8266 E2997.84 F2000
G1 X96.1308 Y84.1926 F2000
G1 X91.3944 Y92.3963 E3006.37 F2000
G1 X91.7604 Y92.7623 F2000
G1 X96.4968 Y84.5586 E3014.89 F2000
G1 X96.8628 Y84.9247 F2000
G1 X92.1264 Y93.1283 E3023.42 F2000
G1 X93.0384 Y92.5488 F2000
G1 X97.2289 Y85.2907 E3030.96 F2000
G1 X97.5949 Y85.6567 F2000
G1 X94.4044 Y91.1828 E3036.7 F2000
G1 X95.7704 Y89.8167 F2000
G1 X97.9609 Y86.0227 E3040.65 F2000
G1 X98.3269 Y86.3888 F2000
G1 X97.1365 Y88.4507 E3042.79 F2000
G1 X98.5025 Y87.0847 F2000
G1 X98.693 Y86.7548 E3043.13 F2000
G1 F70
G1 Z0.75 F70

G1 X85.7602 Y86.7621 E3054.78 F2000
G1 X85.2602 Y86.2621 F2000
G1 X98.2003 Y86.2621 E3066.42 F2000
G1 X97.7003 Y85.7621 F2000
G1 X84.7602 Y85.7621 E3078.07 F2000
G1 X84.2602 Y85.2621 F2000
G1 X97.2003 Y85.2621 E3089.72 F2000
G1 X96.7003 Y84.7621 F2000
G1 X83.7602 Y84.7621 E3101.36 F2000
G1 X83.2602 Y84.2621 F2000
G1 X96.2003 Y84.2621 E3113.01 F2000
G1 X95.7003 Y83.7621 F2000
G1 X82.7602 Y83.7621 E3124.65 F2000
G1 X82.2602 Y83.2621 F2000
G1 X95.2003 Y83.2621 E3136.3 F2000
G1 X94.7003 Y82.7621 F2000
G1 X81.7602 Y82.7621 E3147.95 F2000
G1 X81.2602 Y82.2621 F2000
G1 X94.2003 Y82.2621 E3159.59 F2000
G1 X93.7003 Y81.7621 F2000
G1 X80.7602 Y81.7621 E3171.24 F2000
G1 X80.5414 Y81.2621 F2000
G1 X93.2003 Y81.2621 E3182.63 F2000
G1 X92.7003 Y80.7621 F2000
G1 X80.8437 E3193.3 F2000
G1 X81.0214 Y80.2621 F2000
G1 X92.2003 E3203.36 F2000
G1 X91.7003 Y79.7621 F2000
G1 X81.0516 E3212.95 F2000
G1 X81.0819 Y79.2621 F2000
G1 X91.2003 E3222.05 F2000
G1 X90.7003 Y78.7621 F2000
G1 X81.1121 E3230.68 F2000
G1 X81.1424 Y78.2621 F2000
G1 X90.2003 E3238.83 F2000
G1 X89.7003 Y77.7621 F2000
G1 X81.1726 E3246.51 F2000
G1 X80.9707 Y77.2621 F2000
G1 X89.2003 E3253.92 F2000
G1 X88.7003 Y76.7621 F2000
G1 X80.7457 E3261.07 F2000
G1 X80.5207 Y76.2621 F2000
G1 X88.2003 E3267.99 F2000
G1 X87.7003 Y75.7621 F2000
G1 X80.2956 E3274.65 F2000
G1 X80.0706 Y75.2621 F2000
G1 X82.196 E3276.56 F2000
G1 X83.3056 Y75.0487 F2000
G1 X85.7601 Y74.9003 E3278.78 F2000
G1 X87.005 Y74.1476 E3280.09 F2000
G1 X99.6819 Y86.8245 E3296.22 F2000
G1 X92.2926 Y94.2138 E3305.63 F2000
G1 X79.6158 Y81.5369 E3321.76 F2000
G1 X80.3684 Y80.2919 E3323.07 F2000
G1 X80.5169 Y77.8374 E3325.28 F2000
G1 X79.5077 Y75.5951 E3327.5 F2000
G1 X77.572 Y74.0786 E3329.71 F2000
G1 X75.1533 Y73.6354 E3331.92 F2000
G1 X72.8057 Y74.3669 E3334.14 F2000
G1 X72.6257 Y74.5469 E3334.36 F2000
G1 X53.0458 Y54.9669 E3359.29 F2000
G1 X53.2257 Y54.787 E3359.51 F2000
G1 X53.9573 Y52.4393 E3361.73 F2000
G1 X53.514 Y50.0206 E3363.94 F2000
G1 X51.9975 Y48.085 E3366.15 F2000
G1 X49.7552 Y47.0758 E3368.37 F2000
G1 X47.3007 Y47.2243 E3370.58 F2000
G1 X46.0557 Y47.9769 E3371.89 F2000
G1 X33.3789 Y35.3 E3388.02 F2000
G1 X40.7681 Y27.9107 E3397.43 F2000
G1 X53.445 Y40.5876 E3413.56 F2000
G1 X52.6924 Y41.8326 E3414.87 F2000
G1 X52.5439 Y44.2871 E3417.09 F2000
G1 X53.5531 Y46.5294 E3419.3 F2000
G1 X55.4888 Y48.0459 E3421.51 F2000
G1 X57.9075 Y48.4892 E3423.73 F2000
G1 X60.2551 Y47.7576 E3425.94 F2000
G1 X60.828 Y47.1847 E3426.67 F2000
G1 X60.9723 Y47.1249 E3426.81 F2000
G1 X69.4368 Y55.5895 E3437.58 F2000
G1 X69.2495 Y56.0418 E3438.02 F2000
G1 X69.4972 Y56.6398 E3438.61 F2000
G1 X70.9528 Y58.0954 E3440.46 F2000
G1 X71.3021 Y58.2401 E3440.8 F2000
G1 X71.5508 Y58.2896 E3441.03 F2000
G1 X71.7996 Y58.2401 E3441.26 F2000
G1 X72.0031 Y58.1558 E3441.45 F2000
G1 X80.4677 Y66.6204 E3452.23 F2000
G1 X80.408 Y66.7646 E3452.37 F2000
G1 X79.835 Y67.3375 E3453.1 F2000
G1 X79.1035 Y69.6852 E3455.31 F2000
G1 X79.5467 Y72.1039 E3457.52 F2000
G1 X81.0632 Y74.0395 E3459.74 F2000
G1 X83.3056 Y75.0487 E3461.95 F2000
G1 X83.4262 Y74.3903 F2000
G1 X85.5609 Y74.2611 E3463.88 F2000
G1 X87.1046 Y73.3279 E3465.5 F2000
G1 X100.601 Y86.8245 E3482.68 F2000
G1 X92.2926 Y95.133 E3493.25 F2000
G1 X78.7961 Y81.6364 E3510.43 F2000
G1 X79.7293 Y80.0928 E3512.05 F2000
G1 X79.8584 Y77.9581 E3513.98 F2000
G1 X78.9807 Y76.008 E3515.9 F2000
G1 X77.2972 Y74.6891 E3517.83 F2000
G1 X75.1937 Y74.3036 E3519.75 F2000
G1 X73.152 Y74.9398 E3521.68 F2000
G1 X72.6257 Y75.4661 E3522.35 F2000
G1 X52.1265 Y54.9669 E3548.44 F2000
G1 X52.6528 Y54.4406 E3549.11 F2000
G1 X53.289 Y52.3989 E3551.03 F2000
G1 X52.9036 Y50.2954 E3552.96 F2000
G1 X51.5847 Y48.612 E3554.88 F2000
G1 X49.6345 Y47.7343 E3556.81 F2000
G1 X47.4999 Y47.8634 E3558.73 F2000
G1 X45.9562 Y48.7966 E3560.36 F2000
G1 X32.4596 Y35.3 E3577.54 F2000
G1 X40.7681 Y26.9915 E3588.11 F2000
G1 X54.2647 Y40.4881 E3605.29 F2000
G1 X53.3315 Y42.0318 E3606.91 F2000
G1 X53.2024 Y44.1664 E3608.84 F2000
G1 X54.0801 Y46.1166 E3610.76 F2000
G1 X55.7635 Y47.4354 E3612.69 F2000
G1 X57.867 Y47.8209 E3614.61 F2000
G1 X59.9088 Y47.1847 E3616.54 F2000
G1 X60.4951 Y46.5984 E3617.28 F2000
G1 X60.7498 Y46.5135 E3617.51 F2000
G1 X61.0149 Y46.2484 E3617.84 F2000
G1 X70.3134 Y55.5468 E3629.68 F2000
G1 X70.0482 Y55.812 E3630.02 F2000
G1 X69.953 Y56.0418 E3630.24 F2000
G1 X70.0482 Y56.2716 E3630.46 F2000
G1 X71.321 Y57.5444 E3632.08 F2000
G1 X71.5508 Y57.6396 E3632.31 F2000
G1 X71.7806 Y57.5444 E3632.53 F2000
G1 X72.0458 Y57.2792 E3632.87 F2000
G1 X81.3443 Y66.5777 E3644.7 F2000
G1 X81.0791 Y66.8428 E3645.04 F2000
G1 X80.9839 Y67.0727 E3645.27 F2000
G1 X80.4079 Y67.6839 E3646.01 F2000
G1 X79.7717 Y69.7256 E3647.94 F2000
G1 X80.1572 Y71.8291 E3649.86 F2000
G1 X81.4761 Y73.5126 E3651.79 F2000
G1 X83.4262 Y74.3903 E3653.71 F2000
G1 X81.085 Y74.7621 F2000
G1 X79.4985 E3655.14 F2000
G1 X78.8602 Y74.2621 F2000
G1 X80.4119 E3656.54 F2000
G1 X80.0202 Y73.7621 F2000
G1 X78.222 E3658.15 F2000
G1 X79.2367 Y72.7621 F2000
G1 X71.7602 E3664.88 F2000
G1 X71.2602 Y72.2621 F2000
G1 X78.9149 E3671.77 F2000
G1 X78.8233 Y71.7621 F2000
G1 X70.7602 E3679.03 F2000
G1 X70.2602 Y71.2621 F2000
G1 X78.7317 E3686.65 F2000
G1 X78.64 Y70.7621 F2000
G1 X69.7602 E3694.64 F2000
G1 X69.2602 Y70.2621 F2000
G1 X78.5484 E3703 F2000
G1 X78.4568 Y69.7621 F2000
G1 X68.7602 E3711.73 F2000
G1 X68.2602 Y69.2621 F2000
G1 X78.5545 E3721 F2000
G1 X78.7103 Y68.7621 F2000
G1 X67.7602 E3730.85 F2000
G1 X67.2602 Y68.2621 F2000
G1 X78.8661 E3741.3 F2000
G1 X79.0219 Y67.7621 F2000
G1 X66.7602 E3752.33 F2000
G1 X66.2602 Y67.2621 F2000
G1 X79.1777 E3763.96 F2000
G1 X79.4912 Y66.7621 F2000
G1 X65.7602 E3776.31 F2000
G1 X65.2602 Y66.2621 F2000
G1 X79.1902 E3788.85 F2000
G1 X78.6902 Y65.7621 F2000
G1 X64.7602 E3801.39 F2000
G1 X64.2602 Y65.2621 F2000
G1 X78.1902 E3813.93 F2000
G1 X77.6902 Y64.7621 F2000
G1 X63.7602 E3826.46 F2000
G1 X63.2602 Y64.2621 F2000
G1 X77.1902 E3839 F2000
G1 X76.6903 Y63.7621 F2000
G1 X62.7602 E3851.54 F2000
G1 X62.2602 Y63.2621 F2000
G1 X76.1902 E3864.07 F2000
G1 X75.6903 Y62.7621 F2000
G1 X61.7602 E3876.61 F2000
G1 X61.2602 Y62.2621 F2000
G1 X75.1902 E3889.15 F2000
G1 X74.6903 Y61.7621 F2000
G1 X60.7602 E3901.69 F2000
G1 X60.2602 Y61.2621 F2000
G1 X74.1902 E3914.22 F2000
G1 X73.6903 Y60.7621 F2000
G1 X59.7602 E3926.76 F2000
G1 X59.2602 Y60.2621 F2000
G1 X73.1902 E3939.3 F2000
G1 X72.6903 Y59.7621 F2000
G1 X58.7602 E3951.83 F2000
G1 X58.2602 Y59.2621 F2000
G1 X72.1902 E3964.37 F2000
G1 X70.8638 Y58.7621 F2000
G1 X57.7602 E3976.16 F2000
G1 X57.2602 Y58.2621 F2000
G1 X70.2003 E3987.81 F2000
G1 X69.7003 Y57.7621 F2000
G1 X56.7602 E3999.46 F2000
G1 X56.2602 Y57.2621 F2000
G1 X69.2003 E4011.1 F2000
G1 X68.8443 Y56.7621 F2000
G1 X55.7602 E4022.88 F2000
G1 X55.2602 Y56.2621 F2000
G1 X68.6372 E4034.92 F2000
G1 X68.6618 Y55.7621 F2000
G1 X54.7602 E4047.43 F2000
G1 X54.2602 Y55.2621 F2000
G1 X68.1902 E4059.97 F2000
G1 X67.6902 Y54.7621 F2000
G1 X53.9143 E4072.36 F2000
G1 X54.0701 Y54.2621 F2000
G1 X67.1902 E4084.17 F2000
G1 X66.6902 Y53.7621 F2000
G1 X54.2259 E4095.39 F2000
G1 X54.3817 Y53.2621 F2000
G1 X66.1902 E4106.02 F2000
G1 X65.6902 Y52.7621 F2000
G1 X54.5375 E4116.06 F2000
G1 X54.5856 Y52.2621 F2000
G1 X65.1902 E4125.6 F2000
G1 X64.6902 Y51.7621 F2000
G1 X54.494 E4134.78 F2000
G1 X54.4024 Y51.2621 F2000
G1 X64.1902 E4143.59 F2000
G1 X63.6902 Y50.7621 F2000
G1 X54.3107 E4152.03 F2000
G1 X54.2191 Y50.2621 F2000
G1 X63.1902 E4160.1 F2000
G1 X62.6902 Y49.7621 F2000
G1 X54.1275 E4167.81 F2000
G1 X53.7455 Y49.2621 F2000
G1 X62.1902 E4175.41 F2000
G1 X61.6902 Y48.7621 F2000
G1 X59.2163 E4177.63 F2000
G1 X60.6698 Y48.2621 F2000
G1 X61.1902 E4178.1 F2000
G1 X55.7911 Y48.7621 F2000
G1 X53.3538 E4180.3 F2000
G1 X52.9621 Y48.2621 F2000
G1 X54.7108 E4181.87 F2000
G1 X54.0726 Y47.7621 F2000
G1 X52.5703 E4183.22 F2000
G1 X51.753 Y47.2621 F2000
G1 X53.4344 E4184.73 F2000
G1 X52.945 Y46.7621 F2000
G1 X50.6421 E4186.81 F2000
G1 X52.495 Y45.7621 F2000
G1 X44.7602 E4193.77 F2000
G1 X45.2602 Y46.2621 F2000
G1 X52.72 E4200.48 F2000
G1 X52.2699 Y45.2621 F2000
G1 X44.2602 E4207.69 F2000
G1 X43.7602 Y44.7621 F2000
G1 X52.0449 E4215.15 F2000
G1 X51.8942 Y44.2621 F2000
G1 X43.2602 E4222.92 F2000
G1 X42.7602 Y43.7621 F2000
G1 X51.9245 E4231.17 F2000
G1 X51.9547 Y43.2621 F2000
G1 X42.2602 E4239.89 F2000
G1 X41.7602 Y42.7621 F2000
G1 X51.985 E4249.09 F2000
G1 X52.0152 Y42.2621 F2000
G1 X41.2602 E4258.77 F2000
G1 X40.7602 Y41.7621 F2000
G1 X52.0455 E4268.93 F2000
G1 X52.2777 Y41.2621 F2000
G1 X40.2602 E4279.75 F2000
G1 X39.7602 Y40.7621 F2000
G1 X52.5799 Y40.7621 E4291.28 F2000
G1 X52.2003 Y40.2621 F2000
G1 X39.2602 Y40.2621 E4302.93 F2000
G1 X38.7602 Y39.7621 F2000
G1 X51.7003 Y39.7621 E4314.58 F2000
G1 X51.2003 Y39.2621 F2000
G1 X38.2602 Y39.2621 E4326.22 F2000
G1 X37.7602 Y38.7621 F2000
G1 X50.7003 Y38.7621 E4337.87 F2000
G1 X50.2003 Y38.2621 F2000
G1 X37.2602 Y38.2621 E4349.51 F2000
G1 X36.7602 Y37.7621 F2000
G1 X49.7003 Y37.7621 E4361.16 F2000
G1 X49.2003 Y37.2621 F2000
G1 X36.2602 Y37.2621 E4372.81 F2000
G1 X35.7602 Y36.7621 F2000
G1 X48.7003 Y36.7621 E4384.45 F2000
G1 X48.2003 Y36.2621 F2000
G1 X35.2602 Y36.2621 E4396.1 F2000
G1 X34.7602 Y35.7621 F2000
G1 X47.7003 Y35.7621 E4407.74 F2000
G1 X47.2003 Y35.2621 F2000
G1 X34.336 Y35.2621 E4419.32 F2000
G1 X34.836 Y34.7621 F2000
G1 X46.7003 Y34.7621 E4430 F2000
G1 X46.2003 Y34.2621 F2000
G1 X35.336 Y34.2621 E4439.78 F2000
G1 X35.836 Y33.7621 F2000
G1 X45.7003 Y33.7621 E4448.66 F2000
G1 X45.2003 Y33.2621 F2000
G1 X36.336 Y33.2621 E4456.63 F2000
G1 X36.836 Y32.7621 F2000
G1 X44.7003 Y32.7621 E4463.71 F2000
G1 X44.2003 Y32.2621 F2000
G1 X37.336 Y32.2621 E4469.89 F2000
G1 X37.836 Y31.7621 F2000
G1 X43.7003 E4475.17 F2000
G1 X43.2003 Y31.2621 F2000
G1 X38.336 E4479.54 F2000
G1 X38.836 Y30.7621 F2000
G1 X42.7003 E4483.02 F2000
G1 X42.2003 Y30.2621 F2000
G1 X39.336 E4485.6 F2000
G1 X39.836 Y29.7621 F2000
G1 X41.7003 E4487.28 F2000
G1 X41.2003 Y29.2621 F2000
G1 X40.336 E4488.06 F2000
G1 X45.7602 Y46.7621 F2000
G1 X46.8087 E4489 F2000
G1 X72.2602 Y73.2621 F2000
G1 X74.1662 E4490.72 F2000
G1 X76.7227 F2000
G1 X79.6284 E4493.33 F2000
G1 X86.4179 Y75.2621 F2000
G1 X87.2003 E4494.04 F2000
G1 X86.2602 Y87.2621 F2000
G1 X98.325 Y87.2621 E4504.89 F2000
G1 X97.825 Y87.7621 F2000
G1 X86.7602 Y87.7621 E4514.85 F2000
G1 X87.2602 Y88.2621 F2000
G1 X97.325 Y88.2621 E4523.91 F2000
G1 X96.825 Y88.7621 F2000
G1 X87.7602 Y88.7621 E4532.07 F2000
G1 X88.2602 Y89.2621 F2000
G1 X96.325 Y89.2621 E4539.33 F2000
G1 X95.825 Y89.7621 F2000
G1 X88.7602 Y89.7621 E4545.69 F2000
G1 X89.2602 Y90.2621 F2000
G1 X95.325 Y90.2621 E4551.14 F2000
G1 X94.825 Y90.7621 F2000
G1 X89.7602 Y90.7621 E4555.7 F2000
G1 X90.2602 Y91.2621 F2000
G1 X94.325 Y91.2621 E4559.36 F2000
G1 X93.825 Y91.7621 F2000
G1 X90.7602 Y91.7621 E4562.12 F2000
G1 X91.2602 Y92.2621 F2000
G1 X93.325 Y92.2621 E4563.98 F2000
G1 X92.825 Y92.7621 F2000
G1 X91.7602 E4564.94 F2000
G1 X92.2602 Y93.2621 F2000
G1 X92.325 E4564.99 F2000
G1 F70
G1 Z1.05 F70

G1 X92.6627 Y92.9245 F2000
G1 X82.5599 Y75.4259 E4583.18 F2000
G1 X83.3056 Y75.0487 F2000
G1 X85.7601 Y74.9003 E4585.39 F2000
G1 X87.005 Y74.1476 E4586.7 F2000
G1 X99.6819 Y86.8245 E4602.84 F2000
G1 X92.2926 Y94.2138 E4612.24 F2000
G1 X79.6158 Y81.5369 E4628.38 F2000
G1 X80.3684 Y80.2919 E4629.68 F2000
G1 X80.5169 Y77.8374 E4631.9 F2000
G1 X79.5077 Y75.5951 E4634.11 F2000
G1 X77.572 Y74.0786 E4636.32 F2000
G1 X75.1533 Y73.6354 E4638.54 F2000
G1 X72.8057 Y74.3669 E4640.75 F2000
G1 X72.6257 Y74.5469 E4640.98 F2000
G1 X53.0458 Y54.9669 E4665.9 F2000
G1 X53.2257 Y54.787 E4666.13 F2000
G1 X53.9573 Y52.4393 E4668.34 F2000
G1 X53.514 Y50.0206 E4670.55 F2000
G1 X51.9975 Y48.085 E4672.77 F2000
G1 X49.7552 Y47.0758 E4674.98 F2000
G1 X47.3007 Y47.2243 E4677.19 F2000
G1 X46.0557 Y47.9769 E4678.5 F2000
G1 X33.3789 Y35.3 E4694.64 F2000
G1 X40.7681 Y27.9107 E4704.04 F2000
G1 X53.445 Y40.5876 E4720.18 F2000
G1 X52.6924 Y41.8326 E4721.49 F2000
G1 X52.5439 Y44.2871 E4723.7 F2000
G1 X53.5531 Y46.5294 E4725.91 F2000
G1 X55.4888 Y48.0459 E4728.13 F2000
G1 X57.9075 Y48.4892 E4730.34 F2000
G1 X60.2551 Y47.7576 E4732.55 F2000
G1 X60.828 Y47.1847 E4733.28 F2000
G1 X60.9723 Y47.1249 E4733.42 F2000
G1 X69.4368 Y55.5895 E4744.19 F2000
G1 X69.2495 Y56.0418 E4744.63 F2000
G1 X69.4972 Y56.6398 E4745.22 F2000
G1 X70.9528 Y58.0954 E4747.07 F2000
G1 X71.3021 Y58.2401 E4747.41 F2000
G1 X71.5508 Y58.2896 E4747.64 F2000
G1 X71.7996 Y58.2401 E4747.87 F2000
G1 X72.0031 Y58.1558 E4748.06 F2000
G1 X80.4677 Y66.6204 E4758.84 F2000
G1 X80.408 Y66.7646 E4758.98 F2000
G1 X79.835 Y67.3375 E4759.71 F2000
G1 X79.1035 Y69.6852 E4761.92 F2000
G1 X79.5467 Y72.1039 E4764.13 F2000
G1 X81.0632 Y74.0395 E4766.35 F2000
G1 X83.3056 Y75.0487 E4768.56 F2000
G1 X83.4262 Y74.3903 F2000
G1 X85.5609 Y74.2611 E4770.48 F2000
G1 X87.1046 Y73.3279 E4772.11 F2000
G1 X100.601 Y86.8245 E4789.29 F2000
G1 X92.2926 Y95.133 E4799.86 F2000
G1 X78.7961 Y81.6364 E4817.04 F2000
G1 X79.7293 Y80.0928 E4818.66 F2000
G1 X79.8584 Y77.9581 E4820.59 F2000
G1 X78.9807 Y76.008 E4822.51 F2000
G1 X77.2972 Y74.6891 E4824.44 F2000
G1 X75.1937 Y74.3036 E4826.36 F2000
G1 X73.152 Y74.9398 E4828.29 F2000
G1 X72.6257 Y75.4661 E4828.96 F2000
G1 X52.1265 Y54.9669 E4855.05 F2000
G1 X52.6528 Y54.4406 E4855.72 F2000
G1 X53.289 Y52.3989 E4857.64 F2000
G1 X52.9036 Y50.2954 E4859.57 F2000
G1 X51.5847 Y48.612 E4861.49 F2000
G1 X49.6345 Y47.7343 E4863.42 F2000
G1 X47.4999 Y47.8634 E4865.34 F2000
G1 X45.9562 Y48.7966 E4866.96 F2000
G1 X32.4596 Y35.3 E4884.14 F2000
G1 X40.7681 Y26.9915 E4894.72 F2000
G1 X54.2647 Y40.4881 E4911.9 F2000
G1 X53.3315 Y42.0318 E4913.52 F2000
G1 X53.2024 Y44.1664 E4915.44 F2000
G1 X54.0801 Y46.1166 E4917.37 F2000
G1 X55.7635 Y47.4354 E4919.29 F2000
G1 X57.867 Y47.8209 E4921.22 F2000
G1 X59.9088 Y47.1847 E4923.14 F2000
G1 X60.4951 Y46.5984 E4923.89 F2000
G1 X60.7498 Y46.5135 E4924.11 F2000
G1 X61.0149 Y46.2484 E4924.45 F2000
G1 X70.3134 Y55.5468 E4936.29 F2000
G1 X70.0482 Y55.812 E4936.62 F2000
G1 X69.953 Y56.0418 E4936.85 F2000
G1 X70.0482 Y56.2716 E4937.07 F2000
G1 X71.321 Y57.5444 E4938.69 F2000
G1 X71.5508 Y57.6396 E4938.91 F2000
G1 X71.7806 Y57.5444 E4939.14 F2000
G1 X72.0458 Y57.2792 E4939.48 F2000
G1 X81.3443 Y66.5777 E4951.31 F2000
G1 X81.0791 Y66.8428 E4951.65 F2000
G1 X80.9839 Y67.0727 E4951.87 F2000
G1 X80.4079 Y67.6839 E4952.62 F2000
G1 X79.7717 Y69.7256 E4954.54 F2000
G1 X80.1572 Y71.8291 E4956.47 F2000
G1 X81.4761 Y73.5126 E4958.39 F2000
G1 X83.4262 Y74.3903 E4960.32 F2000
G1 X84.7462 Y75.6128 F2000
G1 X93.9804 Y91.6068 E4976.94 F2000
G1 X95.2981 Y90.2891 F2000
G1 X86.5694 Y75.1706 E4992.65 F2000
G1 X90.7502 Y78.8121 F2000
G1 X96.6157 Y88.9714 E5003.21 F2000
G1 X97.9334 Y87.6537 F2000
G1 X95.6679 Y83.7298 E5007.29 F2000
G1 X88.7559 Y89.7578 F2000
G1 X70.8595 Y58.7603 E5039.5 F2000
G1 X74.6449 Y61.7168 F2000
G1 X78.7111 Y68.7596 E5046.82 F2000
G1 X79.5832 Y66.6702 F2000
G1 X77.2047 Y73.3505 F2000
G1 X64.8095 Y51.8814 E5069.13 F2000
G1 X60.6518 Y48.2801 F2000
G1 X74.9366 Y73.0221 E5094.84 F2000
G1 X73.1751 Y73.571 F2000
G1 X58.9073 Y48.8584 E5120.52 F2000
G1 X56.8894 Y48.9634 F2000
G1 X69.0852 Y70.0871 E5142.48 F2000
G1 X64.1675 Y65.1694 F2000
G1 X54.1544 Y47.8262 E5160.5 F2000
G1 X51.7493 Y47.2604 F2000
G1 X41.5734 Y29.6352 E5178.82 F2000
G1 X39.6662 Y29.9319 F2000
G1 X49.2074 Y46.4577 E5195.99 F2000
G1 X47.1991 Y46.5792 F2000
G1 X38.3485 Y31.2496 E5211.92 F2000
G1 X37.0308 Y32.5673 F2000
G1 X44.4967 Y45.4986 E5225.36 F2000
G1 X39.579 Y40.5809 F2000
G1 X35.7131 Y33.885 E5232.32 F2000
G1 X34.3954 Y35.2027 F2000
G1 X34.6613 Y35.6632 E5232.8 F2000
G1 X46.491 Y34.5529 F2000
G1 X51.9134 Y43.9447 E5242.56 F2000
G1 X52.3623 Y41.1222 F2000
G1 X51.4087 Y39.4706 E5244.27 F2000
G1 X54.5617 Y52.1317 F2000
G1 X59.2498 Y60.2517 E5252.71 F2000
G1 X54.3321 Y55.334 F2000
G1 X53.945 Y54.6636 E5253.41 F2000
G1 X81.0379 Y79.9897 F2000
G1 X83.8382 Y84.8401 E5258.45 F2000
G1 F70
G1 Z1.35 F70

G1 X83.5616 Y84.5635 F2000
G1 X88.298 Y76.3598 E5266.98 F2000
G1 X86.9803 Y75.0421 F2000
G1 X82.2439 Y83.2458 E5275.5 F2000
G1 X80.9262 Y81.9281 F2000
G1 X84.5661 Y75.6237 E5282.05 F2000
G1 X83.3056 Y75.0487 F2000
G1 X85.7601 Y74.9003 E5284.27 F2000
G1 X87.005 Y74.1476 E5285.58 F2000
G1 X99.6819 Y86.8245 E5301.71 F2000
G1 X92.2926 Y94.2138 E5311.12 F2000
G1 X79.6158 Y81.5369 E5327.25 F2000
G1 X80.3684 Y80.2919 E5328.56 F2000
G1 X80.5169 Y77.8374 E5330.77 F2000
G1 X79.5077 Y75.5951 E5332.99 F2000
G1 X77.572 Y74.0786 E5335.2 F2000
G1 X75.1533 Y73.6354 E5337.41 F2000
G1 X72.8057 Y74.3669 E5339.62 F2000
G1 X72.6257 Y74.5469 E5339.85 F2000
G1 X53.0458 Y54.9669 E5364.77 F2000
G1 X53.2257 Y54.787 E5365 F2000
G1 X53.9573 Y52.4393 E5367.22 F2000
G1 X53.514 Y50.0206 E5369.43 F2000
G1 X51.9975 Y48.085 E5371.64 F2000
G1 X49.7552 Y47.0758 E5373.85 F2000
G1 X47.3007 Y47.2243 E5376.07 F2000
G1 X46.0557 Y47.9769 E5377.38 F2000
G1 X33.3789 Y35.3 E5393.51 F2000
G1 X40.7681 Y27.9107 E5402.92 F2000
G1 X53.445 Y40.5876 E5419.05 F2000
G1 X52.6924 Y41.8326 E5420.36 F2000
G1 X52.5439 Y44.2871 E5422.57 F2000
G1 X53.5531 Y46.5294 E5424.79 F2000
G1 X55.4888 Y48.0459 E5427 F2000
G1 X57.9075 Y48.4892 E5429.21 F2000
G1 X60.2551 Y47.7576 E5431.43 F2000
G1 X60.828 Y47.1847 E5432.15 F2000
G1 X60.9723 Y47.1249 E5432.3 F2000
G1 X69.4368 Y55.5895 E5443.07 F2000
G1 X69.2495 Y56.0418 E5443.51 F2000
G1 X69.4972 Y56.6398 E5444.09 F2000
G1 X70.9528 Y58.0954 E5445.94 F2000
G1 X71.3021 Y58.2401 E5446.28 F2000
G1 X71.5508 Y58.2896 E5446.51 F2000
G1 X71.7996 Y58.2401 E5446.74 F2000
G1 X72.0031 Y58.1558 E5446.94 F2000
G1 X80.4677 Y66.6204 E5457.71 F2000
G1 X80.408 Y66.7646 E5457.85 F2000
G1 X79.835 Y67.3375 E5458.58 F2000
G1 X79.1035 Y69.6852 E5460.79 F2000
G1 X79.5467 Y72.1039 E5463.01 F2000
G1 X81.0632 Y74.0395 E5465.22 F2000
G1 X83.3056 Y75.0487 E5467.43 F2000
G1 X83.4262 Y74.3903 F2000
G1 X85.5609 Y74.2611 E5469.36 F2000
G1 X87.1046 Y73.3279 E5470.98 F2000
G1 X100.601 Y86.8245 E5488.16 F2000
G1 X92.2926 Y95.133 E5498.74 F2000
G1 X78.7961 Y81.6364 E5515.91 F2000
G1 X79.7293 Y80.0928 E5517.54 F2000
G1 X79.8584 Y77.9581 E5519.46 F2000
G1 X78.9807 Y76.008 E5521.39 F2000
G1 X77.2972 Y74.6891 E5523.31 F2000
G1 X75.1937 Y74.3036 E5525.24 F2000
G1 X73.152 Y74.9398 E5527.16 F2000
G1 X72.6257 Y75.4661 E5527.83 F2000
G1 X52.1265 Y54.9669 E5553.92 F2000
G1 X52.6528 Y54.4406 E5554.59 F2000
G1 X53.289 Y52.3989 E5556.52 F2000
G1 X52.9036 Y50.2954 E5558.44 F2000
G1 X51.5847 Y48.612 E5560.37 F2000
G1 X49.6345 Y47.7343 E5562.29 F2000
G1 X47.4999 Y47.8634 E5564.22 F2000
G1 X45.9562 Y48.7966 E5565.84 F2000
G1 X32.4596 Y35.3 E5583.02 F2000
G1 X40.7681 Y26.9915 E5593.59 F2000
G1 X54.2647 Y40.4881 E5610.77 F2000
G1 X53.3315 Y42.0318 E5612.4 F2000
G1 X53.2024 Y44.1664 E5614.32 F2000
G1 X54.0801 Y46.1166 E5616.24 F2000
G1 X55.7635 Y47.4354 E5618.17 F2000
G1 X57.867 Y47.8209 E5620.09 F2000
G1 X59.9088 Y47.1847 E5622.02 F2000
G1 X60.4951 Y46.5984 E5622.77 F2000
G1 X60.7498 Y46.5135 E5622.99 F2000
G1 X61.0149 Y46.2484 E5623.33 F2000
G1 X70.3134 Y55.5468 E5635.16 F2000
G1 X70.0482 Y55.812 E5635.5 F2000
G1 X69.953 Y56.0418 E5635.72 F2000
G1 X70.0482 Y56.2716 E5635.95 F2000
G1 X71.321 Y57.5444 E5637.57 F2000
G1 X71.5508 Y57.6396 E5637.79 F2000
G1 X71.7806 Y57.5444 E5638.01 F2000
G1 X72.0458 Y57.2792 E5638.35 F2000
G1 X81.3443 Y66.5777 E5650.19 F2000
G1 X81.0791 Y66.8428 E5650.52 F2000
G1 X80.9839 Y67.0727 E5650.75 F2000
G1 X80.4079 Y67.6839 E5651.49 F2000
G1 X79.7717 Y69.7256 E5653.42 F2000
G1 X80.1572 Y71.8291 E5655.34 F2000
G1 X81.4761 Y73.5126 E5657.27 F2000
G1 X83.4262 Y74.3903 E5659.19 F2000
G1 X82.5932 Y75.4409 F2000
G1 X81.1632 Y77.9177 E5661.77 F2000
G1 X80.3104 Y75.7948 F2000
G1 X80.9434 Y74.6984 E5662.91 F2000
G1 X79.6663 Y73.3104 F2000
G1 X79.0369 Y74.4005 E5664.04 F2000
G1 X77.5303 Y73.4101 F2000
G1 X78.741 Y71.3131 E5666.22 F2000
G1 X75.6507 Y73.0657 F2000
G1 X79.4365 Y66.5084 E5673.03 F2000
G1 X78.1188 Y65.1907 F2000
G1 X73.3036 Y73.5309 E5681.7 F2000
G1 X71.7024 Y72.7043 F2000
G1 X76.8011 Y63.873 E5690.88 F2000
G1 X75.4834 Y62.5553 F2000
G1 X70.3847 Y71.3866 E5700.05 F2000
G1 X69.067 Y70.0689 F2000
G1 X74.1657 Y61.2376 E5709.23 F2000
G1 X72.8481 Y59.9199 F2000
G1 X67.7493 Y68.7512 E5718.41 F2000
G1 X66.4316 Y67.4335 F2000
G1 X71.3512 Y58.9126 E5727.27 F2000
G1 X69.8503 Y57.9122 F2000
G1 X65.1139 Y66.1158 E5735.79 F2000
G1 X63.7962 Y64.7981 F2000
G1 X68.6737 Y56.3502 E5744.57 F2000
G1 X67.5773 Y54.6492 F2000
G1 X62.4785 Y63.4804 E5753.75 F2000
G1 X61.1609 Y62.1628 F2000
G1 X66.2596 Y53.3315 E5762.93 F2000
G1 X64.9419 Y52.0138 F2000
G1 X59.8432 Y60.8451 E5772.1 F2000
G1 X58.5255 Y59.5274 F2000
G1 X63.6242 Y50.6961 E5781.28 F2000
G1 X62.3065 Y49.3784 F2000
G1 X57.2078 Y58.2097 E5790.46 F2000
G1 X55.8901 Y56.892 F2000
G1 X60.9888 Y48.0607 E5799.64 F2000
G1 X58.3494 Y49.0323 F2000
G1 X54.5724 Y55.5743 E5806.44 F2000
G1 X54.5424 Y52.0262 F2000
G1 X56.3661 Y48.8675 E5809.72 F2000
G1 X54.6601 Y48.2224 F2000
G1 X53.9265 Y49.4931 E5811.04 F2000
G1 X52.7298 Y47.9657 F2000
G1 X53.229 Y47.1012 E5811.94 F2000
G1 X51.201 Y47.0137 F2000
G1 X52.2447 Y45.206 E5813.81 F2000
G1 X49.4521 Y46.4429 F2000
G1 X52.0327 Y41.9732 E5818.46 F2000
G1 X51.4026 Y39.4645 F2000
G1 X47.2984 Y46.5732 E5825.85 F2000
G1 X45.3486 Y46.3505 F2000
G1 X50.0849 Y38.1468 E5834.37 F2000
G1 X48.7673 Y36.8291 F2000
G1 X44.0309 Y45.0328 E5842.9 F2000
G1 X42.7132 Y43.7151 F2000
G1 X47.4496 Y35.5114 E5851.42 F2000
G1 X46.1319 Y34.1937 F2000
G1 X41.3955 Y42.3974 E5859.95 F2000
G1 X40.0778 Y41.0797 F2000
G1 X44.8142 Y32.876 E5868.47 F2000
G1 X43.4965 Y31.5583 F2000
G1 X38.7601 Y39.762 E5877 F2000
G1 X37.4424 Y38.4443 F2000
G1 X42.1788 Y30.2407 E5885.53 F2000
G1 X40.8611 Y28.923 F2000
G1 X36.1247 Y37.1266 E5894.05 F2000
G1 X34.807 Y35.8089 F2000
G1 X36.1975 Y33.4006 E5896.55 F2000
G1 X89.6157 Y77.6775 F2000
G1 X84.8793 Y85.8812 E5905.08 F2000
G1 X86.197 Y87.1989 F2000
G1 X90.9334 Y78.9952 E5913.6 F2000
G1 X92.2511 Y80.3129 F2000
G1 X87.5147 Y88.5166 E5922.13 F2000
G1 X88.8324 Y89.8343 F2000
G1 X93.5688 Y81.6306 E5930.66 F2000
G1 X94.8865 Y82.9483 F2000
G1 X90.1501 Y91.152 E5939.18 F2000
G1 X91.4678 Y92.4697 F2000
G1 X96.2041 Y84.266 E5947.71 F2000
G1 X97.5218 Y85.5837 F2000
G1 X94.1318 Y91.4554 E5953.81 F2000
G1 F70
G1 Z1.65 F70

G1 X94.4248 Y91.1624 F2000
G1 X90.1605 E5957.65 F2000
G1 X91.9604 Y92.9624 F2000
G1 X92.6248 E5958.24 F2000
G1 X92.2926 Y94.2138 F2000
G1 X79.6158 Y81.5369 E5974.38 F2000
G1 X80.3684 Y80.2919 E5975.69 F2000
G1 X80.5169 Y77.8374 E5977.9 F2000
G1 X79.5077 Y75.5951 E5980.11 F2000
G1 X77.572 Y74.0786 E5982.33 F2000
G1 X75.1533 Y73.6354 E5984.54 F2000
G1 X72.8057 Y74.3669 E5986.75 F2000
G1 X72.6257 Y74.5469 E5986.98 F2000
G1 X53.0458 Y54.9669 E6011.9 F2000
G1 X53.2257 Y54.787 E6012.13 F2000
G1 X53.9573 Y52.4393 E6014.35 F2000
G1 X53.514 Y50.0206 E6016.56 F2000
G1 X51.9975 Y48.085 E6018.77 F2000
G1 X49.7552 Y47.0758 E6020.98 F2000
G1 X47.3007 Y47.2243 E6023.2 F2000
G1 X46.0557 Y47.9769 E6024.51 F2000
G1 X33.3789 Y35.3 E6040.64 F2000
G1 X40.7681 Y27.9107 E6050.05 F2000
G1 X53.445 Y40.5876 E6066.18 F2000
G1 X52.6924 Y41.8326 E6067.49 F2000
G1 X52.5439 Y44.2871 E6069.7 F2000
G1 X53.5531 Y46.5294 E6071.92 F2000
G1 X55.4888 Y48.0459 E6074.13 F2000
G1 X57.9075 Y48.4892 E6076.34 F2000
G1 X60.2551 Y47.7576 E6078.55 F2000
G1 X60.828 Y47.1847 E6079.28 F2000
G1 X60.9723 Y47.1249 E6079.42 F2000
G1 X69.4368 Y55.5895 E6090.2 F2000
G1 X69.2495 Y56.0418 E6090.64 F2000
G1 X69.4972 Y56.6398 E6091.22 F2000
G1 X70.9528 Y58.0954 E6093.07 F2000
G1 X71.3021 Y58.2401 E6093.41 F2000
G1 X71.5508 Y58.2896 E6093.64 F2000
G1 X71.7996 Y58.2401 E6093.87 F2000
G1 X72.0031 Y58.1558 E6094.07 F2000
G1 X80.4677 Y66.6204 E6104.84 F2000
G1 X80.408 Y66.7646 E6104.98 F2000
G1 X79.835 Y67.3375 E6105.71 F2000
G1 X79.1035 Y69.6852 E6107.92 F2000
G1 X79.5467 Y72.1039 E6110.14 F2000
G1 X81.0632 Y74.0395 E6112.35 F2000
G1 X83.3056 Y75.0487 E6114.56 F2000
G1 X85.7601 Y74.9003 E6116.78 F2000
G1 X87.005 Y74.1476 E6118.08 F2000
G1 X99.6819 Y86.8245 E6134.22 F2000
G1 X92.2926 Y94.2138 E6143.62 F2000
G1 Y95.133 F2000
G1 X78.7961 Y81.6364 E6160.8 F2000
G1 X79.7293 Y80.0928 E6162.43 F2000
G1 X79.8584 Y77.9581 E6164.35 F2000
G1 X78.9807 Y76.008 E6166.28 F2000
G1 X77.2972 Y74.6891 E6168.2 F2000
G1 X75.1937 Y74.3036 E6170.13 F2000
G1 X73.152 Y74.9398 E6172.05 F2000
G1 X72.6257 Y75.4661 E6172.72 F2000
G1 X52.1265 Y54.9669 E6198.81 F2000
G1 X52.6528 Y54.4406 E6199.48 F2000
G1 X53.289 Y52.3989 E6201.41 F2000
G1 X52.9036 Y50.2954 E6203.33 F2000
G1 X51.5847 Y48.612 E6205.26 F2000
G1 X49.6345 Y47.7343 E6207.18 F2000
G1 X47.4999 Y47.8634 E6209.11 F2000
G1 X45.9562 Y48.7966 E6210.73 F2000
G1 X32.4596 Y35.3 E6227.91 F2000
G1 X40.7681 Y26.9915 E6238.48 F2000
G1 X54.2647 Y40.4881 E6255.66 F2000
G1 X53.3315 Y42.0318 E6257.28 F2000
G1 X53.2024 Y44.1664 E6259.21 F2000
G1 X54.0801 Y46.1166 E6261.13 F2000
G1 X55.7635 Y47.4354 E6263.06 F2000
G1 X57.867 Y47.8209 E6264.98 F2000
G1 X59.9088 Y47.1847 E6266.91 F2000
G1 X60.4951 Y46.5984 E6267.65 F2000
G1 X60.7498 Y46.5135 E6267.88 F2000
G1 X61.0149 Y46.2484 E6268.22 F2000
G1 X70.3134 Y55.5468 E6280.05 F2000
G1 X70.0482 Y55.812 E6280.39 F2000
G1 X69.953 Y56.0418 E6280.61 F2000
G1 X70.0482 Y56.2716 E6280.83 F2000
G1 X71.321 Y57.5444 E6282.46 F2000
G1 X71.5508 Y57.6396 E6282.68 F2000
G1 X71.7806 Y57.5444 E6282.9 F2000
G1 X72.0458 Y57.2792 E6283.24 F2000
G1 X81.3443 Y66.5777 E6295.07 F2000
G1 X81.0791 Y66.8428 E6295.41 F2000
G1 X80.9839 Y67.0727 E6295.64 F2000
G1 X80.4079 Y67.6839 E6296.38 F2000
G1 X79.7717 Y69.7256 E6298.31 F2000
G1 X80.1572 Y71.8291 E6300.23 F2000
G1 X81.4761 Y73.5126 E6302.16 F2000
G1 X83.4262 Y74.3903 E6304.08 F2000
G1 X85.5609 Y74.2611 E6306.01 F2000
G1 X87.1046 Y73.3279 E6307.63 F2000
G1 X100.601 Y86.8245 E6324.81 F2000
G1 X92.2926 Y95.133 E6335.38 F2000
G1 X96.2248 Y89.3624 F2000
G1 X88.3605 Y89.3624 E6342.46 F2000
G1 X86.5604 Y87.5624 F2000
G1 X98.0248 Y87.5624 E6352.78 F2000
G1 X97.7005 Y85.7624 F2000
G1 X84.7605 E6364.42 F2000
G1 X82.9605 Y83.9624 F2000
G1 X95.9005 E6376.07 F2000
G1 X94.1005 Y82.1624 F2000
G1 X81.1605 Y82.1624 E6387.72 F2000
G1 X81.0153 Y80.3624 F2000
G1 X92.3005 E6397.87 F2000
G1 X90.5005 Y78.5624 F2000
G1 X81.1242 E6406.31 F2000
G1 X80.7458 Y76.7624 F2000
G1 X88.7005 E6413.47 F2000
G1 X81.5299 Y74.9624 F2000
G1 X79.754 E6415.07 F2000
G1 X79.5503 Y73.1624 F2000
G1 X76.1782 E6418.1 F2000
G1 X74.4864 F2000
G1 X72.1605 E6420.2 F2000
G1 X70.3604 Y71.3624 F2000
G1 X78.75 E6427.75 F2000
G1 X78.4609 Y69.5624 F2000
G1 X68.5605 E6436.66 F2000
G1 X66.7605 Y67.7624 F2000
G1 X79.0218 E6447.69 F2000
G1 X78.8905 Y65.9624 F2000
G1 X64.9604 Y65.9624 E6460.23 F2000
G1 X63.1605 Y64.1624 F2000
G1 X77.0905 E6472.77 F2000
G1 X75.2905 Y62.3624 F2000
G1 X61.3605 Y62.3624 E6485.31 F2000
G1 X59.5605 Y60.5624 F2000
G1 X73.4905 Y60.5624 E6497.84 F2000
G1 X70.8644 Y58.7624 F2000
G1 X57.7605 E6509.64 F2000
G1 X55.9605 Y56.9624 F2000
G1 X68.9272 Y56.9624 E6521.31 F2000
G1 X68.0905 Y55.1624 F2000
G1 X54.1605 Y55.1624 E6533.84 F2000
G1 X54.3505 Y53.3624 F2000
G1 X66.2905 E6544.59 F2000
G1 X64.4905 Y51.5624 F2000
G1 X54.4574 Y51.5624 E6553.62 F2000
G1 X54.1275 Y49.7624 F2000
G1 X62.6905 E6561.33 F2000
G1 X54.3282 Y47.9624 F2000
G1 X52.7272 E6562.77 F2000
G1 X52.6751 Y46.1624 F2000
G1 X45.1605 Y46.1624 E6569.53 F2000
G1 X43.3605 Y44.3624 F2000
G1 X51.8882 E6577.2 F2000
G1 X51.997 Y42.5624 F2000
G1 X41.5604 E6586.6 F2000
G1 X39.7605 Y40.7624 F2000
G1 X52.5798 E6598.13 F2000
G1 X50.9005 Y38.9624 F2000
G1 X37.9604 Y38.9624 E6609.78 F2000
G1 X36.1604 Y37.1624 F2000
G1 X49.1005 E6621.43 F2000
G1 X47.3005 Y35.3624 F2000
G1 X34.3604 Y35.3624 E6633.07 F2000
G1 X36.0357 Y33.5624 F2000
G1 X45.5005 E6641.59 F2000
G1 X43.7005 Y31.7624 F2000
G1 X37.8357 Y31.7624 E6646.87 F2000
G1 X39.6357 Y29.9624 F2000
G1 X41.9005 Y29.9624 E6648.91 F2000
G1 F70
G1 Z1.95 F70

G1 X40.3981 Y29.2 F2000
G1 X50.5009 Y46.6986 E6667.09 F2000
G1 X49.7552 Y47.0758 F2000
G1 X47.3007 Y47.2243 E6669.31 F2000
G1 X46.0557 Y47.9769 E6670.61 F2000
G1 X33.3789 Y35.3 E6686.75 F2000
G1 X40.7681 Y27.9107 E6696.15 F2000
G1 X53.445 Y40.5876 E6712.29 F2000
G1 X52.6924 Y41.8326 E6713.6 F2000
G1 X52.5439 Y44.2871 E6715.81 F2000
G1 X53.5531 Y46.5294 E6718.02 F2000
G1 X55.4888 Y48.0459 E6720.24 F2000
G1 X57.9075 Y48.4892 E6722.45 F2000
G1 X60.2551 Y47.7576 E6724.66 F2000
G1 X60.828 Y47.1847 E6725.39 F2000
G1 X60.9723 Y47.1249 E6725.53 F2000
G1 X69.4368 Y55.5895 E6736.31 F2000
G1 X69.2495 Y56.0418 E6736.75 F2000
G1 X69.4972 Y56.6398 E6737.33 F2000
G1 X70.9528 Y58.0954 E6739.18 F2000
G1 X71.3021 Y58.2401 E6739.52 F2000
G1 X71.5508 Y58.2896 E6739.75 F2000
G1 X71.7996 Y58.2401 E6739.98 F2000
G1 X72.0031 Y58.1558 E6740.18 F2000
G1 X80.4677 Y66.6204 E6750.95 F2000
G1 X80.408 Y66.7646 E6751.09 F2000
G1 X79.835 Y67.3375 E6751.82 F2000
G1 X79.1035 Y69.6852 E6754.03 F2000
G1 X79.5467 Y72.1039 E6756.25 F2000
G1 X81.0632 Y74.0395 E6758.46 F2000
G1 X83.3056 Y75.0487 E6760.67 F2000
G1 X85.7601 Y74.9003 E6762.88 F2000
G1 X87.005 Y74.1476 E6764.19 F2000
G1 X99.6819 Y86.8245 E6780.33 F2000
G1 X92.2926 Y94.2138 E6789.73 F2000
G1 X79.6158 Y81.5369 E6805.87 F2000
G1 X80.3684 Y80.2919 E6807.18 F2000
G1 X80.5169 Y77.8374 E6809.39 F2000
G1 X79.5077 Y75.5951 E6811.6 F2000
G1 X77.572 Y74.0786 E6813.82 F2000
G1 X75.1533 Y73.6354 E6816.03 F2000
G1 X72.8057 Y74.3669 E6818.24 F2000
G1 X72.6257 Y74.5469 E6818.47 F2000
G1 X53.0458 Y54.9669 E6843.39 F2000
G1 X53.2257 Y54.787 E6843.62 F2000
G1 X53.9573 Y52.4393 E6845.83 F2000
G1 X53.514 Y50.0206 E6848.05 F2000
G1 X51.9975 Y48.085 E6850.26 F2000
G1 X49.7552 Y47.0758 E6852.47 F2000
G1 X49.6345 Y47.7343 F2000
G1 X47.4999 Y47.8634 E6854.4 F2000
G1 X45.9562 Y48.7966 E6856.02 F2000
G1 X32.4596 Y35.3 E6873.2 F2000
G1 X40.7681 Y26.9915 E6883.77 F2000
G1 X54.2647 Y40.4881 E6900.95 F2000
G1 X53.3315 Y42.0318 E6902.58 F2000
G1 X53.2024 Y44.1664 E6904.5 F2000
G1 X54.0801 Y46.1166 E6906.43 F2000
G1 X55.7635 Y47.4354 E6908.35 F2000
G1 X57.867 Y47.8209 E6910.28 F2000
G1 X59.9088 Y47.1847 E6912.2 F2000
G1 X60.4951 Y46.5984 E6912.95 F2000
G1 X60.7498 Y46.5135 E6913.17 F2000
G1 X61.0149 Y46.2484 E6913.51 F2000
G1 X70.3134 Y55.5468 E6925.34 F2000
G1 X70.0482 Y55.812 E6925.68 F2000
G1 X69.953 Y56.0418 E6925.9 F2000
G1 X70.0482 Y56.2716 E6926.13 F2000
G1 X71.321 Y57.5444 E6927.75 F2000
G1 X71.5508 Y57.6396 E6927.97 F2000
G1 X71.7806 Y57.5444 E6928.19 F2000
G1 X72.0458 Y57.2792 E6928.53 F2000
G1 X81.3443 Y66.5777 E6940.37 F2000
G1 X81.0791 Y66.8428 E6940.7 F2000
G1 X80.9839 Y67.0727 E6940.93 F2000
G1 X80.4079 Y67.6839 E6941.67 F2000
G1 X79.7717 Y69.7256 E6943.6 F2000
G1 X80.1572 Y71.8291 E6945.52 F2000
G1 X81.4761 Y73.5126 E6947.45 F2000
G1 X83.4262 Y74.3903 E6949.37 F2000
G1 X85.5609 Y74.2611 E6951.3 F2000
G1 X87.1046 Y73.3279 E6952.92 F2000
G1 X100.601 Y86.8245 E6970.1 F2000
G1 X92.2926 Y95.133 E6980.67 F2000
G1 X78.7961 Y81.6364 E6997.85 F2000
G1 X79.7293 Y80.0928 E6999.48 F2000
G1 X79.8584 Y77.9581 E7001.4 F2000
G1 X78.9807 Y76.008 E7003.33 F2000
G1 X77.2972 Y74.6891 E7005.25 F2000
G1 X75.1937 Y74.3036 E7007.18 F2000
G1 X73.152 Y74.9398 E7009.1 F2000
G1 X72.6257 Y75.4661 E7009.77 F2000
G1 X52.1265 Y54.9669 E7035.86 F2000
G1 X52.6528 Y54.4406 E7036.53 F2000
G1 X53.289 Y52.3989 E7038.46 F2000
G1 X52.9036 Y50.2954 E7040.38 F2000
G1 X51.5847 Y48.612 E7042.31 F2000
G1 X49.6345 Y47.7343 E7044.23 F2000
G1 X48.3146 Y46.5117 F2000
G1 X39.0804 Y30.5177 E7060.85 F2000
G1 X37.7627 Y31.8354 F2000
G1 X46.4914 Y46.9539 E7076.56 F2000
G1 X42.3105 Y43.3124 F2000
G1 X36.445 Y33.1531 E7087.12 F2000
G1 X35.1273 Y34.4708 F2000
G1 X37.3928 Y38.3947 E7091.2 F2000
G1 X44.3048 Y32.3667 F2000
G1 X61.9813 Y62.9832 E7123.02 F2000
G1 X57.0636 Y58.0655 F2000
G1 X54.3497 Y53.3649 E7127.9 F2000
G1 X55.8561 Y48.7741 F2000
G1 X66.899 Y67.9009 E7147.78 F2000
G1 X71.8167 Y72.8186 F2000
G1 X58.1242 Y49.1025 E7172.43 F2000
G1 X59.8857 Y48.5535 F2000
G1 X74.1535 Y73.2661 E7198.11 F2000
G1 X76.1713 Y73.1611 F2000
G1 X62.6233 Y49.6952 E7222.49 F2000
G1 X67.541 Y54.6129 F2000
G1 X78.9063 Y74.2983 E7242.95 F2000
G1 X81.3115 Y74.8641 F2000
G1 X91.4874 Y92.4893 E7261.27 F2000
G1 X93.3946 Y92.1926 F2000
G1 X83.8534 Y75.6668 E7278.44 F2000
G1 X85.8617 Y75.5453 F2000
G1 X94.7123 Y90.8749 E7294.37 F2000
G1 X96.03 Y89.5572 F2000
G1 X88.564 Y76.6259 E7307.81 F2000
G1 X93.4817 Y81.5436 F2000
G1 X97.3477 Y88.2395 E7314.77 F2000
G1 X98.6653 Y86.9218 F2000
G1 X98.3994 Y86.4612 E7315.25 F2000
G1 X86.5697 Y87.5716 F2000
G1 X81.1473 Y78.1798 E7325.01 F2000
G1 X80.6985 Y81.0023 F2000
G1 X81.652 Y82.654 E7326.73 F2000
G1 X78.499 Y69.9928 F2000
G1 X72.4587 Y59.5306 E7337.6 F2000
G1 X77.3764 Y64.4482 F2000
G1 X79.1158 Y67.461 E7340.73 F2000
G1 X52.0229 Y42.1348 F2000
G1 X49.2225 Y37.2844 E7345.77 F2000
G1 F70
G1 Z2.25 F70

G1 X49.4992 Y37.561 F2000
G1 X44.7628 Y45.7647 E7354.3 F2000
G1 X46.0805 Y47.0824 F2000
G1 X50.8168 Y38.8787 E7362.82 F2000
G1 X52.1345 Y40.1964 F2000
G1 X48.4947 Y46.5008 E7369.37 F2000
G1 X49.7552 Y47.0758 F2000
G1 X47.3007 Y47.2243 E7371.59 F2000
G1 X46.0557 Y47.9769 E7372.89 F2000
G1 X33.3789 Y35.3 E7389.03 F2000
G1 X40.7681 Y27.9107 E7398.43 F2000
G1 X53.445 Y40.5876 E7414.57 F2000
G1 X52.6924 Y41.8326 E7415.88 F2000
G1 X52.5439 Y44.2871 E7418.09 F2000
G1 X53.5531 Y46.5294 E7420.3 F2000
G1 X55.4888 Y48.0459 E7422.52 F2000
G1 X57.9075 Y48.4892 E7424.73 F2000
G1 X60.2551 Y47.7576 E7426.94 F2000
G1 X60.828 Y47.1847 E7427.67 F2000
G1 X60.9723 Y47.1249 E7427.81 F2000
G1 X69.4368 Y55.5895 E7438.59 F2000
G1 X69.2495 Y56.0418 E7439.03 F2000
G1 X69.4972 Y56.6398 E7439.61 F2000
G1 X70.9528 Y58.0954 E7441.46 F2000
G1 X71.3021 Y58.2401 E7441.8 F2000
G1 X71.5508 Y58.2896 E7442.03 F2000
G1 X71.7996 Y58.2401 E7442.26 F2000
G1 X72.0031 Y58.1558 E7442.46 F2000
G1 X80.4677 Y66.6204 E7453.23 F2000
G1 X80.408 Y66.7646 E7453.37 F2000
G1 X79.835 Y67.3375 E7454.1 F2000
G1 X79.1035 Y69.6852 E7456.31 F2000
G1 X79.5467 Y72.1039 E7458.53 F2000
G1 X81.0632 Y74.0395 E7460.74 F2000
G1 X83.3056 Y75.0487 E7462.95 F2000
G1 X85.7601 Y74.9003 E7465.16 F2000
G1 X87.005 Y74.1476 E7466.47 F2000
G1 X99.6819 Y86.8245 E7482.61 F2000
G1 X92.2926 Y94.2138 E7492.01 F2000
G1 X79.6158 Y81.5369 E7508.15 F2000
G1 X80.3684 Y80.2919 E7509.46 F2000
G1 X80.5169 Y77.8374 E7511.67 F2000
G1 X79.5077 Y75.5951 E7513.88 F2000
G1 X77.572 Y74.0786 E7516.1 F2000
G1 X75.1533 Y73.6354 E7518.31 F2000
G1 X72.8057 Y74.3669 E7520.52 F2000
G1 X72.6257 Y74.5469 E7520.75 F2000
G1 X53.0458 Y54.9669 E7545.67 F2000
G1 X53.2257 Y54.787 E7545.9 F2000
G1 X53.9573 Y52.4393 E7548.11 F2000
G1 X53.514 Y50.0206 E7550.33 F2000
G1 X51.9975 Y48.085 E7552.54 F2000
G1 X49.7552 Y47.0758 E7554.75 F2000
G1 X49.6345 Y47.7343 F2000
G1 X47.4999 Y47.8634 E7556.68 F2000
G1 X45.9562 Y48.7966 E7558.3 F2000
G1 X32.4596 Y35.3 E7575.48 F2000
G1 X40.7681 Y26.9915 E7586.05 F2000
G1 X54.2647 Y40.4881 E7603.23 F2000
G1 X53.3315 Y42.0318 E7604.86 F2000
G1 X53.2024 Y44.1664 E7606.78 F2000
G1 X54.0801 Y46.1166 E7608.71 F2000
G1 X55.7635 Y47.4354 E7610.63 F2000
G1 X57.867 Y47.8209 E7612.56 F2000
G1 X59.9088 Y47.1847 E7614.48 F2000
G1 X60.4951 Y46.5984 E7615.23 F2000
G1 X60.7498 Y46.5135 E7615.45 F2000
G1 X61.0149 Y46.2484 E7615.79 F2000
G1 X70.3134 Y55.5468 E7627.62 F2000
G1 X70.0482 Y55.812 E7627.96 F2000
G1 X69.953 Y56.0418 E7628.18 F2000
G1 X70.0482 Y56.2716 E7628.41 F2000
G1 X71.321 Y57.5444 E7630.03 F2000
G1 X71.5508 Y57.6396 E7630.25 F2000
G1 X71.7806 Y57.5444 E7630.47 F2000
G1 X72.0458 Y57.2792 E7630.81 F2000
G1 X81.3443 Y66.5777 E7642.65 F2000
G1 X81.0791 Y66.8428 E7642.98 F2000
G1 X80.9839 Y67.0727 E7643.21 F2000
G1 X80.4079 Y67.6839 E7643.95 F2000
G1 X79.7717 Y69.7256 E7645.88 F2000
G1 X80.1572 Y71.8291 E7647.8 F2000
G1 X81.4761 Y73.5126 E7649.73 F2000
G1 X83.4262 Y74.3903 E7651.65 F2000
G1 X85.5609 Y74.2611 E7653.58 F2000
G1 X87.1046 Y73.3279 E7655.2 F2000
G1 X100.601 Y86.8245 E7672.38 F2000
G1 X92.2926 Y95.133 E7682.96 F2000
G1 X78.7961 Y81.6364 E7700.13 F2000
G1 X79.7293 Y80.0928 E7701.76 F2000
G1 X79.8584 Y77.9581 E7703.68 F2000
G1 X78.9807 Y76.008 E7705.61 F2000
G1 X77.2972 Y74.6891 E7707.53 F2000
G1 X75.1937 Y74.3036 E7709.46 F2000
G1 X73.152 Y74.9398 E7711.38 F2000
G1 X72.6257 Y75.4661 E7712.05 F2000
G1 X52.1265 Y54.9669 E7738.14 F2000
G1 X52.6528 Y54.4406 E7738.81 F2000
G1 X53.289 Y52.3989 E7740.74 F2000
G1 X52.9036 Y50.2954 E7742.66 F2000
G1 X51.5847 Y48.612 E7744.59 F2000
G1 X49.6345 Y47.7343 E7746.51 F2000
G1 X50.4676 Y46.6836 F2000
G1 X51.8976 Y44.2068 E7749.08 F2000
G1 X52.7504 Y46.3297 F2000
G1 X52.1174 Y47.4261 E7750.22 F2000
G1 X53.3945 Y48.8141 F2000
G1 X54.0239 Y47.724 E7751.36 F2000
G1 X55.5305 Y48.7144 F2000
G1 X54.3198 Y50.8114 E7753.54 F2000
G1 X57.4101 Y49.0588 F2000
G1 X53.9866 Y54.9885 E7759.7 F2000
G1 X55.3043 Y56.3062 F2000
G1 X59.7572 Y48.5936 E7767.71 F2000
G1 X61.7207 Y48.7926 F2000
G1 X56.622 Y57.6239 E7776.89 F2000
G1 X57.9397 Y58.9416 F2000
G1 X63.0384 Y50.1103 E7786.07 F2000
G1 X64.3561 Y51.428 F2000
G1 X59.2574 Y60.2593 E7795.25 F2000
G1 X60.5751 Y61.577 F2000
G1 X65.6738 Y52.7457 E7804.42 F2000
G1 X66.9915 Y54.0634 F2000
G1 X61.8928 Y62.8947 E7813.6 F2000
G1 X63.2104 Y64.2123 F2000
G1 X68.3092 Y55.3811 E7822.78 F2000
G1 X69.2645 Y57.3264 F2000
G1 X64.5281 Y65.53 E7831.31 F2000
G1 X65.8458 Y66.8477 F2000
G1 X70.5822 Y58.6441 E7839.83 F2000
G1 X72.2623 Y59.3341 F2000
G1 X67.1635 Y68.1654 E7849.01 F2000
G1 X68.4812 Y69.4831 F2000
G1 X73.5799 Y60.6518 E7858.19 F2000
G1 X74.8976 Y61.9695 F2000
G1 X69.7989 Y70.8008 E7867.36 F2000
G1 X71.1166 Y72.1185 F2000
G1 X76.2153 Y63.2872 E7876.54 F2000
G1 X77.533 Y64.6049 F2000
G1 X72.4343 Y73.4362 E7885.72 F2000
G1 X74.7113 Y73.0923 F2000
G1 X78.8507 Y65.9226 E7893.17 F2000
G1 X78.5184 Y70.0982 F2000
G1 X76.6947 Y73.257 E7896.45 F2000
G1 X78.4007 Y73.9021 F2000
G1 X79.1343 Y72.6314 E7897.77 F2000
G1 X80.3309 Y74.1588 F2000
G1 X79.8318 Y75.0233 E7898.67 F2000
G1 X81.8597 Y75.1108 F2000
G1 X80.8161 Y76.9185 E7900.55 F2000
G1 X83.6087 Y75.6816 F2000
G1 X81.0281 Y80.1513 E7905.2 F2000
G1 X81.6581 Y82.66 F2000
G1 X85.7623 Y75.5513 E7912.58 F2000
G1 X87.7122 Y75.774 F2000
G1 X82.9758 Y83.9777 E7921.11 F2000
G1 X84.2935 Y85.2954 F2000
G1 X89.0299 Y77.0917 E7929.63 F2000
G1 X90.3476 Y78.4094 F2000
G1 X85.6112 Y86.6131 E7938.16 F2000
G1 X86.9289 Y87.9308 F2000
G1 X91.6653 Y79.7271 E7946.69 F2000
G1 X92.983 Y81.0448 F2000
G1 X88.2466 Y89.2485 E7955.21 F2000
G1 X89.5643 Y90.5662 F2000
G1 X94.3007 Y82.3625 E7963.74 F2000
G1 X95.6183 Y83.6802 F2000
G1 X90.882 Y91.8839 E7972.26 F2000
G1 X92.1996 Y93.2016 F2000
G1 X96.936 Y84.9979 E7980.79 F2000
G1 X98.2537 Y86.3156 F2000
G1 X96.8633 Y88.7239 E7983.29 F2000
G1 X43.4451 Y44.447 F2000
G1 X48.1815 Y36.2433 E7991.81 F2000
G1 X46.8638 Y34.9256 F2000
G1 X42.1274 Y43.1293 E8000.34 F2000
G1 X40.8097 Y41.8116 F2000
G1 X45.5461 Y33.6079 E8008.87 F2000
G1 X44.2284 Y32.2902 F2000
G1 X39.492 Y40.4939 E8017.39 F2000
G1 X38.1743 Y39.1762 F2000
G1 X42.9107 Y30.9725 E8025.92 F2000
G1 X41.593 Y29.6549 F2000
G1 X36.8566 Y37.8585 E8034.44 F2000
G1 X35.5389 Y36.5408 F2000
G1 X38.929 Y30.6691 E8040.54 F2000
G1 F70
G1 Z2.55 F70

G1 X38.6359 Y30.9622 F2000
G1 X42.9003 Y30.9622 E8044.38 F2000
G1 X44.7003 Y32.7622 F2000
G1 X36.8359 E8051.46 F2000
G1 X35.0359 Y34.5622 F2000
G1 X46.5003 E8061.78 F2000
G1 X48.3003 Y36.3622 F2000
G1 X35.3602 E8073.42 F2000
G1 X33.3789 Y35.3 F2000
G1 X46.0557 Y47.9769 E8089.56 F2000
G1 X47.3007 Y47.2243 E8090.87 F2000
G1 X49.7552 Y47.0758 E8093.08 F2000
G1 X51.9975 Y48.085 E8095.29 F2000
G1 X53.514 Y50.0206 E8097.51 F2000
G1 X53.9573 Y52.4393 E8099.72 F2000
G1 X53.2257 Y54.787 E8101.93 F2000
G1 X53.0458 Y54.9669 E8102.16 F2000
G1 X72.6257 Y74.5469 E8127.08 F2000
G1 X72.8057 Y74.3669 E8127.31 F2000
G1 X75.1533 Y73.6354 E8129.52 F2000
G1 X77.572 Y74.0786 E8131.74 F2000
G1 X79.5077 Y75.5951 E8133.95 F2000
G1 X80.5169 Y77.8374 E8136.16 F2000
G1 X80.3684 Y80.2919 E8138.38 F2000
G1 X79.6158 Y81.5369 E8139.69 F2000
G1 X92.2926 Y94.2138 E8155.82 F2000
G1 X99.6819 Y86.8245 E8165.23 F2000
G1 X87.005 Y74.1476 E8181.36 F2000
G1 X85.7601 Y74.9003 E8182.67 F2000
G1 X83.3056 Y75.0487 E8184.88 F2000
G1 X81.0632 Y74.0395 E8187.1 F2000
G1 X79.5467 Y72.1039 E8189.31 F2000
G1 X79.1035 Y69.6852 E8191.52 F2000
G1 X79.835 Y67.3375 E8193.73 F2000
G1 X80.408 Y66.7646 E8194.46 F2000
G1 X80.4677 Y66.6204 E8194.6 F2000
G1 X72.0031 Y58.1558 E8205.38 F2000
G1 X71.7996 Y58.2401 E8205.58 F2000
G1 X71.5508 Y58.2896 E8205.8 F2000
G1 X71.3021 Y58.2401 E8206.03 F2000
G1 X70.9528 Y58.0954 E8206.37 F2000
G1 X69.4972 Y56.6398 E8208.23 F2000
G1 X69.2495 Y56.0418 E8208.81 F2000
G1 X69.4368 Y55.5895 E8209.25 F2000
G1 X60.9723 Y47.1249 E8220.02 F2000
G1 X60.828 Y47.1847 E8220.16 F2000
G1 X60.2551 Y47.7576 E8220.89 F2000
G1 X57.9075 Y48.4892 E8223.11 F2000
G1 X55.4888 Y48.0459 E8225.32 F2000
G1 X53.5531 Y46.5294 E8227.53 F2000
G1 X52.5439 Y44.2871 E8229.74 F2000
G1 X52.6924 Y41.8326 E8231.96 F2000
G1 X53.445 Y40.5876 E8233.27 F2000
G1 X40.7681 Y27.9107 E8249.4 F2000
G1 X33.3789 Y35.3 E8258.81 F2000
G1 X32.4596 F2000
G1 X45.9562 Y48.7966 E8275.99 F2000
G1 X47.4999 Y47.8634 E8277.61 F2000
G1 X49.6345 Y47.7343 E8279.53 F2000
G1 X51.5847 Y48.612 E8281.46 F2000
G1 X52.9036 Y50.2954 E8283.38 F2000
G1 X53.289 Y52.3989 E8285.31 F2000
G1 X52.6528 Y54.4406 E8287.23 F2000
G1 X52.1265 Y54.9669 E8287.9 F2000
G1 X72.6257 Y75.4661 E8313.99 F2000
G1 X73.152 Y74.9398 E8314.66 F2000
G1 X75.1937 Y74.3036 E8316.59 F2000
G1 X77.2972 Y74.6891 E8318.51 F2000
G1 X78.9807 Y76.008 E8320.44 F2000
G1 X79.8584 Y77.9581 E8322.36 F2000
G1 X79.7293 Y80.0928 E8324.29 F2000
G1 X78.7961 Y81.6364 E8325.91 F2000
G1 X92.2926 Y95.133 E8343.09 F2000
G1 X100.601 Y86.8245 E8353.66 F2000
G1 X87.1046 Y73.3279 E8370.84 F2000
G1 X85.5609 Y74.2611 E8372.47 F2000
G1 X83.4262 Y74.3903 E8374.39 F2000
G1 X81.4761 Y73.5126 E8376.32 F2000
G1 X80.1572 Y71.8291 E8378.24 F2000
G1 X79.7717 Y69.7256 E8380.17 F2000
G1 X80.4079 Y67.6839 E8382.09 F2000
G1 X80.9942 Y67.0976 E8382.84 F2000
G1 X81.0791 Y66.8428 E8383.06 F2000
G1 X81.3443 Y66.5777 E8383.4 F2000
G1 X72.0458 Y57.2792 E8395.23 F2000
G1 X71.7806 Y57.5444 E8395.57 F2000
G1 X71.5508 Y57.6396 E8395.79 F2000
G1 X71.321 Y57.5444 E8396.02 F2000
G1 X70.0482 Y56.2716 E8397.64 F2000
G1 X69.953 Y56.0418 E8397.86 F2000
G1 X70.0482 Y55.812 E8398.08 F2000
G1 X70.3134 Y55.5468 E8398.42 F2000
G1 X61.0149 Y46.2484 E8410.26 F2000
G1 X60.7498 Y46.5135 E8410.6 F2000
G1 X60.52 Y46.6087 E8410.82 F2000
G1 X59.9088 Y47.1847 E8411.57 F2000
G1 X57.867 Y47.8209 E8413.49 F2000
G1 X55.7635 Y47.4354 E8415.42 F2000
G1 X54.0801 Y46.1166 E8417.34 F2000
G1 X53.2024 Y44.1664 E8419.26 F2000
G1 X53.3315 Y42.0318 E8421.19 F2000
G1 X54.2647 Y40.4881 E8422.81 F2000
G1 X40.7681 Y26.9915 E8439.99 F2000
G1 X32.4596 Y35.3 E8450.57 F2000
G1 X37.1602 Y38.1622 F2000
G1 X50.1003 E8462.21 F2000
G1 X51.9003 Y39.9622 F2000
G1 X38.9603 E8473.86 F2000
G1 X40.7602 Y41.7621 F2000
G1 X52.0455 E8484.02 F2000
G1 X51.9366 Y43.5621 F2000
G1 X42.5602 E8492.45 F2000
G1 X44.3602 Y45.3622 F2000
G1 X52.315 E8499.61 F2000
G1 X51.5309 Y47.1622 F2000
G1 X53.3068 E8501.21 F2000
G1 X53.5105 Y48.9622 F2000
G1 X56.8825 E8504.25 F2000
G1 X58.5744 F2000
G1 X61.8903 E8507.23 F2000
G1 X63.6903 Y50.7621 F2000
G1 X54.3107 E8515.67 F2000
G1 X54.5998 Y52.5621 F2000
G1 X65.4902 E8525.47 F2000
G1 X67.2903 Y54.3622 F2000
G1 X54.0389 E8537.4 F2000
G1 X55.1603 Y56.1622 F2000
G1 X68.5958 Y56.1622 E8549.49 F2000
G1 X69.9003 Y57.9622 F2000
G1 X56.9603 Y57.9622 E8561.14 F2000
G1 X58.7603 Y59.7621 F2000
G1 X72.6903 Y59.7622 E8573.68 F2000
G1 X74.4903 Y61.5622 F2000
G1 X60.5603 E8586.21 F2000
G1 X62.3603 Y63.3622 F2000
G1 X76.2903 E8598.75 F2000
G1 X78.0903 Y65.1622 F2000
G1 X64.1602 Y65.1621 E8611.29 F2000
G1 X65.9603 Y66.9622 F2000
G1 X79.2912 E8623.29 F2000
G1 X78.7103 Y68.7622 F2000
G1 X67.7603 E8633.14 F2000
G1 X69.5602 Y70.5622 F2000
G1 X78.6034 E8641.28 F2000
G1 X78.9332 Y72.3622 F2000
G1 X71.3602 E8648.09 F2000
G1 X78.7326 Y74.1622 F2000
G1 X80.3336 E8649.54 F2000
G1 X80.3857 Y75.9622 F2000
G1 X87.9003 E8656.3 F2000
G1 X89.7003 Y77.7622 F2000
G1 X81.1726 E8663.97 F2000
G1 X81.0637 Y79.5622 F2000
G1 X91.5003 E8673.37 F2000
G1 X93.3003 Y81.3622 F2000
G1 X80.481 E8684.9 F2000
G1 X82.1602 Y83.1622 F2000
G1 X95.1003 E8696.55 F2000
G1 X96.9003 Y84.9622 F2000
G1 X83.9602 E8708.2 F2000
G1 X85.7602 Y86.7622 F2000
G1 X98.7003 E8719.84 F2000
G1 X97.025 Y88.5621 F2000
G1 X87.5602 E8728.36 F2000
G1 X89.3602 Y90.3622 F2000
G1 X95.225 E8733.64 F2000
G1 X93.425 Y92.1621 F2000
G1 X91.1602 E8735.68 F2000
G1 X41.1003 Y29.1622 F2000
G1 X40.4359 E8736.28 F2000
G1 F70
G1 Z2.85 F70

G1 X39.6662 Y29.9319 F2000
G1 X49.2074 Y46.4577 E8753.45 F2000
G1 X49.7552 Y47.0758 F2000
G1 X47.3007 Y47.2243 E8755.66 F2000
G1 X46.0557 Y47.9769 E8756.97 F2000
G1 X33.3789 Y35.3 E8773.11 F2000
G1 X40.7681 Y27.9107 E8782.51 F2000
G1 X53.445 Y40.5876 E8798.65 F2000
G1 X52.6924 Y41.8326 E8799.96 F2000
G1 X52.5439 Y44.2871 E8802.17 F2000
G1 X53.5531 Y46.5294 E8804.38 F2000
G1 X55.4888 Y48.0459 E8806.59 F2000
G1 X57.9075 Y48.4892 E8808.81 F2000
G1 X60.2551 Y47.7576 E8811.02 F2000
G1 X60.828 Y47.1847 E8811.75 F2000
G1 X60.9723 Y47.1249 E8811.89 F2000
G1 X69.4368 Y55.5895 E8822.66 F2000
G1 X69.2495 Y56.0418 E8823.1 F2000
G1 X69.4972 Y56.6398 E8823.69 F2000
G1 X70.9528 Y58.0954 E8825.54 F2000
G1 X71.3021 Y58.2401 E8825.88 F2000
G1 X71.5508 Y58.2896 E8826.11 F2000
G1 X71.7996 Y58.2401 E8826.34 F2000
G1 X72.0031 Y58.1558 E8826.54 F2000
G1 X80.4677 Y66.6204 E8837.31 F2000
G1 X80.408 Y66.7646 E8837.45 F2000
G1 X79.835 Y67.3375 E8838.18 F2000
G1 X79.1035 Y69.6852 E8840.39 F2000
G1 X79.5467 Y72.1039 E8842.6 F2000
G1 X81.0632 Y74.0395 E8844.82 F2000
G1 X83.3056 Y75.0487 E8847.03 F2000
G1 X85.7601 Y74.9003 E8849.24 F2000
G1 X87.005 Y74.1476 E8850.55 F2000
G1 X99.6819 Y86.8245 E8866.69 F2000
G1 X92.2926 Y94.2138 E8876.09 F2000
G1 X79.6158 Y81.5369 E8892.23 F2000
G1 X80.3684 Y80.2919 E8893.54 F2000
G1 X80.5169 Y77.8374 E8895.75 F2000
G1 X79.5077 Y75.5951 E8897.96 F2000
G1 X77.572 Y74.0786 E8900.18 F2000
G1 X75.1533 Y73.6354 E8902.39 F2000
G1 X72.8057 Y74.3669 E8904.6 F2000
G1 X72.6257 Y74.5469 E8904.83 F2000
G1 X53.0458 Y54.9669 E8929.75 F2000
G1 X53.2257 Y54.787 E8929.98 F2000
G1 X53.9573 Y52.4393 E8932.19 F2000
G1 X53.514 Y50.0206 E8934.41 F2000
G1 X51.9975 Y48.085 E8936.62 F2000
G1 X49.7552 Y47.0758 E8938.83 F2000
G1 X49.6345 Y47.7343 F2000
G1 X47.4999 Y47.8634 E8940.76 F2000
G1 X45.9562 Y48.7966 E8942.38 F2000
G1 X32.4596 Y35.3 E8959.56 F2000
G1 X40.7681 Y26.9915 E8970.13 F2000
G1 X54.2647 Y40.4881 E8987.31 F2000
G1 X53.3315 Y42.0318 E8988.94 F2000
G1 X53.2024 Y44.1664 E8990.86 F2000
G1 X54.0801 Y46.1166 E8992.79 F2000
G1 X55.7635 Y47.4354 E8994.71 F2000
G1 X57.867 Y47.8209 E8996.64 F2000
G1 X59.9088 Y47.1847 E8998.56 F2000
G1 X60.4951 Y46.5984 E8999.31 F2000
G1 X60.7498 Y46.5135 E8999.53 F2000
G1 X61.0149 Y46.2484 E8999.87 F2000
G1 X70.3134 Y55.5468 E9011.7 F2000
G1 X70.0482 Y55.812 E9012.04 F2000
G1 X69.953 Y56.0418 E9012.26 F2000
G1 X70.0482 Y56.2716 E9012.49 F2000
G1 X71.321 Y57.5444 E9014.11 F2000
G1 X71.5508 Y57.6396 E9014.33 F2000
G1 X71.7806 Y57.5444 E9014.56 F2000
G1 X72.0458 Y57.2792 E9014.89 F2000
G1 X81.3443 Y66.5777 E9026.73 F2000
G1 X81.0791 Y66.8428 E9027.07 F2000
G1 X80.9839 Y67.0727 E9027.29 F2000
G1 X80.4079 Y67.6839 E9028.04 F2000
G1 X79.7717 Y69.7256 E9029.96 F2000
G1 X80.1572 Y71.8291 E9031.89 F2000
G1 X81.4761 Y73.5126 E9033.81 F2000
G1 X83.4262 Y74.3903 E9035.74 F2000
G1 X85.5609 Y74.2611 E9037.66 F2000
G1 X87.1046 Y73.3279 E9039.28 F2000
G1 X100.601 Y86.8245 E9056.46 F2000
G1 X92.2926 Y95.133 E9067.04 F2000
G1 X78.7961 Y81.6364 E9084.22 F2000
G1 X79.7293 Y80.0928 E9085.84 F2000
G1 X79.8584 Y77.9581 E9087.76 F2000
G1 X78.9807 Y76.008 E9089.69 F2000
G1 X77.2972 Y74.6891 E9091.61 F2000
G1 X75.1937 Y74.3036 E9093.54 F2000
G1 X73.152 Y74.9398 E9095.46 F2000
G1 X72.6257 Y75.4661 E9096.13 F2000
G1 X52.1265 Y54.9669 E9122.22 F2000
G1 X52.6528 Y54.4406 E9122.89 F2000
G1 X53.289 Y52.3989 E9124.82 F2000
G1 X52.9036 Y50.2954 E9126.74 F2000
G1 X51.5847 Y48.612 E9128.67 F2000
G1 X49.6345 Y47.7343 E9130.59 F2000
G1 X51.7493 Y47.2604 F2000
G1 X41.5733 Y29.6352 E9148.91 F2000
G1 X38.3485 Y31.2496 F2000
G1 X47.1991 Y46.5792 E9164.84 F2000
G1 X44.4967 Y45.4986 F2000
G1 X37.0308 Y32.5673 E9178.28 F2000
G1 X35.7131 Y33.885 F2000
G1 X39.579 Y40.5809 E9185.24 F2000
G1 X34.6613 Y35.6632 F2000
G1 X34.3954 Y35.2027 E9185.72 F2000
G1 X46.491 Y34.5529 F2000
G1 X51.9134 Y43.9447 E9195.48 F2000
G1 X52.3623 Y41.1222 F2000
G1 X51.4087 Y39.4706 E9197.19 F2000
G1 X54.1544 Y47.8262 F2000
G1 X64.1675 Y65.1694 E9215.22 F2000
G1 X69.0852 Y70.0871 F2000
G1 X56.8894 Y48.9634 E9237.17 F2000
G1 X58.9073 Y48.8584 F2000
G1 X73.1751 Y73.571 E9262.85 F2000
G1 X74.9366 Y73.0221 F2000
G1 X60.6518 Y48.2801 E9288.56 F2000
G1 X64.8095 Y51.8814 F2000
G1 X77.2047 Y73.3505 E9310.88 F2000
G1 X78.7111 Y68.7596 F2000
G1 X74.6449 Y61.7168 E9318.19 F2000
G1 X70.8595 Y58.7603 F2000
G1 X88.756 Y89.7579 E9350.41 F2000
G1 X92.6627 Y92.9245 F2000
G1 X82.5599 Y75.4259 E9368.59 F2000
G1 X84.7462 Y75.6128 F2000
G1 X93.9804 Y91.6068 E9385.21 F2000
G1 X95.2981 Y90.2891 F2000
G1 X86.5694 Y75.1706 E9400.93 F2000
G1 X90.7503 Y78.8121 F2000
G1 X96.6158 Y88.9714 E9411.48 F2000
G1 X97.9334 Y87.6537 F2000
G1 X95.668 Y83.7298 E9415.56 F2000
G1 X83.8383 Y84.8402 F2000
G1 X81.0379 Y79.9897 E9420.6 F2000
G1 X79.5832 Y66.6702 F2000
G1 X59.2498 Y60.2517 F2000
G1 X54.5617 Y52.1318 E9429.04 F2000
G1 X53.945 Y54.6636 F2000
G1 X54.3321 Y55.334 E9429.74 F2000
G1 F70
G1 Z3.15 F70

G1 X54.5724 Y55.5743 F2000
G1 X58.3494 Y49.0323 E9436.54 F2000
G1 X57.9075 Y48.4892 F2000
G1 X60.2551 Y47.7576 E9438.75 F2000
G1 X60.828 Y47.1847 E9439.48 F2000
G1 X60.9723 Y47.1249 E9439.62 F2000
G1 X63.8058 Y49.9584 E9443.23 F2000
G1 X55.9215 Y57.8427 E9453.26 F2000
G1 X53.0458 Y54.9669 E9456.92 F2000
G1 X53.2257 Y54.787 E9457.15 F2000
G1 X53.9573 Y52.4393 E9459.36 F2000
G1 X53.514 Y50.0206 E9461.58 F2000
G1 X51.9975 Y48.085 E9463.79 F2000
G1 X49.7552 Y47.0758 E9466 F2000
G1 X47.3007 Y47.2243 E9468.22 F2000
G1 X46.0557 Y47.9769 E9469.53 F2000
G1 X33.3789 Y35.3 E9485.66 F2000
G1 X40.7681 Y27.9107 E9495.07 F2000
G1 X53.445 Y40.5876 E9511.2 F2000
G1 X52.6924 Y41.8326 E9512.51 F2000
G1 X52.5439 Y44.2871 E9514.72 F2000
G1 X53.5531 Y46.5294 E9516.94 F2000
G1 X55.4888 Y48.0459 E9519.15 F2000
G1 X57.9075 Y48.4892 E9521.36 F2000
G1 X57.867 Y47.8209 F2000
G1 X59.9088 Y47.1847 E9523.29 F2000
G1 X60.4951 Y46.5984 E9524.03 F2000
G1 X60.7498 Y46.5135 E9524.26 F2000
G1 X61.0149 Y46.2484 E9524.59 F2000
G1 X64.725 Y49.9584 E9529.32 F2000
G1 X55.9215 Y58.7619 E9540.52 F2000
G1 X52.1265 Y54.9669 E9545.35 F2000
G1 X52.6528 Y54.4406 E9546.02 F2000
G1 X53.289 Y52.3989 E9547.95 F2000
G1 X52.9036 Y50.2954 E9549.87 F2000
G1 X51.5847 Y48.612 E9551.79 F2000
G1 X49.6345 Y47.7343 E9553.72 F2000
G1 X47.4999 Y47.8634 E9555.64 F2000
G1 X45.9562 Y48.7966 E9557.27 F2000
G1 X32.4596 Y35.3 E9574.45 F2000
G1 X40.7681 Y26.9915 E9585.02 F2000
G1 X54.2647 Y40.4881 E9602.2 F2000
G1 X53.3315 Y42.0318 E9603.82 F2000
G1 X53.2024 Y44.1664 E9605.75 F2000
G1 X54.0801 Y46.1166 E9607.67 F2000
G1 X55.7635 Y47.4354 E9609.6 F2000
G1 X57.867 Y47.8209 E9611.52 F2000
G1 X56.3661 Y48.8675 F2000
G1 X54.5424 Y52.0262 E9614.8 F2000
G1 X53.9265 Y49.4931 F2000
G1 X54.6601 Y48.2224 E9616.13 F2000
G1 X53.229 Y47.1012 F2000
G1 X52.7298 Y47.9657 E9617.02 F2000
G1 X51.201 Y47.0137 F2000
G1 X52.2447 Y45.206 E9618.9 F2000
G1 X49.4521 Y46.4429 F2000
G1 X52.0327 Y41.9732 E9623.55 F2000
G1 X51.4026 Y39.4645 F2000
G1 X47.2984 Y46.5732 E9630.94 F2000
G1 X45.3486 Y46.3505 F2000
G1 X50.0849 Y38.1468 E9639.46 F2000
G1 X48.7673 Y36.8291 F2000
G1 X44.0309 Y45.0328 E9647.99 F2000
G1 X42.7132 Y43.7151 F2000
G1 X47.4496 Y35.5114 E9656.51 F2000
G1 X46.1319 Y34.1937 F2000
G1 X41.3955 Y42.3974 E9665.04 F2000
G1 X40.0778 Y41.0797 F2000
G1 X44.8142 Y32.876 E9673.56 F2000
G1 X43.4965 Y31.5583 F2000
G1 X38.7601 Y39.762 E9682.09 F2000
G1 X37.4424 Y38.4443 F2000
G1 X42.1788 Y30.2406 E9690.61 F2000
G1 X40.8611 Y28.923 F2000
G1 X36.1247 Y37.1266 E9699.14 F2000
G1 X34.807 Y35.8089 F2000
G1 X36.1975 Y33.4006 E9701.64 F2000
G1 X60.9888 Y48.0607 F2000
G1 X55.8901 Y56.892 E9710.82 F2000
G1 X57.7999 Y60.6403 F2000
G1 X66.6034 Y51.8368 E9722.02 F2000
G1 X70.3134 Y55.5468 E9726.75 F2000
G1 X70.0482 Y55.812 E9727.08 F2000
G1 X69.953 Y56.0418 E9727.31 F2000
G1 X70.0482 Y56.2716 E9727.53 F2000
G1 X71.321 Y57.5444 E9729.15 F2000
G1 X71.5508 Y57.6396 E9729.38 F2000
G1 X71.7806 Y57.5444 E9729.6 F2000
G1 X72.0458 Y57.2792 E9729.94 F2000
G1 X75.7559 Y60.9893 E9734.66 F2000
G1 X66.9524 Y69.7928 E9745.86 F2000
G1 X57.7999 Y60.6403 E9757.51 F2000
G1 X58.7191 F2000
G1 X66.6034 Y52.756 E9767.55 F2000
G1 X69.4368 Y55.5895 E9771.15 F2000
G1 X69.2495 Y56.0418 E9771.59 F2000
G1 X69.4972 Y56.6398 E9772.18 F2000
G1 X70.9528 Y58.0954 E9774.03 F2000
G1 X71.3021 Y58.2401 E9774.37 F2000
G1 X71.5508 Y58.2896 E9774.6 F2000
G1 X71.7996 Y58.2401 E9774.83 F2000
G1 X72.0031 Y58.1558 E9775.03 F2000
G1 X74.8366 Y60.9893 E9778.63 F2000
G1 X66.9524 Y68.8735 E9788.67 F2000
G1 X58.7191 Y60.6403 E9799.15 F2000
G1 X59.8432 Y60.8451 F2000
G1 X60.4027 Y59.8759 E9800.15 F2000
G1 X61.1609 Y62.1628 F2000
G1 X65.3204 Y54.9582 E9807.64 F2000
G1 X67.5773 Y54.6492 F2000
G1 X62.4785 Y63.4805 E9816.82 F2000
G1 X63.7962 Y64.7981 F2000
G1 X68.6737 Y56.3502 E9825.6 F2000
G1 X69.8503 Y57.9122 F2000
G1 X65.1139 Y66.1158 E9834.12 F2000
G1 X66.4316 Y67.4335 F2000
G1 X71.3512 Y58.9126 E9842.98 F2000
G1 X72.848 Y59.9199 F2000
G1 X69.9266 Y64.9801 E9848.24 F2000
G1 X74.525 Y67.8153 F2000
G1 X71.7024 Y72.7043 E9853.32 F2000
G1 X73.3036 Y73.5309 F2000
G1 X78.1188 Y65.1907 E9861.99 F2000
G1 X77.6342 Y63.7869 F2000
G1 X69.75 Y71.6711 E9872.02 F2000
G1 X72.6257 Y74.5469 E9875.68 F2000
G1 X72.8057 Y74.3669 E9875.91 F2000
G1 X75.1533 Y73.6354 E9878.12 F2000
G1 X77.572 Y74.0786 E9880.34 F2000
G1 X79.5077 Y75.5951 E9882.55 F2000
G1 X80.5169 Y77.8374 E9884.76 F2000
G1 X80.3684 Y80.2919 E9886.97 F2000
G1 X79.6158 Y81.5369 E9888.28 F2000
G1 X92.2926 Y94.2138 E9904.42 F2000
G1 X99.6819 Y86.8245 E9913.82 F2000
G1 X87.005 Y74.1476 E9929.96 F2000
G1 X85.7601 Y74.9003 E9931.27 F2000
G1 X83.3056 Y75.0487 E9933.48 F2000
G1 X81.0632 Y74.0395 E9935.69 F2000
G1 X79.5467 Y72.1039 E9937.91 F2000
G1 X79.1035 Y69.6852 E9940.12 F2000
G1 X79.835 Y67.3375 E9942.33 F2000
G1 X80.408 Y66.7646 E9943.06 F2000
G1 X80.4677 Y66.6204 E9943.2 F2000
G1 X77.6342 Y63.7869 E9946.81 F2000
G1 Y62.8676 F2000
G1 X68.8307 Y71.6711 E9958.01 F2000
G1 X72.6257 Y75.4661 E9962.84 F2000
G1 X73.152 Y74.9398 E9963.51 F2000
G1 X75.1937 Y74.3036 E9965.44 F2000
G1 X77.2972 Y74.6891 E9967.36 F2000
G1 X78.9807 Y76.008 E9969.29 F2000
G1 X79.8584 Y77.9581 E9971.21 F2000
G1 X79.7293 Y80.0928 E9973.14 F2000
G1 X78.7961 Y81.6364 E9974.76 F2000
G1 X92.2926 Y95.133 E9991.94 F2000
G1 X100.601 Y86.8245 E10002.5 F2000
G1 X87.1046 Y73.3279 E10019.7 F2000
G1 X85.5609 Y74.2611 E10021.3 F2000
G1 X83.4262 Y74.3903 E10023.2 F2000
G1 X81.4761 Y73.5126 E10025.2 F2000
G1 X80.1572 Y71.8291 E10027.1 F2000
G1 X79.7717 Y69.7256 E10029 F2000
G1 X80.4079 Y67.6839 E10030.9 F2000
G1 X80.9942 Y67.0976 E10031.7 F2000
G1 X81.0791 Y66.8428 E10031.9 F2000
G1 X81.3443 Y66.5777 E10032.2 F2000
G1 X77.6342 Y62.8676 E10037 F2000
G1 X79.4365 Y66.5084 F2000
G1 X75.6507 Y73.0657 E10043.8 F2000
G1 X77.5303 Y73.4101 F2000
G1 X78.741 Y71.3131 E10046 F2000
G1 X79.6663 Y73.3104 F2000
G1 X79.0369 Y74.4005 E10047.1 F2000
G1 X80.3104 Y75.7948 F2000
G1 X80.9434 Y74.6984 E10048.2 F2000
G1 X82.5932 Y75.4409 F2000
G1 X81.1632 Y77.9177 E10050.8 F2000
G1 X80.9262 Y81.9281 F2000
G1 X84.5661 Y75.6237 E10057.4 F2000
G1 X86.9803 Y75.0421 F2000
G1 X82.2439 Y83.2458 E10065.9 F2000
G1 X83.5616 Y84.5635 F2000
G1 X88.298 Y76.3598 E10074.4 F2000
G1 X89.6157 Y77.6775 F2000
G1 X84.8793 Y85.8812 E10082.9 F2000
G1 X86.197 Y87.1989 F2000
G1 X90.9334 Y78.9952 E10091.5 F2000
G1 X92.2511 Y80.3129 F2000
G1 X87.5147 Y88.5166 E10100 F2000
G1 X88.8324 Y89.8343 F2000
G1 X93.5688 Y81.6306 E10108.5 F2000
G1 X94.8865 Y82.9483 F2000
G1 X90.1501 Y91.152 E10117 F2000
G1 X91.4678 Y92.4697 F2000
G1 X96.2042 Y84.266 E10125.6 F2000
G1 X97.5218 Y85.5837 F2000
G1 X94.1318 Y91.4554 E10131.7 F2000
G1 X60.7219 Y52.123 F2000
G1 X62.3065 Y49.3784 E10134.5 F2000
G1 F70
G1 Z3.45 F70

G1 X62.2742 Y49.7624 F2000
G1 X54.1275 Y49.7624 E10141.9 F2000
G1 X53.514 Y50.0206 F2000
G1 X51.9975 Y48.085 E10144.1 F2000
G1 X49.7552 Y47.0758 E10146.3 F2000
G1 X47.3007 Y47.2243 E10148.5 F2000
G1 X46.0557 Y47.9769 E10149.8 F2000
G1 X33.3789 Y35.3 E10165.9 F2000
G1 X40.7681 Y27.9107 E10175.3 F2000
G1 X53.445 Y40.5876 E10191.5 F2000
G1 X52.6924 Y41.8326 E10192.8 F2000
G1 X52.5439 Y44.2871 E10195 F2000
G1 X53.5531 Y46.5294 E10197.2 F2000
G1 X55.4888 Y48.0459 E10199.4 F2000
G1 X57.9075 Y48.4892 E10201.6 F2000
G1 X60.2551 Y47.7576 E10203.8 F2000
G1 X60.828 Y47.1847 E10204.6 F2000
G1 X60.9723 Y47.1249 E10204.7 F2000
G1 X63.4016 Y49.5542 E10207.8 F2000
G1 X55.5173 Y57.4385 E10217.8 F2000
G1 X53.0458 Y54.9669 E10221 F2000
G1 X53.2257 Y54.787 E10221.2 F2000
G1 X53.9573 Y52.4393 E10223.4 F2000
G1 X53.514 Y50.0206 E10225.6 F2000
G1 X52.9036 Y50.2954 F2000
G1 X51.5847 Y48.612 E10227.6 F2000
G1 X49.6345 Y47.7343 E10229.5 F2000
G1 X47.4999 Y47.8634 E10231.4 F2000
G1 X45.9562 Y48.7966 E10233 F2000
G1 X32.4596 Y35.3 E10250.2 F2000
G1 X40.7681 Y26.9915 E10260.8 F2000
G1 X54.2647 Y40.4881 E10278 F2000
G1 X53.3315 Y42.0318 E10279.6 F2000
G1 X53.2024 Y44.1664 E10281.5 F2000
G1 X54.0801 Y46.1166 E10283.5 F2000
G1 X55.7635 Y47.4354 E10285.4 F2000
G1 X57.867 Y47.8209 E10287.3 F2000
G1 X59.9088 Y47.1847 E10289.2 F2000
G1 X60.4951 Y46.5984 E10290 F2000
G1 X60.7498 Y46.5135 E10290.2 F2000
G1 X61.0149 Y46.2484 E10290.5 F2000
G1 X64.3208 Y49.5542 E10294.7 F2000
G1 X55.5173 Y58.3577 E10305.9 F2000
G1 X52.1265 Y54.9669 E10310.3 F2000
G1 X52.6528 Y54.4406 E10310.9 F2000
G1 X53.289 Y52.3989 E10312.9 F2000
G1 X52.9036 Y50.2954 E10314.8 F2000
G1 X54.4574 Y51.5624 F2000
G1 X60.4742 E10320.2 F2000
G1 X58.6742 Y53.3624 F2000
G1 X54.3505 E10324.1 F2000
G1 X54.1605 Y55.1624 F2000
G1 X56.8742 Y55.1624 E10326.5 F2000
G1 X58.2041 Y61.0444 F2000
G1 X67.0075 Y52.241 E10337.7 F2000
G1 X70.3134 Y55.5468 E10341.9 F2000
G1 X70.0482 Y55.812 E10342.3 F2000
G1 X69.953 Y56.0418 E10342.5 F2000
G1 X70.0482 Y56.2716 E10342.7 F2000
G1 X71.321 Y57.5444 E10344.3 F2000
G1 X71.5508 Y57.6396 E10344.6 F2000
G1 X71.7806 Y57.5444 E10344.8 F2000
G1 X72.0458 Y57.2792 E10345.1 F2000
G1 X75.3517 Y60.5851 E10349.3 F2000
G1 X66.5482 Y69.3886 E10360.5 F2000
G1 X58.2041 Y61.0444 E10371.2 F2000
G1 X59.1233 F2000
G1 X67.0075 Y53.1602 E10381.2 F2000
G1 X69.4368 Y55.5895 E10384.3 F2000
G1 X69.2495 Y56.0418 E10384.7 F2000
G1 X69.4972 Y56.6398 E10385.3 F2000
G1 X70.9528 Y58.0954 E10387.2 F2000
G1 X71.3021 Y58.2401 E10387.5 F2000
G1 X71.5508 Y58.2896 E10387.7 F2000
G1 X71.7996 Y58.2401 E10388 F2000
G1 X72.0031 Y58.1558 E10388.2 F2000
G1 X74.4324 Y60.5851 E10391.3 F2000
G1 X66.5482 Y68.4693 E10401.3 F2000
G1 X59.1233 Y61.0444 E10410.7 F2000
G1 X60.5246 Y60.5624 F2000
G1 X73.4905 Y60.5624 E10422.4 F2000
G1 X71.7359 Y62.3624 F2000
G1 X61.3605 E10431.7 F2000
G1 X63.1605 Y64.1624 F2000
G1 X69.9359 Y64.1624 E10437.8 F2000
G1 X68.1359 Y65.9624 F2000
G1 X64.9604 Y65.9624 E10440.7 F2000
G1 X69.2349 Y72.0753 F2000
G1 X78.0384 Y63.2718 E10451.9 F2000
G1 X81.3443 Y66.5777 E10456.1 F2000
G1 X81.0791 Y66.8428 E10456.5 F2000
G1 X80.9839 Y67.0727 E10456.7 F2000
G1 X80.4079 Y67.6839 E10457.4 F2000
G1 X79.7717 Y69.7256 E10459.3 F2000
G1 X80.1572 Y71.8291 E10461.3 F2000
G1 X81.4761 Y73.5126 E10463.2 F2000
G1 X83.4262 Y74.3903 E10465.1 F2000
G1 X85.5609 Y74.2611 E10467 F2000
G1 X87.1046 Y73.3279 E10468.7 F2000
G1 X100.601 Y86.8245 E10485.9 F2000
G1 X92.2926 Y95.133 E10496.4 F2000
G1 X78.7961 Y81.6364 E10513.6 F2000
G1 X79.7293 Y80.0928 E10515.2 F2000
G1 X79.8584 Y77.9581 E10517.2 F2000
G1 X78.9807 Y76.008 E10519.1 F2000
G1 X77.2972 Y74.6891 E10521 F2000
G1 X75.1937 Y74.3036 E10522.9 F2000
G1 X73.152 Y74.9398 E10524.9 F2000
G1 X72.6257 Y75.4661 E10525.5 F2000
G1 X69.2349 Y72.0753 E10529.8 F2000
G1 X70.1542 F2000
G1 X78.0384 Y64.1911 E10539.9 F2000
G1 X80.4677 Y66.6204 E10543 F2000
G1 X80.408 Y66.7646 E10543.1 F2000
G1 X79.835 Y67.3375 E10543.8 F2000
G1 X79.1035 Y69.6852 E10546 F2000
G1 X79.5467 Y72.1039 E10548.3 F2000
G1 X81.0632 Y74.0395 E10550.5 F2000
G1 X83.3056 Y75.0487 E10552.7 F2000
G1 X85.7601 Y74.9003 E10554.9 F2000
G1 X87.005 Y74.1476 E10556.2 F2000
G1 X99.6819 Y86.8245 E10572.3 F2000
G1 X92.2926 Y94.2138 E10581.7 F2000
G1 X79.6158 Y81.5369 E10597.9 F2000
G1 X80.3684 Y80.2919 E10599.2 F2000
G1 X80.5169 Y77.8374 E10601.4 F2000
G1 X79.5077 Y75.5951 E10603.6 F2000
G1 X77.572 Y74.0786 E10605.8 F2000
G1 X75.1533 Y73.6354 E10608 F2000
G1 X72.8057 Y74.3669 E10610.3 F2000
G1 X72.6257 Y74.5469 E10610.5 F2000
G1 X70.1542 Y72.0753 E10613.6 F2000
G1 X71.7863 Y71.3624 F2000
G1 X78.75 E10619.9 F2000
G1 X78.4609 Y69.5624 F2000
G1 X73.5863 E10624.3 F2000
G1 X75.3864 Y67.7624 F2000
G1 X79.0218 E10627.6 F2000
G1 X78.8905 Y65.9624 F2000
G1 X77.1864 E10629.1 F2000
G1 X76.1782 Y73.1624 F2000
G1 X79.5503 E10632.1 F2000
G1 X79.754 Y74.9624 F2000
G1 X81.5299 E10633.7 F2000
G1 X80.7458 Y76.7624 F2000
G1 X88.7005 E10640.9 F2000
G1 X90.5005 Y78.5624 F2000
G1 X81.1242 Y78.5624 E10649.3 F2000
G1 X81.0153 Y80.3624 F2000
G1 X92.3005 Y80.3624 E10659.5 F2000
G1 X94.1005 Y82.1624 F2000
G1 X81.1605 Y82.1624 E10671.1 F2000
G1 X82.9605 Y83.9624 F2000
G1 X95.9005 Y83.9624 E10682.8 F2000
G1 X97.7005 Y85.7624 F2000
G1 X84.7605 Y85.7624 E10694.4 F2000
G1 X86.5605 Y87.5624 F2000
G1 X98.0248 Y87.5624 E10704.7 F2000
G1 X96.2248 Y89.3624 F2000
G1 X88.3605 E10711.8 F2000
G1 X90.1605 Y91.1624 F2000
G1 X94.4248 E10715.7 F2000
G1 X92.6248 Y92.9624 F2000
G1 X91.9605 E10716.3 F2000
G1 X74.4864 Y73.1624 F2000
G1 X72.1605 E10718.3 F2000
G1 X70.8644 Y58.7624 F2000
G1 X62.3246 E10726 F2000
G1 X64.1246 Y56.9624 F2000
G1 X68.9272 E10730.4 F2000
G1 X68.0905 Y55.1624 F2000
G1 X65.9246 Y55.1624 E10732.3 F2000
G1 X54.3281 Y47.9624 F2000
G1 X52.7272 E10733.7 F2000
G1 X52.6751 Y46.1624 F2000
G1 X45.1604 Y46.1623 E10740.5 F2000
G1 X43.3605 Y44.3624 F2000
G1 X51.8882 Y44.3624 E10748.2 F2000
G1 X51.997 Y42.5624 F2000
G1 X41.5604 Y42.5624 E10757.6 F2000
G1 X39.7605 Y40.7623 F2000
G1 X52.5798 Y40.7624 E10769.1 F2000
G1 X50.9005 Y38.9624 F2000
G1 X37.9604 Y38.9623 E10780.8 F2000
G1 X36.1604 Y37.1623 F2000
G1 X49.1005 Y37.1624 E10792.4 F2000
G1 X47.3005 Y35.3624 F2000
G1 X34.3604 Y35.3624 E10804 F2000
G1 X36.0357 Y33.5624 F2000
G1 X45.5005 Y33.5624 E10812.6 F2000
G1 X43.7005 Y31.7624 F2000
G1 X37.8357 Y31.7624 E10817.8 F2000
G1 X39.6357 Y29.9624 F2000
G1 X41.9005 E10819.9 F2000
G1 F70
G1 Z3.75 F70

G1 X40.3981 Y29.2 F2000
G1 X50.5009 Y46.6986 E10838.1 F2000
G1 X49.7552 Y47.0758 F2000
G1 X47.3007 Y47.2243 E10840.3 F2000
G1 X46.0557 Y47.9769 E10841.6 F2000
G1 X33.3789 Y35.3 E10857.7 F2000
G1 X40.7681 Y27.9107 E10867.1 F2000
G1 X53.445 Y40.5876 E10883.3 F2000
G1 X52.6924 Y41.8326 E10884.6 F2000
G1 X52.5439 Y44.2871 E10886.8 F2000
G1 X53.5531 Y46.5294 E10889 F2000
G1 X55.4888 Y48.0459 E10891.2 F2000
G1 X57.9075 Y48.4892 E10893.4 F2000
G1 X60.2551 Y47.7576 E10895.6 F2000
G1 X60.828 Y47.1847 E10896.4 F2000
G1 X60.9723 Y47.1249 E10896.5 F2000
G1 X62.9974 Y49.15 E10899.1 F2000
G1 X55.1131 Y57.0343 E10909.1 F2000
G1 X53.0458 Y54.9669 E10911.8 F2000
G1 X53.2257 Y54.787 E10912 F2000
G1 X53.9573 Y52.4393 E10914.2 F2000
G1 X53.514 Y50.0206 E10916.4 F2000
G1 X51.9975 Y48.085 E10918.6 F2000
G1 X49.7552 Y47.0758 E10920.8 F2000
G1 X49.6345 Y47.7343 F2000
G1 X47.4999 Y47.8634 E10922.8 F2000
G1 X45.9562 Y48.7966 E10924.4 F2000
G1 X32.4596 Y35.3 E10941.6 F2000
G1 X40.7681 Y26.9915 E10952.1 F2000
G1 X54.2647 Y40.4881 E10969.3 F2000
G1 X53.3315 Y42.0318 E10970.9 F2000
G1 X53.2024 Y44.1664 E10972.9 F2000
G1 X54.0801 Y46.1166 E10974.8 F2000
G1 X55.7635 Y47.4354 E10976.7 F2000
G1 X57.867 Y47.8209 E10978.6 F2000
G1 X59.9088 Y47.1847 E10980.6 F2000
G1 X60.4951 Y46.5984 E10981.3 F2000
G1 X60.7498 Y46.5135 E10981.5 F2000
G1 X61.0149 Y46.2484 E10981.9 F2000
G1 X63.9166 Y49.15 E10985.6 F2000
G1 X55.1131 Y57.9535 E10996.8 F2000
G1 X52.1265 Y54.9669 E11000.6 F2000
G1 X52.6528 Y54.4406 E11001.2 F2000
G1 X53.289 Y52.3989 E11003.2 F2000
G1 X52.9036 Y50.2954 E11005.1 F2000
G1 X51.5847 Y48.612 E11007 F2000
G1 X49.6345 Y47.7343 E11008.9 F2000
G1 X48.3146 Y46.5117 F2000
G1 X39.0804 Y30.5177 E11025.6 F2000
G1 X37.7627 Y31.8354 F2000
G1 X46.4914 Y46.9539 E11041.3 F2000
G1 X42.3105 Y43.3124 F2000
G1 X36.445 Y33.1531 E11051.8 F2000
G1 X35.1273 Y34.4708 F2000
G1 X37.3928 Y38.3947 E11055.9 F2000
G1 X44.3048 Y32.3667 F2000
G1 X56.9535 Y54.2747 E11078.7 F2000
G1 X58.2711 Y52.9571 F2000
G1 X55.8561 Y48.7741 E11083 F2000
G1 X58.1242 Y49.1025 F2000
G1 X59.5888 Y51.6394 E11085.7 F2000
G1 X60.9065 Y50.3217 F2000
G1 X59.8857 Y48.5535 E11087.5 F2000
G1 X54.3497 Y53.3649 F2000
G1 X55.6358 Y55.5924 E11089.8 F2000
G1 X58.6082 Y61.4486 F2000
G1 X67.4117 Y52.6451 E11101 F2000
G1 X70.3134 Y55.5468 E11104.7 F2000
G1 X70.0482 Y55.812 E11105 F2000
G1 X69.953 Y56.0418 E11105.3 F2000
G1 X70.0482 Y56.2716 E11105.5 F2000
G1 X71.321 Y57.5444 E11107.1 F2000
G1 X71.5508 Y57.6396 E11107.3 F2000
G1 X71.7806 Y57.5444 E11107.6 F2000
G1 X72.0458 Y57.2792 E11107.9 F2000
G1 X74.9475 Y60.1809 E11111.6 F2000
G1 X66.144 Y68.9844 E11122.8 F2000
G1 X58.6082 Y61.4486 E11132.4 F2000
G1 X59.5275 F2000
G1 X67.4117 Y53.5644 E11142.4 F2000
G1 X69.4368 Y55.5895 E11145 F2000
G1 X69.2495 Y56.0418 E11145.4 F2000
G1 X69.4972 Y56.6398 E11146 F2000
G1 X70.9528 Y58.0954 E11147.9 F2000
G1 X71.3021 Y58.2401 E11148.2 F2000
G1 X71.5508 Y58.2896 E11148.4 F2000
G1 X71.7996 Y58.2401 E11148.7 F2000
G1 X72.0031 Y58.1558 E11148.9 F2000
G1 X74.0283 Y60.1809 E11151.5 F2000
G1 X66.144 Y68.0652 E11161.5 F2000
G1 X59.5275 Y61.4486 E11169.9 F2000
G1 X60.8579 Y61.0374 F2000
G1 X61.9813 Y62.9832 E11171.9 F2000
G1 X62.1756 Y59.7198 F2000
G1 X66.3463 Y66.9436 E11179.4 F2000
G1 X67.664 Y65.6259 F2000
G1 X63.4933 Y58.4021 E11186.9 F2000
G1 X64.811 Y57.0844 F2000
G1 X68.9817 Y64.3083 E11194.5 F2000
G1 X70.2994 Y62.9906 F2000
G1 X66.1287 Y55.7667 E11202 F2000
G1 X67.541 Y54.6129 F2000
G1 X71.6171 Y61.6729 E11209.3 F2000
G1 X72.9348 Y60.3552 F2000
G1 X72.4587 Y59.5306 E11210.2 F2000
G1 X78.4426 Y63.676 F2000
G1 X69.6391 Y72.4795 E11221.4 F2000
G1 X72.6257 Y75.4661 E11225.2 F2000
G1 X73.152 Y74.9398 E11225.8 F2000
G1 X75.1937 Y74.3036 E11227.8 F2000
G1 X77.2972 Y74.6891 E11229.7 F2000
G1 X78.9807 Y76.008 E11231.6 F2000
G1 X79.8584 Y77.9581 E11233.5 F2000
G1 X79.7293 Y80.0928 E11235.5 F2000
G1 X78.7961 Y81.6364 E11237.1 F2000
G1 X92.2926 Y95.133 E11254.3 F2000
G1 X100.601 Y86.8245 E11264.8 F2000
G1 X87.1046 Y73.3279 E11282 F2000
G1 X85.5609 Y74.2611 E11283.6 F2000
G1 X83.4262 Y74.3903 E11285.6 F2000
G1 X81.4761 Y73.5126 E11287.5 F2000
G1 X80.1572 Y71.8291 E11289.4 F2000
G1 X79.7717 Y69.7256 E11291.3 F2000
G1 X80.4079 Y67.6839 E11293.3 F2000
G1 X80.9942 Y67.0976 E11294 F2000
G1 X81.0791 Y66.8428 E11294.2 F2000
G1 X81.3443 Y66.5777 E11294.6 F2000
G1 X78.4426 Y63.676 E11298.3 F2000
G1 Y64.5953 F2000
G1 X70.5583 Y72.4795 E11308.3 F2000
G1 X72.6257 Y74.5469 E11310.9 F2000
G1 X72.8057 Y74.3669 E11311.2 F2000
G1 X75.1533 Y73.6354 E11313.4 F2000
G1 X77.572 Y74.0786 E11315.6 F2000
G1 X79.5077 Y75.5951 E11317.8 F2000
G1 X80.5169 Y77.8374 E11320 F2000
G1 X80.3684 Y80.2919 E11322.2 F2000
G1 X79.6158 Y81.5369 E11323.5 F2000
G1 X92.2926 Y94.2138 E11339.7 F2000
G1 X99.6819 Y86.8245 E11349.1 F2000
G1 X87.005 Y74.1476 E11365.2 F2000
G1 X85.7601 Y74.9003 E11366.5 F2000
G1 X83.3056 Y75.0487 E11368.7 F2000
G1 X81.0632 Y74.0395 E11370.9 F2000
G1 X79.5467 Y72.1039 E11373.2 F2000
G1 X79.1035 Y69.6852 E11375.4 F2000
G1 X79.835 Y67.3375 E11377.6 F2000
G1 X80.408 Y66.7646 E11378.3 F2000
G1 X80.4677 Y66.6204 E11378.4 F2000
G1 X78.4426 Y64.5953 E11381 F2000
G1 X78.1569 Y65.8002 F2000
G1 X79.1158 Y67.461 E11382.7 F2000
G1 X76.8392 Y67.1179 F2000
G1 X78.499 Y69.9928 E11385.7 F2000
G1 X75.5215 Y68.4356 F2000
G1 X78.9063 Y74.2983 E11391.8 F2000
G1 X81.3115 Y74.8641 F2000
G1 X91.4874 Y92.4893 E11410.1 F2000
G1 X93.3946 Y92.1926 F2000
G1 X83.8534 Y75.6668 E11427.3 F2000
G1 X85.8617 Y75.5453 F2000
G1 X94.7123 Y90.8749 E11443.3 F2000
G1 X96.03 Y89.5572 F2000
G1 X88.564 Y76.6259 E11456.7 F2000
G1 X93.4817 Y81.5435 F2000
G1 X97.3476 Y88.2395 E11463.6 F2000
G1 X98.6653 Y86.9219 F2000
G1 X98.3994 Y86.4612 E11464.1 F2000
G1 X86.5697 Y87.5716 F2000
G1 X81.1473 Y78.1798 E11473.9 F2000
G1 X80.6985 Y81.0023 F2000
G1 X81.652 Y82.6539 E11475.6 F2000
G1 X76.1713 Y73.1611 F2000
G1 X74.2038 Y69.7533 E11479.1 F2000
G1 X72.8861 Y71.071 F2000
G1 X74.1535 Y73.2661 E11481.4 F2000
G1 X71.8167 Y72.8186 F2000
G1 X71.5684 Y72.3886 E11481.9 F2000
G1 X52.0229 Y42.1348 F2000
G1 X49.2225 Y37.2844 E11486.9 F2000
G1 F70
G1 Z4.05 F70

G1 X49.4992 Y37.561 F2000
G1 X44.7628 Y45.7647 E11495.4 F2000
G1 X43.4451 Y44.447 F2000
G1 X48.1815 Y36.2433 E11504 F2000
G1 X46.8638 Y34.9256 F2000
G1 X42.1274 Y43.1293 E11512.5 F2000
G1 X40.8097 Y41.8116 F2000
G1 X45.5461 Y33.6079 E11521 F2000
G1 X44.2284 Y32.2902 F2000
G1 X39.492 Y40.4939 E11529.5 F2000
G1 X38.1743 Y39.1762 F2000
G1 X42.9107 Y30.9725 E11538.1 F2000
G1 X41.593 Y29.6549 F2000
G1 X36.8566 Y37.8585 E11546.6 F2000
G1 X35.5389 Y36.5408 F2000
G1 X38.9289 Y30.6692 E11552.7 F2000
G1 X40.7681 Y27.9107 F2000
G1 X53.445 Y40.5876 E11568.8 F2000
G1 X52.6924 Y41.8326 E11570.1 F2000
G1 X52.5439 Y44.2871 E11572.4 F2000
G1 X53.5531 Y46.5294 E11574.6 F2000
G1 X55.4888 Y48.0459 E11576.8 F2000
G1 X57.9075 Y48.4892 E11579 F2000
G1 X60.2551 Y47.7576 E11581.2 F2000
G1 X60.828 Y47.1847 E11581.9 F2000
G1 X60.9723 Y47.1249 E11582.1 F2000
G1 X62.6527 Y48.8053 E11584.2 F2000
G1 X54.7684 Y56.6896 E11594.2 F2000
G1 X53.0458 Y54.9669 E11596.4 F2000
G1 X53.2257 Y54.787 E11596.7 F2000
G1 X53.9573 Y52.4393 E11598.9 F2000
G1 X53.514 Y50.0206 E11601.1 F2000
G1 X51.9975 Y48.085 E11603.3 F2000
G1 X49.7552 Y47.0758 E11605.5 F2000
G1 X47.3007 Y47.2243 E11607.7 F2000
G1 X46.0557 Y47.9769 E11609 F2000
G1 X33.3789 Y35.3 E11625.2 F2000
G1 X40.7681 Y27.9107 E11634.6 F2000
G1 Y26.9915 F2000
G1 X54.2647 Y40.4881 E11651.8 F2000
G1 X53.3315 Y42.0318 E11653.4 F2000
G1 X53.2024 Y44.1664 E11655.3 F2000
G1 X54.0801 Y46.1166 E11657.2 F2000
G1 X55.7635 Y47.4354 E11659.2 F2000
G1 X57.867 Y47.8209 E11661.1 F2000
G1 X59.9088 Y47.1847 E11663 F2000
G1 X60.4951 Y46.5984 E11663.8 F2000
G1 X60.7498 Y46.5135 E11664 F2000
G1 X61.0149 Y46.2484 E11664.3 F2000
G1 X63.5719 Y48.8053 E11667.6 F2000
G1 X54.7684 Y57.6088 E11678.8 F2000
G1 X52.1265 Y54.9669 E11682.1 F2000
G1 X52.6528 Y54.4406 E11682.8 F2000
G1 X53.289 Y52.3989 E11684.7 F2000
G1 X52.9036 Y50.2954 E11686.7 F2000
G1 X51.5847 Y48.612 E11688.6 F2000
G1 X49.6345 Y47.7343 E11690.5 F2000
G1 X47.4999 Y47.8634 E11692.4 F2000
G1 X45.9562 Y48.7966 E11694.1 F2000
G1 X32.4596 Y35.3 E11711.2 F2000
G1 X40.7681 Y26.9915 E11721.8 F2000
G1 X50.8168 Y38.8787 F2000
G1 X46.0805 Y47.0824 E11730.3 F2000
G1 X48.4947 Y46.5008 F2000
G1 X52.1345 Y40.1964 E11736.9 F2000
G1 X51.8976 Y44.2068 F2000
G1 X50.4676 Y46.6836 E11739.5 F2000
G1 X52.1174 Y47.4261 F2000
G1 X52.7504 Y46.3297 E11740.6 F2000
G1 X54.0239 Y47.724 F2000
G1 X53.3945 Y48.8141 E11741.7 F2000
G1 X55.5305 Y48.7144 F2000
G1 X54.3198 Y50.8114 E11743.9 F2000
G1 X57.4101 Y49.0588 F2000
G1 X53.9866 Y54.9885 E11750.1 F2000
G1 X56.7684 Y53.7704 F2000
G1 X59.7572 Y48.5936 E11755.5 F2000
G1 X61.6861 Y48.8527 F2000
G1 X61.7207 Y48.7926 E11755.5 F2000
G1 X67.7565 Y52.9899 F2000
G1 X58.953 Y61.7934 E11766.7 F2000
G1 X65.7993 Y68.6397 E11775.4 F2000
G1 X74.6028 Y59.8362 E11786.6 F2000
G1 X72.0458 Y57.2792 E11789.9 F2000
G1 X71.7806 Y57.5444 E11790.2 F2000
G1 X71.5508 Y57.6396 E11790.5 F2000
G1 X71.321 Y57.5444 E11790.7 F2000
G1 X70.0482 Y56.2716 E11792.3 F2000
G1 X69.953 Y56.0418 E11792.5 F2000
G1 X70.0482 Y55.812 E11792.7 F2000
G1 X70.3134 Y55.5468 E11793.1 F2000
G1 X67.7565 Y52.9899 E11796.3 F2000
G1 Y53.9091 F2000
G1 X59.8722 Y61.7934 E11806.4 F2000
G1 X65.7993 Y67.7204 E11813.9 F2000
G1 X73.6835 Y59.8362 E11824 F2000
G1 X72.0031 Y58.1558 E11826.1 F2000
G1 X71.7996 Y58.2401 E11826.3 F2000
G1 X71.5508 Y58.2896 E11826.5 F2000
G1 X71.3021 Y58.2401 E11826.8 F2000
G1 X70.9528 Y58.0954 E11827.1 F2000
G1 X69.4972 Y56.6398 E11828.9 F2000
G1 X69.2495 Y56.0418 E11829.5 F2000
G1 X69.4368 Y55.5895 E11830 F2000
G1 X67.7565 Y53.9091 E11832.1 F2000
G1 X68.3092 Y55.3811 F2000
G1 X63.2104 Y64.2123 E11841.3 F2000
G1 X61.8928 Y62.8947 F2000
G1 X64.9015 Y57.6833 E11846.7 F2000
G1 X69.2645 Y57.3264 F2000
G1 X64.5281 Y65.53 E11855.2 F2000
G1 X65.973 Y66.6275 F2000
G1 X70.5822 Y58.6441 E11863.5 F2000
G1 X72.2623 Y59.3341 F2000
G1 X70.8907 Y61.7098 E11866 F2000
G1 X78.7873 Y64.0208 F2000
G1 X69.9839 Y72.8242 E11877.2 F2000
G1 X72.6257 Y75.4661 E11880.6 F2000
G1 X73.152 Y74.9398 E11881.2 F2000
G1 X75.1937 Y74.3036 E11883.2 F2000
G1 X77.2972 Y74.6891 E11885.1 F2000
G1 X78.9807 Y76.008 E11887 F2000
G1 X79.8584 Y77.9581 E11888.9 F2000
G1 X79.7293 Y80.0928 E11890.9 F2000
G1 X78.7961 Y81.6364 E11892.5 F2000
G1 X92.2926 Y95.133 E11909.7 F2000
G1 X100.601 Y86.8245 E11920.2 F2000
G1 X87.1046 Y73.3279 E11937.4 F2000
G1 X85.5609 Y74.2611 E11939 F2000
G1 X83.4262 Y74.3903 E11941 F2000
G1 X81.4761 Y73.5126 E11942.9 F2000
G1 X80.1572 Y71.8291 E11944.8 F2000
G1 X79.7717 Y69.7256 E11946.7 F2000
G1 X80.4079 Y67.6839 E11948.7 F2000
G1 X80.9942 Y67.0976 E11949.4 F2000
G1 X81.0791 Y66.8428 E11949.6 F2000
G1 X81.3443 Y66.5777 E11950 F2000
G1 X78.7873 Y64.0208 E11953.2 F2000
G1 Y64.94 F2000
G1 X70.9031 Y72.8242 E11963.3 F2000
G1 X72.6257 Y74.5469 E11965.4 F2000
G1 X72.8057 Y74.3669 E11965.7 F2000
G1 X75.1533 Y73.6354 E11967.9 F2000
G1 X77.572 Y74.0786 E11970.1 F2000
G1 X79.5077 Y75.5951 E11972.3 F2000
G1 X80.5169 Y77.8374 E11974.5 F2000
G1 X80.3684 Y80.2919 E11976.7 F2000
G1 X79.6158 Y81.5369 E11978 F2000
G1 X92.2926 Y94.2138 E11994.2 F2000
G1 X99.6819 Y86.8245 E12003.6 F2000
G1 X87.005 Y74.1476 E12019.7 F2000
G1 X85.7601 Y74.9003 E12021 F2000
G1 X83.3056 Y75.0487 E12023.2 F2000
G1 X81.0632 Y74.0395 E12025.5 F2000
G1 X79.5467 Y72.1039 E12027.7 F2000
G1 X79.1035 Y69.6852 E12029.9 F2000
G1 X79.835 Y67.3375 E12032.1 F2000
G1 X80.408 Y66.7646 E12032.8 F2000
G1 X80.4677 Y66.6204 E12033 F2000
G1 X78.7873 Y64.94 E12035.1 F2000
G1 X78.8507 Y65.9226 F2000
G1 X74.7113 Y73.0923 E12042.6 F2000
G1 X76.6947 Y73.257 F2000
G1 X78.5184 Y70.0983 E12045.8 F2000
G1 X79.1343 Y72.6314 F2000
G1 X78.4007 Y73.9021 E12047.2 F2000
G1 X79.8318 Y75.0233 F2000
G1 X80.3309 Y74.1588 E12048.1 F2000
G1 X81.8597 Y75.1108 F2000
G1 X80.8161 Y76.9185 E12049.9 F2000
G1 X83.6087 Y75.6816 F2000
G1 X81.0281 Y80.1513 E12054.6 F2000
G1 X81.6581 Y82.66 F2000
G1 X85.7623 Y75.5513 E12062 F2000
G1 X87.7122 Y75.774 F2000
G1 X82.9758 Y83.9777 E12070.5 F2000
G1 X84.2935 Y85.2954 F2000
G1 X89.0299 Y77.0917 E12079 F2000
G1 X90.3476 Y78.4094 F2000
G1 X85.6112 Y86.6131 E12087.5 F2000
G1 X86.9289 Y87.9308 F2000
G1 X91.6653 Y79.7271 E12096.1 F2000
G1 X92.983 Y81.0448 F2000
G1 X88.2466 Y89.2485 E12104.6 F2000
G1 X89.5643 Y90.5662 F2000
G1 X94.3007 Y82.3625 E12113.1 F2000
G1 X95.6184 Y83.6802 F2000
G1 X90.882 Y91.8839 E12121.6 F2000
G1 X92.1996 Y93.2016 F2000
G1 X96.9361 Y84.9979 E12130.2 F2000
G1 X98.2537 Y86.3156 F2000
G1 X96.8633 Y88.7239 E12132.7 F2000
G1 X72.4343 Y73.4362 F2000
G1 X74.1062 Y70.5404 E12135.7 F2000
G1 F70
G1 Z4.35 F70

G1 X74.3773 Y70.5621 F2000
G1 X78.6034 E12139.5 F2000
G1 X79.1035 Y69.6852 F2000
G1 X79.5467 Y72.1039 E12141.7 F2000
G1 X81.0632 Y74.0395 E12143.9 F2000
G1 X83.3056 Y75.0487 E12146.1 F2000
G1 X85.7601 Y74.9003 E12148.3 F2000
G1 X87.005 Y74.1476 E12149.6 F2000
G1 X99.6819 Y86.8245 E12165.8 F2000
G1 X92.2926 Y94.2138 E12175.2 F2000
G1 X79.6158 Y81.5369 E12191.3 F2000
G1 X80.3684 Y80.2919 E12192.6 F2000
G1 X80.5169 Y77.8374 E12194.8 F2000
G1 X79.5077 Y75.5951 E12197.1 F2000
G1 X77.572 Y74.0786 E12199.3 F2000
G1 X75.1533 Y73.6354 E12201.5 F2000
G1 X72.8057 Y74.3669 E12203.7 F2000
G1 X72.6257 Y74.5469 E12203.9 F2000
G1 X71.0495 Y72.9706 E12205.9 F2000
G1 X78.9338 Y65.0864 E12216 F2000
G1 X80.4677 Y66.6204 E12217.9 F2000
G1 X80.408 Y66.7646 E12218.1 F2000
G1 X79.835 Y67.3375 E12218.8 F2000
G1 X79.1035 Y69.6852 E12221 F2000
G1 X79.7717 Y69.7256 F2000
G1 X80.1572 Y71.8291 E12222.9 F2000
G1 X81.4761 Y73.5126 E12224.9 F2000
G1 X83.4262 Y74.3903 E12226.8 F2000
G1 X85.5609 Y74.2611 E12228.7 F2000
G1 X87.1046 Y73.3279 E12230.3 F2000
G1 X100.601 Y86.8245 E12247.5 F2000
G1 X92.2926 Y95.133 E12258.1 F2000
G1 X78.7961 Y81.6364 E12275.3 F2000
G1 X79.7293 Y80.0928 E12276.9 F2000
G1 X79.8584 Y77.9581 E12278.8 F2000
G1 X78.9807 Y76.008 E12280.7 F2000
G1 X77.2972 Y74.6891 E12282.7 F2000
G1 X75.1937 Y74.3036 E12284.6 F2000
G1 X73.152 Y74.9398 E12286.5 F2000
G1 X72.6257 Y75.4661 E12287.2 F2000
G1 X70.1303 Y72.9706 E12290.4 F2000
G1 X78.9338 Y64.1672 E12301.6 F2000
G1 X81.3443 Y66.5777 E12304.6 F2000
G1 X81.0791 Y66.8428 E12305 F2000
G1 X80.9839 Y67.0727 E12305.2 F2000
G1 X80.4079 Y67.6839 E12305.9 F2000
G1 X79.7717 Y69.7256 E12307.9 F2000
G1 X78.7103 Y68.7622 F2000
G1 X76.1773 E12310.1 F2000
G1 X77.9773 Y66.9622 F2000
G1 X79.2912 E12311.3 F2000
G1 X78.9332 Y72.3622 F2000
G1 X72.5773 E12317 F2000
G1 X78.7326 Y74.1622 F2000
G1 X80.3336 Y74.1621 E12318.5 F2000
G1 X80.3857 Y75.9622 F2000
G1 X87.9003 E12325.2 F2000
G1 X89.7003 Y77.7621 F2000
G1 X81.1726 E12332.9 F2000
G1 X81.0637 Y79.5621 F2000
G1 X91.5003 E12342.3 F2000
G1 X93.3003 Y81.3621 F2000
G1 X80.481 E12353.8 F2000
G1 X82.1602 Y83.1621 F2000
G1 X95.1003 E12365.5 F2000
G1 X96.9003 Y84.9621 F2000
G1 X83.9602 E12377.1 F2000
G1 X85.7602 Y86.7621 F2000
G1 X98.7003 E12388.8 F2000
G1 X97.025 Y88.5621 F2000
G1 X87.5602 E12397.3 F2000
G1 X89.3602 Y90.3621 F2000
G1 X95.225 E12402.6 F2000
G1 X93.425 Y92.1621 F2000
G1 X91.1602 E12404.6 F2000
G1 X65.6529 Y68.4932 F2000
G1 X59.0994 Y61.9398 E12413 F2000
G1 X67.9029 Y53.1363 E12424.2 F2000
G1 X70.3134 Y55.5468 E12427.2 F2000
G1 X70.0482 Y55.812 E12427.6 F2000
G1 X69.953 Y56.0418 E12427.8 F2000
